<?xml version="1.0" encoding="UTF-8"?>
<map version="1.9" tiledversion="1.9.2" orientation="orthogonal" renderorder="right-down" width="100" height="100" tilewidth="64" tileheight="64" infinite="0" nextlayerid="9" nextobjectid="10">
 <tileset firstgid="1" name="dikuai" tilewidth="64" tileheight="64" tilecount="512" columns="32">
  <image source="../../../Client.Unity/Assets/AssetRaw/MapTiles/dikuai.png" width="2048" height="1080"/>
 </tileset>
 <tileset firstgid="513" name="dikuai2" tilewidth="64" tileheight="64" tilecount="1024" columns="32">
  <image source="../../../Client.Unity/Assets/AssetRaw/MapTiles/dikuai2.png" width="2048" height="2048"/>
 </tileset>
 <tileset firstgid="1537" name="huoshan" tilewidth="64" tileheight="64" tilecount="1024" columns="32">
  <image source="../../../Client.Unity/Assets/AssetRaw/MapTiles/huoshan.png" width="2048" height="2048"/>
  <wangsets>
   <wangset name="水" type="corner" tile="593">
    <wangcolor name="水" color="#ff0000" tile="-1" probability="1"/>
    <wangtile tileid="560" wangid="0,0,0,1,0,0,0,0"/>
    <wangtile tileid="561" wangid="0,0,0,1,0,1,0,0"/>
    <wangtile tileid="562" wangid="0,0,0,0,0,1,0,0"/>
    <wangtile tileid="592" wangid="0,1,0,1,0,0,0,0"/>
    <wangtile tileid="593" wangid="0,1,0,1,0,1,0,1"/>
    <wangtile tileid="594" wangid="0,0,0,0,0,1,0,1"/>
    <wangtile tileid="624" wangid="0,1,0,0,0,0,0,0"/>
    <wangtile tileid="625" wangid="0,1,0,0,0,0,0,1"/>
    <wangtile tileid="626" wangid="0,0,0,0,0,0,0,1"/>
    <wangtile tileid="656" wangid="0,1,0,0,0,1,0,1"/>
    <wangtile tileid="657" wangid="0,1,0,1,0,0,0,1"/>
    <wangtile tileid="688" wangid="0,0,0,1,0,1,0,1"/>
    <wangtile tileid="689" wangid="0,1,0,1,0,1,0,0"/>
   </wangset>
   <wangset name="岩浆" type="corner" tile="47">
    <wangcolor name="岩浆" color="#ff0000" tile="-1" probability="1"/>
    <wangtile tileid="14" wangid="0,0,0,1,0,0,0,0"/>
    <wangtile tileid="15" wangid="0,0,0,1,0,1,0,0"/>
    <wangtile tileid="16" wangid="0,0,0,0,0,1,0,0"/>
    <wangtile tileid="46" wangid="0,1,0,1,0,0,0,0"/>
    <wangtile tileid="47" wangid="0,1,0,1,0,1,0,1"/>
    <wangtile tileid="48" wangid="0,0,0,0,0,1,0,1"/>
    <wangtile tileid="78" wangid="0,1,0,0,0,0,0,0"/>
    <wangtile tileid="79" wangid="0,1,0,0,0,0,0,1"/>
    <wangtile tileid="80" wangid="0,0,0,0,0,0,0,1"/>
    <wangtile tileid="110" wangid="0,1,0,0,0,1,0,1"/>
    <wangtile tileid="111" wangid="0,1,0,1,0,0,0,1"/>
    <wangtile tileid="142" wangid="0,0,0,1,0,1,0,1"/>
    <wangtile tileid="143" wangid="0,1,0,1,0,1,0,0"/>
   </wangset>
  </wangsets>
 </tileset>
 <tileset firstgid="2561" name="senlin2" tilewidth="64" tileheight="64" tilecount="256" columns="16">
  <image source="../../../Client.Unity/Assets/AssetRaw/MapTiles/senlin2.png" width="1024" height="1024"/>
 </tileset>
 <layer id="1" name="bg1" width="100" height="100">
  <data encoding="csv">
1537,1537,1537,1537,1537,1537,1537,1537,1537,1537,1537,1537,1537,1537,1537,1537,1537,1537,1537,1537,1537,1537,1537,1537,1537,1537,1537,1537,1537,1537,1537,1537,1537,1537,1537,1537,1537,1537,1537,1537,1537,1537,1537,1537,1537,1537,1537,1537,1537,1537,1537,1537,1537,1537,1537,1537,1537,1537,1537,1537,1537,1537,1537,1537,1537,1537,1537,1537,1537,1537,1537,1537,1537,1537,1537,1537,1537,1537,1537,1537,1537,1537,1537,1537,1537,1537,1537,1537,1537,1537,1537,1537,1537,1537,1537,1537,1537,1537,1537,1537,
1537,1537,1537,1537,1537,1537,1537,1537,1537,1537,1537,1537,1537,1537,1537,1537,1537,1537,1537,1537,1537,1537,1537,1537,1537,1537,1537,1537,1537,1537,1537,1537,1537,1537,1537,1537,1537,1537,1537,1537,1537,1537,1537,1537,1537,1537,1537,1537,1537,1537,1537,1537,1537,1537,1537,1537,1537,1537,1537,1537,1537,1537,1537,1537,1537,1537,1537,1537,1537,1537,1537,1537,1537,1537,1537,1537,1537,1537,1537,1537,1537,1537,1537,1537,1537,1537,1537,1537,1537,1537,1537,1537,1537,1537,1537,1537,1537,1537,1537,1537,
1537,1537,1537,1537,1537,1537,1537,1537,1537,1537,1537,1537,1537,1537,1537,1537,1537,1537,1537,1537,1537,1537,1537,1537,1537,1537,1537,1537,1537,1537,1537,1537,1537,1537,1537,1537,1537,1537,1537,1537,1537,1537,1537,1537,1537,1537,1537,1537,1537,1537,1537,1537,1537,1537,1537,1537,1537,1537,1537,1537,1537,1537,1537,1537,1537,1537,1537,1537,1537,1537,1537,1537,1537,1537,1537,1537,1537,1537,1537,1537,1537,1537,1537,1537,1537,1537,1537,1537,1537,1537,1537,1537,1537,1537,1537,1537,1537,1537,1537,1537,
1537,1537,1537,1537,1537,1537,1537,1537,1537,1537,1537,1537,1537,1537,1537,1537,1537,1537,1537,1537,1537,1537,1537,1537,1537,1537,1537,1537,1537,1537,1537,1537,1537,1537,1537,1537,1537,1537,1537,1537,1537,1537,1537,1537,1537,1537,1537,1537,1537,1537,1537,1537,1537,1537,1537,1537,1537,1537,1537,1537,1537,1537,1537,1537,1537,1537,1537,1537,1537,1537,1537,1537,1537,1537,1537,1537,1537,1537,1537,1537,1537,1537,1537,1537,1537,1537,1537,1537,1537,1537,1537,1537,1537,1537,1537,1537,1537,1537,1537,1537,
1537,1537,1537,1537,1537,1537,1537,1537,1537,1537,1537,1537,1537,1537,1537,1537,1537,1537,1537,1537,1537,1537,1537,1537,1537,1537,1537,1537,1537,1537,1537,1537,1537,1537,1537,1537,1537,1537,1537,1537,1537,1537,1537,1537,1537,1537,1537,1537,1537,1537,1537,1537,1537,1537,1537,1537,1537,1537,1537,1537,1537,1537,1537,1537,1537,1537,1537,1537,1537,1537,1537,1537,1537,1537,1537,1537,1537,1537,1537,1537,1537,1537,1537,1537,1537,1537,1537,1537,1537,1537,1537,1537,1537,1537,1537,1537,1537,1537,1537,1537,
1537,1537,1537,1537,1537,1537,1537,1537,1537,1537,1537,1537,1537,1537,1537,1537,1537,1537,1537,1537,1537,1537,1537,1537,1537,1537,1537,1537,1537,1537,1537,1537,1537,1537,1537,1537,1537,1537,1537,1537,1537,1537,1537,1537,1537,1537,1537,1537,1537,1537,1537,1537,1537,1537,1537,1537,1537,1537,1537,1537,1537,1537,1537,1537,1537,1537,1537,1537,1537,1537,1537,1537,1537,1537,1537,1537,1537,1537,1537,1537,1537,1537,1537,1537,1537,1537,1537,1537,1537,1537,1537,1537,1537,1537,1537,1537,1537,1537,1537,1537,
1537,1537,1537,1537,1537,1537,1537,1537,1537,1537,1537,1537,1537,1537,1537,1537,1537,1537,1537,1537,1537,1537,1537,1537,1537,1537,1537,1537,1537,1537,1537,1537,1537,1537,1537,1537,1537,1537,1537,1537,1537,1537,1537,1537,1537,1537,1537,1537,1537,1537,1537,1537,1537,1537,1537,1537,1537,1537,1537,1537,1537,1537,1537,1537,1537,1537,1537,1537,1537,1537,1537,1537,1537,1537,1537,1537,1537,1537,1537,1537,1537,1537,1537,1537,1537,1537,1537,1537,1537,1537,1537,1537,1537,1537,1537,1537,1537,1537,1537,1537,
1537,1537,1537,1537,1537,1537,1537,1537,1537,1537,1537,1537,1537,1537,1537,1537,1537,1537,1537,1537,1537,1537,1537,1537,1537,1537,1537,1537,1537,1537,1537,1537,1537,1537,1537,1537,1537,1537,1537,1537,1537,1537,1537,1537,1537,1537,1537,1537,1537,1537,1537,1537,1537,1537,1537,1537,1537,1537,1537,1537,1537,1537,1537,1537,1537,1537,1537,1537,1537,1537,1537,1537,1537,1537,1537,1537,1537,1537,1537,1537,1537,1537,1537,1537,1537,1537,1537,1537,1537,1537,1537,1537,1537,1537,1537,1537,1537,1537,1537,1537,
1537,1537,1537,1537,1537,1537,1537,1537,1537,1537,1537,1537,1537,1537,1537,1537,1537,1537,1537,1537,1537,1537,1537,1537,1537,1537,1537,1537,1537,1537,1537,1537,1537,1537,1537,1537,1537,1537,1537,1537,1537,1537,1537,1537,1537,1537,1537,1537,1537,1537,1537,1537,1537,1537,1537,1537,1537,1537,1537,1537,1537,1537,1537,1537,1537,1537,1537,1537,1537,1537,1537,1537,1537,1537,1537,1537,1537,1537,1537,1537,1537,1537,1537,1537,1537,1537,1537,1537,1537,1537,1537,1537,1537,1537,1537,1537,1537,1537,1537,1537,
1537,1537,1537,1537,1537,1537,1537,1537,1537,1537,1537,1537,1537,1537,1537,1537,1537,1537,1537,1537,1537,1537,1537,1537,1537,1537,1537,1537,1537,1537,1537,1537,1537,1537,1537,1537,1537,1537,1537,1537,1537,1537,1537,1537,1537,1537,1537,1537,1537,1537,1537,1537,1537,1537,1537,1537,1537,1537,1537,1537,1537,1537,1537,1537,1537,1537,1537,1537,1537,1537,1537,1537,1537,1537,1537,1537,1537,1537,1537,1537,1537,1537,1537,1537,1537,1537,1537,1537,1537,1537,1537,1537,1537,1537,1537,1537,1537,1537,1537,1537,
1537,1537,1537,1537,1537,1537,1537,1537,1537,1537,1537,1537,1537,1537,1537,1537,1537,1537,1537,1537,1537,1537,1537,1537,1537,1537,1537,1537,1537,1537,1537,1537,1537,1537,1537,1537,1537,1537,1537,1537,1537,1537,1537,1537,1537,1537,1537,1537,1537,1537,1537,1537,1537,1537,1537,1537,1537,1537,1537,1537,1537,1537,1537,1537,1537,1537,1537,1537,1537,1537,1537,1537,1537,1537,1537,1537,1537,1537,1537,1537,1537,1537,1537,1537,1537,1537,1537,1537,1537,1537,1537,1537,1537,1537,1537,1537,1537,1537,1537,1537,
1537,1537,1537,1537,1537,1537,1537,1537,1537,1537,1537,1537,1537,1537,1537,1537,1537,1537,1537,1537,1537,1537,1537,1537,1537,1537,1537,1537,1537,1537,1537,1537,1537,1537,1537,1537,1537,1537,1537,1537,1537,1537,1537,1537,1537,1537,1537,1537,1537,1537,1537,1537,1537,1537,1537,1537,1537,1537,1537,1537,1537,1537,1537,1537,1537,1537,1537,1537,1537,1537,1537,1537,1537,1537,1537,1537,1537,1537,1537,1537,1537,1537,1537,1537,1537,1537,1537,1537,1537,1537,1537,1537,1537,1537,1537,1537,1537,1537,1537,1537,
1537,1537,1537,1537,1537,1537,1537,1537,1537,1537,1537,1537,1537,1537,1537,1537,1537,1537,1537,1537,1537,1537,1537,1537,1537,1537,1537,1537,1537,1537,1537,1537,1537,1537,1537,1537,1537,1537,1537,1537,1537,1537,1537,1537,1537,1537,1537,1537,1537,1537,1537,1537,1537,1537,1537,1537,1537,1537,1537,1537,1537,1537,1537,1537,1537,1537,1537,1537,1537,1537,1537,1537,1537,1537,1537,1537,1537,1537,1537,1537,1537,1537,1537,1537,1537,1537,1537,1537,1537,1537,1537,1537,1537,1537,1537,1537,1537,1537,1537,1537,
1537,1537,1537,1537,1537,1537,1537,1537,1537,1537,1537,1537,1537,1537,1537,1537,1537,1537,1537,1537,1537,1537,1537,1537,1537,1537,1537,1537,1537,1537,1537,1537,1537,1537,1537,1537,1537,1537,1537,1537,1537,1537,1537,1537,1537,1537,1537,1537,1537,1537,1537,1537,1537,1537,1537,1537,1537,1537,1537,1537,1537,1537,1537,1537,1537,1537,1537,1537,1537,1537,1537,1537,1537,1537,1537,1537,1537,1537,1537,1537,1537,1537,1537,1537,1537,1537,1537,1537,1537,1537,1537,1537,1537,1537,1537,1537,1537,1537,1537,1537,
1537,1537,1537,1537,1537,1537,1537,1537,1537,1537,1537,1537,1537,1537,1537,1537,1537,1537,1537,1537,1537,1537,1537,1537,1537,1537,1537,1537,1537,1537,1537,1537,1537,1537,1537,1537,1537,1537,1537,1537,1537,1537,1537,1537,1537,1537,1537,1537,1537,1537,1537,1537,1537,1537,1537,1537,1537,1537,1537,1537,1537,1537,1537,1537,1537,1537,1537,1537,1537,1537,1537,1537,1537,1537,1537,1537,1537,1537,1537,1537,1537,1537,1537,1537,1537,1537,1537,1537,1537,1537,1537,1537,1537,1537,1537,1537,1537,1537,1537,1537,
1537,1537,1537,1537,1537,1537,1537,1537,1537,1537,1537,1537,1537,1537,1537,1537,1537,1537,1537,1537,1537,1537,1537,1537,1537,1537,1537,1537,1537,1537,1537,1537,1537,1537,1537,1537,1537,1537,1537,1537,1537,1537,1537,1537,1537,1537,1537,1537,1537,1537,1537,1537,1537,1537,1537,1537,1537,1537,1537,1537,1537,1537,1537,1537,1537,1537,1537,1537,1537,1537,1537,1537,1537,1537,1537,1537,1537,1537,1537,1537,1537,1537,1537,1537,1537,1537,1537,1537,1537,1537,1537,1537,1537,1537,1537,1537,1537,1537,1537,1537,
1537,1537,1537,1537,1537,1537,1537,1537,1537,1537,1537,1537,1537,1537,1537,1537,1537,1537,1537,1537,1537,1537,1537,1537,1537,1537,1537,1537,1537,1537,1537,1537,1537,1537,1537,1537,1537,1537,1537,1537,1537,1537,1537,1537,1537,1537,1537,1537,1537,1537,1537,1537,1537,1537,1537,1537,1537,1537,1537,1537,1537,1537,1537,1537,1537,1537,1537,1537,1537,1537,1537,1537,1537,1537,1537,1537,1537,1537,1537,1537,1537,1537,1537,1537,1537,1537,1537,1537,1537,1537,1537,1537,1537,1537,1537,1537,1537,1537,1537,1537,
1537,1537,1537,1537,1537,1537,1537,1537,1537,1537,1537,1537,1537,1537,1537,1537,1537,1537,1537,1537,1537,1537,1537,1537,1537,1537,1537,1537,1537,1537,1537,1537,1537,1537,1537,1537,1537,1537,1537,1537,1537,1537,1537,1537,1537,1537,1537,1537,1537,1537,1537,1537,1537,1537,1537,1537,1537,1537,1537,1537,1537,1537,1537,1537,1537,1537,1537,1537,1537,1537,1537,1537,1537,1537,1537,1537,1537,1537,1537,1537,1537,1537,1537,1537,1537,1537,1537,1537,1537,1537,1537,1537,1537,1537,1537,1537,1537,1537,1537,1537,
1537,1537,1537,1537,1537,1537,1537,1537,1537,1537,1537,1537,1537,1537,1537,1537,1537,1537,1537,1537,1537,1537,1537,1537,1537,1537,1537,1537,1537,1537,1537,1537,1537,1537,1537,1537,1537,1537,1537,1537,1537,1537,1537,1537,1537,1537,1537,1537,1537,1537,1537,1537,1537,1537,1537,1537,1537,1537,1537,1537,1537,1537,1537,1537,1537,1537,1537,1537,1537,1537,1537,1537,1537,1537,1537,1537,1537,1537,1537,1537,1537,1537,1537,1537,1537,1537,1537,1537,1537,1537,1537,1537,1537,1537,1537,1537,1537,1537,1537,1537,
1537,1537,1537,1537,1537,1537,1537,1537,1537,1537,1537,1537,1537,1537,1537,1537,1537,1537,1537,1537,1537,1537,1537,1537,1537,1537,1537,1537,1537,1537,1537,1537,1537,1537,1537,1537,1537,1537,1537,1537,1537,1537,1537,1537,1537,1537,1537,1537,1537,1537,1537,1537,1537,1537,1537,1537,1537,1537,1537,1537,1537,1537,1537,1537,1537,1537,1537,1537,1537,1537,1537,1537,1537,1537,1537,1537,1537,1537,1537,1537,1537,1537,1537,1537,1537,1537,1537,1537,1537,1537,1537,1537,1537,1537,1537,1537,1537,1537,1537,1537,
1537,1537,1537,1537,1537,1537,1537,1537,1537,1537,1537,1537,1537,1537,1537,1537,1537,1537,1537,1537,1537,1537,1537,1537,1537,1537,1537,1537,1537,1537,1537,1537,1537,1537,1537,1537,1537,1537,1537,1537,1537,1537,1537,1537,1537,1537,1537,1537,1537,1537,1537,1537,1537,1537,1537,1537,1537,1537,1537,1537,1537,1537,1537,1537,1537,1537,1537,1537,1537,1537,1537,1537,1537,1537,1537,1537,1537,1537,1537,1537,1537,1537,1537,1537,1537,1537,1537,1537,1537,1537,1537,1537,1537,1537,1537,1537,1537,1537,1537,1537,
1537,1537,1537,1537,1537,1537,1537,1537,1537,1537,1537,1537,1537,1537,1537,1537,1537,1537,1537,1537,1537,1537,1537,1537,1537,1537,1537,1537,1537,1537,1537,1537,1537,1537,1537,1537,1537,1537,1537,1537,1537,1537,1537,1537,1537,1537,1537,1537,1537,1537,1537,1537,1537,1537,1537,1537,1537,1537,1537,1537,1537,1537,1537,1537,1537,1537,1537,1537,1537,1537,1537,1537,1537,1537,1537,1537,1537,1537,1537,1537,1537,1537,1537,1537,1537,1537,1537,1537,1537,1537,1537,1537,1537,1537,1537,1537,1537,1537,1537,1537,
1537,1537,1537,1537,1537,1537,1537,1537,1537,1537,1537,1537,1537,1537,1537,1537,1537,1537,1537,1537,1537,1537,1537,1537,1537,1537,1537,1537,1537,1537,1537,1537,1537,1537,1537,1537,1537,1537,1537,1537,1537,1537,1537,1537,1537,1537,1537,1537,1537,1537,1537,1537,1537,1537,1537,1537,1537,1537,1537,1537,1537,1537,1537,1537,1537,1537,1537,1537,1537,1537,1537,1537,1537,1537,1537,1537,1537,1537,1537,1537,1537,1537,1537,1537,1537,1537,1537,1537,1537,1537,1537,1537,1537,1537,1537,1537,1537,1537,1537,1537,
1537,1537,1537,1537,1537,1537,1537,1537,1537,1537,1537,1537,1537,1537,1537,1537,1537,1537,1537,1537,1537,1537,1537,1537,1537,1537,1537,1537,1537,1537,1537,1537,1537,1537,1537,1537,1537,1537,1537,1537,1537,1537,1537,1537,1537,1537,1537,1537,1537,1537,1537,1537,1537,1537,1537,1537,1537,1537,1537,1537,1537,1537,1537,1537,1537,1537,1537,1537,1537,1537,1537,1537,1537,1537,1537,1537,1537,1537,1537,1537,1537,1537,1537,1537,1537,1537,1537,1537,1537,1537,1537,1537,1537,1537,1537,1537,1537,1537,1537,1537,
1537,1537,1537,1537,1537,1537,1537,1537,1537,1537,1537,1537,1537,1537,1537,1537,1537,1537,1537,1537,1537,1537,1537,1537,1537,1537,1537,1537,1537,1537,1537,1537,1537,1537,1537,1537,1537,1537,1537,1537,1537,1537,1537,1537,1537,1537,1537,1537,1537,1537,1537,1537,1537,1537,1537,1537,1537,1537,1537,1537,1537,1537,1537,1537,1537,1537,1537,1537,1537,1537,1537,1537,1537,1537,1537,1537,1537,1537,1537,1537,1537,1537,1537,1537,1537,1537,1537,1537,1537,1537,1537,1537,1537,1537,1537,1537,1537,1537,1537,1537,
1537,1537,1537,1537,1537,1537,1537,1537,1537,1537,1537,1537,1537,1537,1537,1537,1537,1537,1537,1537,1537,1537,1537,1537,1537,1537,1537,1537,1537,1537,1537,1537,1537,1537,1537,1537,1537,1537,1537,1537,1537,1537,1537,1537,1537,1537,1537,1537,1537,1537,1537,1537,1537,1537,1537,1537,1537,1537,1537,1537,1537,1537,1537,1537,1537,1537,1537,1537,1537,1537,1537,1537,1537,1537,1537,1537,1537,1537,1537,1537,1537,1537,1537,1537,1537,1537,1537,1537,1537,1537,1537,1537,1537,1537,1537,1537,1537,1537,1537,1537,
1537,1537,1537,1537,1537,1537,1537,1537,1537,1537,1537,1537,1537,1537,1537,1537,1537,1537,1537,1537,1537,1537,1537,1537,1537,1537,1537,1537,1537,1537,1537,1537,1537,1537,1537,1537,1537,1537,1537,1537,1537,1537,1537,1537,1537,1537,1537,1537,1537,1537,1537,1537,1537,1537,1537,1537,1537,1537,1537,1537,1537,1537,1537,1537,1537,1537,1537,1537,1537,1537,1537,1537,1537,1537,1537,1537,1537,1537,1537,1537,1537,1537,1537,1537,1537,1537,1537,1537,1537,1537,1537,1537,1537,1537,1537,1537,1537,1537,1537,1537,
1537,1537,1537,1537,1537,1537,1537,1537,1537,1537,1537,1537,1537,1537,1537,1537,1537,1537,1537,1537,1537,1537,1537,1537,1537,1537,1537,1537,1537,1537,1537,1537,1537,1537,1537,1537,1537,1537,1537,1537,1537,1537,1537,1537,1537,1537,1537,1537,1537,1537,1537,1537,1537,1537,1537,1537,1537,1537,1537,1537,1537,1537,1537,1537,1537,1537,1537,1537,1537,1537,1537,1537,1537,1537,1537,1537,1537,1537,1537,1537,1537,1537,1537,1537,1537,1537,1537,1537,1537,1537,1537,1537,1537,1537,1537,1537,1537,1537,1537,1537,
1537,1537,1537,1537,1537,1537,1537,1537,1537,1537,1537,1537,1537,1537,1537,1537,1537,1537,1537,1537,1537,1537,1537,1537,1537,1537,1537,1537,1537,1537,1537,1537,1537,1537,1537,1537,1537,1537,1537,1537,1537,1537,1537,1537,1537,1537,1537,1537,1537,1537,1537,1537,1537,1537,1537,1537,1537,1537,1537,1537,1537,1537,1537,1537,1537,1537,1537,1537,1537,1537,1537,1537,1537,1537,1537,1537,1537,1537,1537,1537,1537,1537,1537,1537,1537,1537,1537,1537,1537,1537,1537,1537,1537,1537,1537,1537,1537,1537,1537,1537,
1537,1537,1537,1537,1537,1537,1537,1537,1537,1537,1537,1537,1537,1537,1537,1537,1537,1537,1537,1537,1537,1537,1537,1537,1537,1537,1537,1537,1537,1537,1537,1537,1537,1537,1537,1537,1537,1537,1537,1537,1537,1537,1537,1537,1537,1537,1537,1537,1537,1537,1537,1537,1537,1537,1537,1537,1537,1537,1537,1537,1537,1537,1537,1537,1537,1537,1537,1537,1537,1537,1537,1537,1537,1537,1537,1537,1537,1537,1537,1537,1537,1537,1537,1537,1537,1537,1537,1537,1537,1537,1537,1537,1537,1537,1537,1537,1537,1537,1537,1537,
1537,1537,1537,1537,1537,1537,1537,1537,1537,1537,1537,1537,1537,1537,1537,1537,1537,1537,1537,1537,1537,1537,1537,1537,1537,1537,1537,1537,1537,1537,1537,1537,1537,1537,1537,1537,1537,1537,1537,1537,1537,1537,1537,1537,1537,1537,1537,1537,1537,1537,1537,1537,1537,1537,1537,1537,1537,1537,1537,1537,1537,1537,1537,1537,1537,1537,1537,1537,1537,1537,1537,1537,1537,1537,1537,1537,1537,1537,1537,1537,1537,1537,1537,1537,1537,1537,1537,1537,1537,1537,1537,1537,1537,1537,1537,1537,1537,1537,1537,1537,
1537,1537,1537,1537,1537,1537,1537,1537,1537,1537,1537,1537,1537,1537,1537,1537,1537,1537,1537,1537,1537,1537,1537,1537,1537,1537,1537,1537,1537,1537,1537,1537,1537,1537,1537,1537,1537,1537,1537,1537,1537,1537,1537,1537,1537,1537,1537,1537,1537,1537,1537,1537,1537,1537,1537,1537,1537,1537,1537,1537,1537,1537,1537,1537,1537,1537,1537,1537,1537,1537,1537,1537,1537,1537,1537,1537,1537,1537,1537,1537,1537,1537,1537,1537,1537,1537,1537,1537,1537,1537,1537,1537,1537,1537,1537,1537,1537,1537,1537,1537,
1537,1537,1537,1537,1537,1537,1537,1537,1537,1537,1537,1537,1537,1537,1537,1537,1537,1537,1537,1537,1537,1537,1537,1537,1537,1537,1537,1537,1537,1537,1537,1537,1537,1537,1537,1537,1537,1537,1537,1537,1537,1537,1537,1537,1537,1537,1537,1537,1537,1537,1537,1537,1537,1537,1537,1537,1537,1537,1537,1537,1537,1537,1537,1537,1537,1537,1537,1537,1537,1537,1537,1537,1537,1537,1537,1537,1537,1537,1537,1537,1537,1537,1537,1537,1537,1537,1537,1537,1537,1537,1537,1537,1537,1537,1537,1537,1537,1537,1537,1537,
1537,1537,1537,1537,1537,1537,1537,1537,1537,1537,1537,1537,1537,1537,1537,1537,1537,1537,1537,1537,1537,1537,1537,1537,1537,1537,1537,1537,1537,1537,1537,1537,1537,1537,1537,1537,1537,1537,1537,1537,1537,1537,1537,1537,1537,1537,1537,1537,1537,1537,1537,1537,1537,1537,1537,1537,1537,1537,1537,1537,1537,1537,1537,1537,1537,1537,1537,1537,1537,1537,1537,1537,1537,1537,1537,1537,1537,1537,1537,1537,1537,1537,1537,1537,1537,1537,1537,1537,1537,1537,1537,1537,1537,1537,1537,1537,1537,1537,1537,1537,
1537,1537,1537,1537,1537,1537,1537,1537,1537,1537,1537,1537,1537,1537,1537,1537,1537,1537,1537,1537,1537,1537,1537,1537,1537,1537,1537,1537,1537,1537,1537,1537,1537,1537,1537,1537,1537,1537,1537,1537,1537,1537,1537,1537,1537,1537,1537,1537,1537,1537,1537,1537,1537,1537,1537,1537,1537,1537,1537,1537,1537,1537,1537,1537,1537,1537,1537,1537,1537,1537,1537,1537,1537,1537,1537,1537,1537,1537,1537,1537,1537,1537,1537,1537,1537,1537,1537,1537,1537,1537,1537,1537,1537,1537,1537,1537,1537,1537,1537,1537,
1537,1537,1537,1537,1537,1537,1537,1537,1537,1537,1537,1537,1537,1537,1537,1537,1537,1537,1537,1537,1537,1537,1537,1537,1537,1537,1537,1537,1537,1537,1537,1537,1537,1537,1537,1537,1537,1537,1537,1537,1537,1537,1537,1537,1537,1537,1537,1537,1537,1537,1537,1537,1537,1537,1537,1537,1537,1537,1537,1537,1537,1537,1537,1537,1537,1537,1537,1537,1537,1537,1537,1537,1537,1537,1537,1537,1537,1537,1537,1537,1537,1537,1537,1537,1537,1537,1537,1537,1537,1537,1537,1537,1537,1537,1537,1537,1537,1537,1537,1537,
1537,1537,1537,1537,1537,1537,1537,1537,1537,1537,1537,1537,1537,1537,1537,1537,1537,1537,1537,1537,1537,1537,1537,1537,1537,1537,1537,1537,1537,1537,1537,1537,1537,1537,1537,1537,1537,1537,1537,1537,1537,1537,1537,1537,1537,1537,1537,1537,1537,1537,1537,1537,1537,1537,1537,1537,1537,1537,1537,1537,1537,1537,1537,1537,1537,1537,1537,1537,1537,1537,1537,1537,1537,1537,1537,1537,1537,1537,1537,1537,1537,1537,1537,1537,1537,1537,1537,1537,1537,1537,1537,1537,1537,1537,1537,1537,1537,1537,1537,1537,
1537,1537,1537,1537,1537,1537,1537,1537,1537,1537,1537,1537,1537,1537,1537,1537,1537,1537,1537,1537,1537,1537,1537,1537,1537,1537,1537,1537,1537,1537,1537,1537,1537,1537,1537,1537,1537,1537,1537,1537,1537,1537,1537,1537,1537,1537,1537,1537,1537,1537,1537,1537,1537,1537,1537,1537,1537,1537,1537,1537,1537,1537,1537,1537,1537,1537,1537,1537,1537,1537,1537,1537,1537,1537,1537,1537,1537,1537,1537,1537,1537,1537,1537,1537,1537,1537,1537,1537,1537,1537,1537,1537,1537,1537,1537,1537,1537,1537,1537,1537,
1537,1537,1537,1537,1537,1537,1537,1537,1537,1537,1537,1537,1537,1537,1537,1537,1537,1537,1537,1537,1537,1537,1537,1537,1537,1537,1537,1537,1537,1537,1537,1537,1537,1537,1537,1537,1537,1537,1537,1537,1537,1537,1537,1537,1537,1537,1537,1537,1537,1537,1537,1537,1537,1537,1537,1537,1537,1537,1537,1537,1537,1537,1537,1537,1537,1537,1537,1537,1537,1537,1537,1537,1537,1537,1537,1537,1537,1537,1537,1537,1537,1537,1537,1537,1537,1537,1537,1537,1537,1537,1537,1537,1537,1537,1537,1537,1537,1537,1537,1537,
1537,1537,1537,1537,1537,1537,1537,1537,1537,1537,1537,1537,1537,1537,1537,1537,1537,1537,1537,1537,1537,1537,1537,1537,1537,1537,1537,1537,1537,1537,1537,1537,1537,1537,1537,1537,1537,1537,1537,1537,1537,1537,1537,1537,1537,1537,1537,1537,1537,1537,1537,1537,1537,1537,1537,1537,1537,1537,1537,1537,1537,1537,1537,1537,1537,1537,1537,1537,1537,1537,1537,1537,1537,1537,1537,1537,1537,1537,1537,1537,1537,1537,1537,1537,1537,1537,1537,1537,1537,1537,1537,1537,1537,1537,1537,1537,1537,1537,1537,1537,
1537,1537,1537,1537,1537,1537,1537,1537,1537,1537,1537,1537,1537,1537,1537,1537,1537,1537,1537,1537,1537,1537,1537,1537,1537,1537,1537,1537,1537,1537,1537,1537,1537,1537,1537,1537,1537,1537,1537,1537,1537,1537,1537,1537,1537,1537,1537,1537,1537,1537,1537,1537,1537,1537,1537,1537,1537,1537,1537,1537,1537,1537,1537,1537,1537,1537,1537,1537,1537,1537,1537,1537,1537,1537,1537,1537,1537,1537,1537,1537,1537,1537,1537,1537,1537,1537,1537,1537,1537,1537,1537,1537,1537,1537,1537,1537,1537,1537,1537,1537,
1537,1537,1537,1537,1537,1537,1537,1537,1537,1537,1537,1537,1537,1537,1537,1537,1537,1537,1537,1537,1537,1537,1537,1537,1537,1537,1537,1537,1537,1537,1537,1537,1537,1537,1537,1537,1537,1537,1537,1537,1537,1537,1537,1537,1537,1537,1537,1537,1537,1537,1537,1537,1537,1537,1537,1537,1537,1537,1537,1537,1537,1537,1537,1537,1537,1537,1537,1537,1537,1537,1537,1537,1537,1537,1537,1537,1537,1537,1537,1537,1537,1537,1537,1537,1537,1537,1537,1537,1537,1537,1537,1537,1537,1537,1537,1537,1537,1537,1537,1537,
1537,1537,1537,1537,1537,1537,1537,1537,1537,1537,1537,1537,1537,1537,1537,1537,1537,1537,1537,1537,1537,1537,1537,1537,1537,1537,1537,1537,1537,1537,1537,1537,1537,1537,1537,1537,1537,1537,1537,1537,1537,1537,1537,1537,1537,1537,1537,1537,1537,1537,1537,1537,1537,1537,1537,1537,1537,1537,1537,1537,1537,1537,1537,1537,1537,1537,1537,1537,1537,1537,1537,1537,1537,1537,1537,1537,1537,1537,1537,1537,1537,1537,1537,1537,1537,1537,1537,1537,1537,1537,1537,1537,1537,1537,1537,1537,1537,1537,1537,1537,
1537,1537,1537,1537,1537,1537,1537,1537,1537,1537,1537,1537,1537,1537,1537,1537,1537,1537,1537,1537,1537,1537,1537,1537,1537,1537,1537,1537,1537,1537,1537,1537,1537,1537,1537,1537,1537,1537,1537,1537,1537,1537,1537,1537,1537,1537,1537,1537,1537,1537,1537,1537,1537,1537,1537,1537,1537,1537,1537,1537,1537,1537,1537,1537,1537,1537,1537,1537,1537,1537,1537,1537,1537,1537,1537,1537,1537,1537,1537,1537,1537,1537,1537,1537,1537,1537,1537,1537,1537,1537,1537,1537,1537,1537,1537,1537,1537,1537,1537,1537,
1537,1537,1537,1537,1537,1537,1537,1537,1537,1537,1537,1537,1537,1537,1537,1537,1537,1537,1537,1537,1537,1537,1537,1537,1537,1537,1537,1537,1537,1537,1537,1537,1537,1537,1537,1537,1537,1537,1537,1537,1537,1537,1537,1537,1954,1954,1954,1954,1954,1954,1954,1954,1954,1954,1954,1954,1537,1537,1537,1537,1537,1537,1537,1537,1537,1537,1537,1537,1537,1537,1537,1537,1537,1537,1537,1537,1537,1537,1537,1537,1537,1537,1537,1537,1537,1537,1537,1537,1537,1537,1537,1537,1537,1537,1537,1537,1537,1537,1537,1537,
1537,1537,1537,1537,1537,1537,1537,1537,1537,1537,1537,1537,1537,1537,1537,1537,1537,1537,1537,1537,1537,1537,1537,1537,1537,1537,1537,1537,1537,1537,1537,1537,1537,1537,1537,1537,1537,1537,1537,1537,1537,1537,1537,1537,1954,1954,1954,1954,1954,1954,1954,1954,1954,1954,1954,1954,1537,1537,1537,1537,1537,1537,1537,1537,1537,1537,1537,1537,1537,1537,1537,1537,1537,1537,1537,1537,1537,1537,1537,1537,1537,1537,1537,1537,1537,1537,1537,1537,1537,1537,1537,1537,1537,1537,1537,1537,1537,1537,1537,1537,
1537,1537,1537,1537,1537,1537,1537,1537,1537,1537,1537,1537,1537,1537,1537,1537,1537,1537,1537,1537,1537,1537,1537,1537,1537,1537,1537,1537,1537,1537,1537,1537,1537,1537,1537,1537,1537,1537,1537,1537,1537,1537,1537,1537,1954,1954,1954,1954,1954,1954,1954,1954,1954,1954,1954,1954,1537,1537,1537,1537,1537,1537,1537,1537,1537,1537,1537,1537,1537,1537,1537,1537,1537,1537,1537,1537,1537,1537,1537,1537,1537,1537,1537,1537,1537,1537,1537,1537,1537,1537,1537,1537,1537,1537,1537,1537,1537,1537,1537,1537,
1537,1537,1537,1537,1537,1537,1537,1537,1537,1537,1537,1537,1537,1537,1537,1537,1537,1537,1537,1537,1537,1537,1537,1537,1537,1537,1537,1537,1537,1537,1537,1537,1537,1537,1537,1537,1537,1537,1537,1537,1537,1537,1537,1537,1954,1954,1954,1954,1954,1954,1954,1954,1954,1954,1954,1954,1537,1537,1537,1537,1537,1537,1537,1537,1537,1537,1537,1537,1537,1537,1537,1537,1537,1537,1537,1537,1537,1537,1537,1537,1537,1537,1537,1537,1537,1537,1537,1537,1537,1537,1537,1537,1537,1537,1537,1537,1537,1537,1537,1537,
1537,1537,1537,1537,1537,1537,1537,1537,1537,1537,1537,1537,1537,1537,1537,1537,1537,1537,1537,1537,1537,1537,1537,1537,1537,1537,1537,1537,1537,1537,1537,1537,1537,1537,1537,1537,1537,1537,1537,1537,1537,1537,1537,1537,1986,1986,1986,1986,1986,1986,1986,1986,1986,1986,1986,1986,1537,1537,1537,1537,1537,1537,1537,1537,1537,1537,1537,1537,1537,1537,1537,1537,1537,1537,1537,1537,1537,1537,1537,1537,1537,1537,1537,1537,1537,1537,1537,1537,1537,1537,1537,1537,1537,1537,1537,1537,1537,1537,1537,1537,
1537,1537,1537,1537,1537,1537,1537,1537,1537,1537,1537,1537,1537,1537,1537,1537,1537,1537,1537,1537,1537,1537,1537,1537,1537,1537,1537,1537,1537,1537,1537,1537,1537,1537,1537,1537,1537,1537,1537,1537,1537,1537,1537,1537,2018,2018,2018,2018,2018,2018,2018,2018,2018,2018,2018,2018,1537,1537,1537,1537,1537,1537,1537,1537,1537,1537,1537,1537,1537,1537,1537,1537,1537,1537,1537,1537,1537,1537,1537,1537,1537,1537,1537,1537,1537,1537,1537,1537,1537,1537,1537,1537,1537,1537,1537,1537,1537,1537,1537,1537,
1537,1537,1537,1537,1537,1537,1537,1537,1537,1537,1537,1537,1537,1537,1537,1537,1537,1537,1537,1537,1537,1537,1537,1537,1537,1537,1537,1537,1537,1537,1537,1537,1537,1537,1537,1537,1537,1537,1537,1537,1537,1537,1537,1537,1954,1954,1954,1954,1954,1954,1954,1954,1954,1954,1954,1954,1537,1537,1537,1537,1537,1537,1537,1537,1537,1537,1537,1537,1537,1537,1537,1537,1537,1537,1537,1537,1537,1537,1537,1537,1537,1537,1537,1537,1537,1537,1537,1537,1537,1537,1537,1537,1537,1537,1537,1537,1537,1537,1537,1537,
1537,1537,1537,1537,1537,1537,1537,1537,1537,1537,1537,1537,1537,1537,1537,1537,1537,1537,1537,1537,1537,1537,1537,1537,1537,1537,1537,1537,1537,1537,1537,1537,1537,1537,1537,1537,1537,1537,1537,1537,1537,1537,1537,1537,1954,1954,1954,1954,1954,1954,1954,1954,1954,1954,1954,1954,1537,1537,1537,1537,1537,1537,1537,1537,1537,1537,1537,1537,1537,1537,1537,1537,1537,1537,1537,1537,1537,1537,1537,1537,1537,1537,1537,1537,1537,1537,1537,1537,1537,1537,1537,1537,1537,1537,1537,1537,1537,1537,1537,1537,
1537,1537,1537,1537,1537,1537,1537,1537,1537,1537,1537,1537,1537,1537,1537,1537,1537,1537,1537,1537,1537,1537,1537,1537,1537,1537,1537,1537,1537,1537,1537,1537,1537,1537,1537,1537,1537,1537,1537,1537,1537,1537,1537,1537,1954,1954,1954,1954,1954,1954,1954,1954,1954,1954,1954,1954,1537,1537,1537,1537,1537,1537,1537,1537,1537,1537,1537,1537,1537,1537,1537,1537,1537,1537,1537,1537,1537,1537,1537,1537,1537,1537,1537,1537,1537,1537,1537,1537,1537,1537,1537,1537,1537,1537,1537,1537,1537,1537,1537,1537,
1537,1537,1537,1537,1537,1537,1537,1537,1537,1537,1537,1537,1537,1537,1537,1537,1537,1537,1537,1537,1537,1537,1537,1537,1537,1537,1537,1537,1537,1537,1537,1537,1537,1537,1537,1537,1537,1537,1537,1537,1537,1537,1537,1537,1986,1986,1986,1986,1986,1986,1986,1986,1986,1986,1986,1986,1537,1537,1537,1537,1537,1537,1537,1537,1537,1537,1537,1537,1537,1537,1537,1537,1537,1537,1537,1537,1537,1537,1537,1537,1537,1537,1537,1537,1537,1537,1537,1537,1537,1537,1537,1537,1537,1537,1537,1537,1537,1537,1537,1537,
1537,1537,1537,1537,1537,1537,1537,1537,1537,1537,1537,1537,1537,1537,1537,1537,1537,1537,1537,1537,1537,1537,1537,1537,1537,1537,1537,1537,1537,1537,1537,1537,1537,1537,1537,1537,1537,1537,1537,1537,1537,1537,1537,1537,2018,2018,2018,2018,2018,2018,2018,2018,2018,2018,2018,2018,1537,1537,1537,1537,1537,1537,1537,1537,1537,1537,1537,1537,1537,1537,1537,1537,1537,1537,1537,1537,1537,1537,1537,1537,1537,1537,1537,1537,1537,1537,1537,1537,1537,1537,1537,1537,1537,1537,1537,1537,1537,1537,1537,1537,
1537,1537,1537,1537,1537,1537,1537,1537,1537,1537,1537,1537,1537,1537,1537,1537,1537,1537,1537,1537,1537,1537,1537,1537,1537,1537,1537,1537,1537,1537,1537,1537,1537,1537,1537,1537,1537,1537,1537,1537,1537,1537,1537,1537,1954,1954,1954,1954,1954,1954,1954,1954,1954,1954,1954,1954,1537,1537,1537,1537,1537,1537,1537,1537,1537,1537,1537,1537,1537,1537,1537,1537,1537,1537,1537,1537,1537,1537,1537,1537,1537,1537,1537,1537,1537,1537,1537,1537,1537,1537,1537,1537,1537,1537,1537,1537,1537,1537,1537,1537,
1537,1537,1537,1537,1537,1537,1537,1537,1537,1537,1537,1537,1537,1537,1537,1537,1537,1537,1537,1537,1537,1537,1537,1537,1537,1537,1537,1537,1537,1537,1537,1537,1537,1537,1537,1537,1537,1537,1537,1537,1537,1537,1537,1537,1537,1537,1537,1537,1537,1537,1537,1537,1537,1537,1537,1537,1537,1537,1537,1537,1537,1537,1537,1537,1537,1537,1537,1537,1537,1537,1537,1537,1537,1537,1537,1537,1537,1537,1537,1537,1537,1537,1537,1537,1537,1537,1537,1537,1537,1537,1537,1537,1537,1537,1537,1537,1537,1537,1537,1537,
1537,1537,1537,1537,1537,1537,1537,1537,1537,1537,1537,1537,1537,1537,1537,1537,1537,1537,1537,1537,1537,1537,1537,1537,1537,1537,1537,1537,1537,1537,1537,1537,1537,1537,1537,1537,1537,1537,1537,1537,1537,1537,1537,1537,1537,1537,1537,1537,1537,1537,1537,1537,1537,1537,1537,1537,1537,1537,1537,1537,1537,1537,1537,1537,1537,1537,1537,1537,1537,1537,1537,1537,1537,1537,1537,1537,1537,1537,1537,1537,1537,1537,1537,1537,1537,1537,1537,1537,1537,1537,1537,1537,1537,1537,1537,1537,1537,1537,1537,1537,
1537,1537,1537,1537,1537,1537,1537,1537,1537,1537,1537,1537,1537,1537,1537,1537,1537,1537,1537,1537,1537,1537,1537,1537,1537,1537,1537,1537,1537,1537,1537,1537,1537,1537,1537,1537,1537,1537,1537,1537,1537,1537,1537,1537,1537,1537,1537,1537,1537,1537,1537,1537,1537,1537,1537,1537,1537,1537,1537,1537,1537,1537,1537,1537,1537,1537,1537,1537,1537,1537,1537,1537,1537,1537,1537,1537,1537,1537,1537,1537,1537,1537,1537,1537,1537,1537,1537,1537,1537,1537,1537,1537,1537,1537,1537,1537,1537,1537,1537,1537,
1537,1537,1537,1537,1537,1537,1537,1537,1537,1537,1537,1537,1537,1537,1537,1537,1537,1537,1537,1537,1537,1537,1537,1537,1537,1537,1537,1537,1537,1537,1537,1537,1537,1537,1537,1537,1537,1537,1537,1537,1537,1537,1537,1537,1537,1537,1537,1537,1537,1537,1537,1537,1537,1537,1537,1537,1537,1537,1537,1537,1537,1537,1537,1537,1537,1537,1537,1537,1537,1537,1537,1537,1537,1537,1537,1537,1537,1537,1537,1537,1537,1537,1537,1537,1537,1537,1537,1537,1537,1537,1537,1537,1537,1537,1537,1537,1537,1537,1537,1537,
1537,1537,1537,1537,1537,1537,1537,1537,1537,1537,1537,1537,1537,1537,1537,1537,1537,1537,1537,1537,1537,1537,1537,1537,1537,1537,1537,1537,1537,1537,1537,1537,1537,1537,1537,1537,1537,1537,1537,1537,1537,1537,1537,1537,1537,1537,1537,1537,1537,1537,1537,1537,1537,1537,1537,1537,1537,1537,1537,1537,1537,1537,1537,1537,1537,1537,1537,1537,1537,1537,1537,1537,1537,1537,1537,1537,1537,1537,1537,1537,1537,1537,1537,1537,1537,1537,1537,1537,1537,1537,1537,1537,1537,1537,1537,1537,1537,1537,1537,1537,
1537,1537,1537,1537,1537,1537,1537,1537,1537,1537,1537,1537,1537,1537,1537,1537,1537,1537,1537,1537,1537,1537,1537,1537,1537,1537,1537,1537,1537,1537,1537,1537,1537,1537,1537,1537,1537,1537,1537,1537,1537,1537,1537,1537,1537,1537,1537,1537,1537,1537,1537,1537,1537,1537,1537,1537,1537,1537,1537,1537,1537,1537,1537,1537,1537,1537,1537,1537,1537,1537,1537,1537,1537,1537,1537,1537,1537,1537,1537,1537,1537,1537,1537,1537,1537,1537,1537,1537,1537,1537,1537,1537,1537,1537,1537,1537,1537,1537,1537,1537,
1537,1537,1537,1537,1537,1537,1537,1537,1537,1537,1537,1537,1537,1537,1537,1537,1537,1537,1537,1537,1537,1537,1537,1537,1537,1537,1537,1537,1537,1537,1537,1537,1537,1537,1537,1537,1537,1537,1537,1537,1537,1537,1537,1537,1537,1537,1537,1537,1537,1537,1537,1537,1537,1537,1537,1537,1537,1537,1537,1537,1537,1537,1537,1537,1537,1537,1537,1537,1537,1537,1537,1537,1537,1537,1537,1537,1537,1537,1537,1537,1537,1537,1537,1537,1537,1537,1537,1537,1537,1537,1537,1537,1537,1537,1537,1537,1537,1537,1537,1537,
1537,1537,1537,1537,1537,1537,1537,1537,1537,1537,1537,1537,1537,1537,1537,1537,1537,1537,1537,1537,1537,1537,1537,1537,1537,1537,1537,1537,1537,1537,1537,1537,1537,1537,1537,1537,1537,1537,1537,1537,1537,1537,1537,1537,1537,1537,1537,1537,1537,1537,1537,1537,1537,1537,1537,1537,1537,1537,1537,1537,1537,1537,1537,1537,1537,1537,1537,1537,1537,1537,1537,1537,1537,1537,1537,1537,1537,1537,1537,1537,1537,1537,1537,1537,1537,1537,1537,1537,1537,1537,1537,1537,1537,1537,1537,1537,1537,1537,1537,1537,
1537,1537,1537,1537,1537,1537,1537,1537,1537,1537,1537,1537,1537,1537,1537,1537,1537,1537,1537,1537,1537,1537,1537,1537,1537,1537,1537,1537,1537,1537,1537,1537,1537,1537,1537,1537,1537,1537,1537,1537,1537,1537,1537,1537,1537,1537,1537,1537,1537,1537,1537,1537,1537,1537,1537,1537,1537,1537,1537,1537,1537,1537,1537,1537,1537,1537,1537,1537,1537,1537,1537,1537,1537,1537,1537,1537,1537,1537,1537,1537,1537,1537,1537,1537,1537,1537,1537,1537,1537,1537,1537,1537,1537,1537,1537,1537,1537,1537,1537,1537,
1537,1537,1537,1537,1537,1537,1537,1537,1537,1537,1537,1537,1537,1537,1537,1537,1537,1537,1537,1537,1537,1537,1537,1537,1537,1537,1537,1537,1537,1537,1537,1537,1537,1537,1537,1537,1537,1537,1537,1537,1537,1537,1537,1537,1537,1537,1537,1537,1537,1537,1537,1537,1537,1537,1537,1537,1537,1537,1537,1537,1537,1537,1537,1537,1537,1537,1537,1537,1537,1537,1537,1537,1537,1537,1537,1537,1537,1537,1537,1537,1537,1537,1537,1537,1537,1537,1537,1537,1537,1537,1537,1537,1537,1537,1537,1537,1537,1537,1537,1537,
1537,1537,1537,1537,1537,1537,1537,1537,1537,1537,1537,1537,1537,1537,1537,1537,1537,1537,1537,1537,1537,1537,1537,1537,1537,1537,1537,1537,1537,1537,1537,1537,1537,1537,1537,1537,1537,1537,1537,1537,1537,1537,1537,1537,1537,1537,1537,1537,1537,1537,1537,1537,1537,1537,1537,1537,1537,1537,1537,1537,1537,1537,1537,1537,1537,1537,1537,1537,1537,1537,1537,1537,1537,1537,1537,1537,1537,1537,1537,1537,1537,1537,1537,1537,1537,1537,1537,1537,1537,1537,1537,1537,1537,1537,1537,1537,1537,1537,1537,1537,
1537,1537,1537,1537,1537,1537,1537,1537,1537,1537,1537,1537,1537,1537,1537,1537,1537,1537,1537,1537,1537,1537,1537,1537,1537,1537,1537,1537,1537,1537,1537,1537,1537,1537,1537,1537,1537,1537,1537,1537,1537,1537,1537,1537,1537,1537,1537,1537,1537,1537,1537,1537,1537,1537,1537,1537,1537,1537,1537,1537,1537,1537,1537,1537,1537,1537,1537,1537,1537,1537,1537,1537,1537,1537,1537,1537,1537,1537,1537,1537,1537,1537,1537,1537,1537,1537,1537,1537,1537,1537,1537,1537,1537,1537,1537,1537,1537,1537,1537,1537,
1537,1537,1537,1537,1537,1537,1537,1537,1537,1537,1537,1537,1537,1537,1537,1537,1537,1537,1537,1537,1537,1537,1537,1537,1537,1537,1537,1537,1537,1537,1537,1537,1537,1537,1537,1537,1537,1537,1537,1537,1537,1537,1537,1537,1537,1537,1537,1537,1537,1537,1537,1537,1537,1537,1537,1537,1537,1537,1537,1537,1537,1537,1537,1537,1537,1537,1537,1537,1537,1537,1537,1537,1537,1537,1537,1537,1537,1537,1537,1537,1537,1537,1537,1537,1537,1537,1537,1537,1537,1537,1537,1537,1537,1537,1537,1537,1537,1537,1537,1537,
1537,1537,1537,1537,1537,1537,1537,1537,1537,1537,1537,1537,1537,1537,1537,1537,1537,1537,1537,1537,1537,1537,1537,1537,1537,1537,1537,1537,1537,1537,1537,1537,1537,1537,1537,1537,1537,1537,1537,1537,1537,1537,1537,1537,1537,1537,1537,1537,1537,1537,1537,1537,1537,1537,1537,1537,1537,1537,1537,1537,1537,1537,1537,1537,1537,1537,1537,1537,1537,1537,1537,1537,1537,1537,1537,1537,1537,1537,1537,1537,1537,1537,1537,1537,1537,1537,1537,1537,1537,1537,1537,1537,1537,1537,1537,1537,1537,1537,1537,1537,
1537,1537,1537,1537,1537,1537,1537,1537,1537,1537,1537,1537,1537,1537,1537,1537,1537,1537,1537,1537,1537,1537,1537,1537,1537,1537,1537,1537,1537,1537,1537,1537,1537,1537,1537,1537,1537,1537,1537,1537,1537,1537,1537,1537,1537,1537,1537,1537,1537,1537,1537,1537,1537,1537,1537,1537,1537,1537,1537,1537,1537,1537,1537,1537,1537,1537,1537,1537,1537,1537,1537,1537,1537,1537,1537,1537,1537,1537,1537,1537,1537,1537,1537,1537,1537,1537,1537,1537,1537,1537,1537,1537,1537,1537,1537,1537,1537,1537,1537,1537,
1537,1537,1537,1537,1537,1537,1537,1537,1537,1537,1537,1537,1537,1537,1537,1537,1537,1537,1537,1537,1537,1537,1537,1537,1537,1537,1537,1537,1537,1537,1537,1537,1537,1537,1537,1537,1537,1537,1537,1537,1537,1537,1537,1537,1537,1537,1537,1537,1537,1537,1537,1537,1537,1537,1537,1537,1537,1537,1537,1537,1537,1537,1537,1537,1537,1537,1537,1537,1537,1537,1537,1537,1537,1537,1537,1537,1537,1537,1537,1537,1537,1537,1537,1537,1537,1537,1537,1537,1537,1537,1537,1537,1537,1537,1537,1537,1537,1537,1537,1537,
1537,1537,1537,1537,1537,1537,1537,1537,1537,1537,1537,1537,1537,1537,1537,1537,1537,1537,1537,1537,1537,1537,1537,1537,1537,1537,1537,1537,1537,1537,1537,1537,1537,1537,1537,1537,1537,1537,1537,1537,1537,1537,1537,1537,1537,1537,1537,1537,1537,1537,1537,1537,1537,1537,1537,1537,1537,1537,1537,1537,1537,1537,1537,1537,1537,1537,1537,1537,1537,1537,1537,1537,1537,1537,1537,1537,1537,1537,1537,1537,1537,1537,1537,1537,1537,1537,1537,1537,1537,1537,1537,1537,1537,1537,1537,1537,1537,1537,1537,1537,
1537,1537,1537,1537,1537,1537,1537,1537,1537,1537,1537,1537,1537,1537,1537,1537,1537,1537,1537,1537,1537,1537,1537,1537,1537,1537,1537,1537,1537,1537,1537,1537,1537,1537,1537,1537,1537,1537,1537,1537,1537,1537,1537,1537,1537,1537,1537,1537,1537,1537,1537,1537,1537,1537,1537,1537,1537,1537,1537,1537,1537,1537,1537,1537,1537,1537,1537,1537,1537,1537,1537,1537,1537,1537,1537,1537,1537,1537,1537,1537,1537,1537,1537,1537,1537,1537,1537,1537,1537,1537,1537,1537,1537,1537,1537,1537,1537,1537,1537,1537,
1537,1537,1537,1537,1537,1537,1537,1537,1537,1537,1537,1537,1537,1537,1537,1537,1537,1537,1537,1537,1537,1537,1537,1537,1537,1537,1537,1537,1537,1537,1537,1537,1537,1537,1537,1537,1537,1537,1537,1537,1537,1537,1537,1537,1537,1537,1537,1537,1537,1537,1537,1537,1537,1537,1537,1537,1537,1537,1537,1537,1537,1537,1537,1537,1537,1537,1537,1537,1537,1537,1537,1537,1537,1537,1537,1537,1537,1537,1537,1537,1537,1537,1537,1537,1537,1537,1537,1537,1537,1537,1537,1537,1537,1537,1537,1537,1537,1537,1537,1537,
1537,1537,1537,1537,1537,1537,1537,1537,1537,1537,1537,1537,1537,1537,1537,1537,1537,1537,1537,1537,1537,1537,1537,1537,1537,1537,1537,1537,1537,1537,1537,1537,1537,1537,1537,1537,1537,1537,1537,1537,1537,1537,1537,1537,1537,1537,1537,1537,1537,1537,1537,1537,1537,1537,1537,1537,1537,1537,1537,1537,1537,1537,1537,1537,1537,1537,1537,1537,1537,1537,1537,1537,1537,1537,1537,1537,1537,1537,1537,1537,1537,1537,1537,1537,1537,1537,1537,1537,1537,1537,1537,1537,1537,1537,1537,1537,1537,1537,1537,1537,
1537,1537,1537,1537,1537,1537,1537,1537,1537,1537,1537,1537,1537,1537,1537,1537,1537,1537,1537,1537,1537,1537,1537,1537,1537,1537,1537,1537,1537,1537,1537,1537,1537,1537,1537,1537,1537,1537,1537,1537,1537,1537,1537,1537,1537,1537,1537,1537,1537,1537,1537,1537,1537,1537,1537,1537,1537,1537,1537,1537,1537,1537,1537,1537,1537,1537,1537,1537,1537,1537,1537,1537,1537,1537,1537,1537,1537,1537,1537,1537,1537,1537,1537,1537,1537,1537,1537,1537,1537,1537,1537,1537,1537,1537,1537,1537,1537,1537,1537,1537,
1537,1537,1537,1537,1537,1537,1537,1537,1537,1537,1537,1537,1537,1537,1537,1537,1537,1537,1537,1537,1537,1537,1537,1537,1537,1537,1537,1537,1537,1537,1537,1537,1537,1537,1537,1537,1537,1537,1537,1537,1537,1537,1537,1537,1537,1537,1537,1537,1537,1537,1537,1537,1537,1537,1537,1537,1537,1537,1537,1537,1537,1537,1537,1537,1537,1537,1537,1537,1537,1537,1537,1537,1537,1537,1537,1537,1537,1537,1537,1537,1537,1537,1537,1537,1537,1537,1537,1537,1537,1537,1537,1537,1537,1537,1537,1537,1537,1537,1537,1537,
1537,1537,1537,1537,1537,1537,1537,1537,1537,1537,1537,1537,1537,1537,1537,1537,1537,1537,1537,1537,1537,1537,1537,1537,1537,1537,1537,1537,1537,1537,1537,1537,1537,1537,1537,1537,1537,1537,1537,1537,1537,1537,1537,1537,1537,1537,1537,1537,1537,1537,1537,1537,1537,1537,1537,1537,1537,1537,1537,1537,1537,1537,1537,1537,1537,1537,1537,1537,1537,1537,1537,1537,1537,1537,1537,1537,1537,1537,1537,1537,1537,1537,1537,1537,1537,1537,1537,1537,1537,1537,1537,1537,1537,1537,1537,1537,1537,1537,1537,1537,
1537,1537,1537,1537,1537,1537,1537,1537,1537,1537,1537,1537,1537,1537,1537,1537,1537,1537,1537,1537,1537,1537,1537,1537,1537,1537,1537,1537,1537,1537,1537,1537,1537,1537,1537,1537,1537,1537,1537,1537,1537,1537,1537,1537,1537,1537,1537,1537,1537,1537,1537,1537,1537,1537,1537,1537,1537,1537,1537,1537,1537,1537,1537,1537,1537,1537,1537,1537,1537,1537,1537,1537,1537,1537,1537,1537,1537,1537,1537,1537,1537,1537,1537,1537,1537,1537,1537,1537,1537,1537,1537,1537,1537,1537,1537,1537,1537,1537,1537,1537,
1537,1537,1537,1537,1537,1537,1537,1537,1537,1537,1537,1537,1537,1537,1537,1537,1537,1537,1537,1537,1537,1537,1537,1537,1537,1537,1537,1537,1537,1537,1537,1537,1537,1537,1537,1537,1537,1537,1537,1537,1537,1537,1537,1537,1537,1537,1537,1537,1537,1537,1537,1537,1537,1537,1537,1537,1537,1537,1537,1537,1537,1537,1537,1537,1537,1537,1537,1537,1537,1537,1537,1537,1537,1537,1537,1537,1537,1537,1537,1537,1537,1537,1537,1537,1537,1537,1537,1537,1537,1537,1537,1537,1537,1537,1537,1537,1537,1537,1537,1537,
1537,1537,1537,1537,1537,1537,1537,1537,1537,1537,1537,1537,1537,1537,1537,1537,1537,1537,1537,1537,1537,1537,1537,1537,1537,1537,1537,1537,1537,1537,1537,1537,1537,1537,1537,1537,1537,1537,1537,1537,1537,1537,1537,1537,1537,1537,1537,1537,1537,1537,1537,1537,1537,1537,1537,1537,1537,1537,1537,1537,1537,1537,1537,1537,1537,1537,1537,1537,1537,1537,1537,1537,1537,1537,1537,1537,1537,1537,1537,1537,1537,1537,1537,1537,1537,1537,1537,1537,1537,1537,1537,1537,1537,1537,1537,1537,1537,1537,1537,1537,
1537,1537,1537,1537,1537,1537,1537,1537,1537,1537,1537,1537,1537,1537,1537,1537,1537,1537,1537,1537,1537,1537,1537,1537,1537,1537,1537,1537,1537,1537,1537,1537,1537,1537,1537,1537,1537,1537,1537,1537,1537,1537,1537,1537,1537,1537,1537,1537,1537,1537,1537,1537,1537,1537,1537,1537,1537,1537,1537,1537,1537,1537,1537,1537,1537,1537,1537,1537,1537,1537,1537,1537,1537,1537,1537,1537,1537,1537,1537,1537,1537,1537,1537,1537,1537,1537,1537,1537,1537,1537,1537,1537,1537,1537,1537,1537,1537,1537,1537,1537,
1537,1537,1537,1537,1537,1537,1537,1537,1537,1537,1537,1537,1537,1537,1537,1537,1537,1537,1537,1537,1537,1537,1537,1537,1537,1537,1537,1537,1537,1537,1537,1537,1537,1537,1537,1537,1537,1537,1537,1537,1537,1537,1537,1537,1537,1537,1537,1537,1537,1537,1537,1537,1537,1537,1537,1537,1537,1537,1537,1537,1537,1537,1537,1537,1537,1537,1537,1537,1537,1537,1537,1537,1537,1537,1537,1537,1537,1537,1537,1537,1537,1537,1537,1537,1537,1537,1537,1537,1537,1537,1537,1537,1537,1537,1537,1537,1537,1537,1537,1537,
1537,1537,1537,1537,1537,1537,1537,1537,1537,1537,1537,1537,1537,1537,1537,1537,1537,1537,1537,1537,1537,1537,1537,1537,1537,1537,1537,1537,1537,1537,1537,1537,1537,1537,1537,1537,1537,1537,1537,1537,1537,1537,1537,1537,1537,1537,1537,1537,1537,1537,1537,1537,1537,1537,1537,1537,1537,1537,1537,1537,1537,1537,1537,1537,1537,1537,1537,1537,1537,1537,1537,1537,1537,1537,1537,1537,1537,1537,1537,1537,1537,1537,1537,1537,1537,1537,1537,1537,1537,1537,1537,1537,1537,1537,1537,1537,1537,1537,1537,1537,
1537,1537,1537,1537,1537,1537,1537,1537,1537,1537,1537,1537,1537,1537,1537,1537,1537,1537,1537,1537,1537,1537,1537,1537,1537,1537,1537,1537,1537,1537,1537,1537,1537,1537,1537,1537,1537,1537,1537,1537,1537,1537,1537,1537,1537,1537,1537,1537,1537,1537,1537,1537,1537,1537,1537,1537,1537,1537,1537,1537,1537,1537,1537,1537,1537,1537,1537,1537,1537,1537,1537,1537,1537,1537,1537,1537,1537,1537,1537,1537,1537,1537,1537,1537,1537,1537,1537,1537,1537,1537,1537,1537,1537,1537,1537,1537,1537,1537,1537,1537,
1537,1537,1537,1537,1537,1537,1537,1537,1537,1537,1537,1537,1537,1537,1537,1537,1537,1537,1537,1537,1537,1537,1537,1537,1537,1537,1537,1537,1537,1537,1537,1537,1537,1537,1537,1537,1537,1537,1537,1537,1537,1537,1537,1537,1537,1537,1537,1537,1537,1537,1537,1537,1537,1537,1537,1537,1537,1537,1537,1537,1537,1537,1537,1537,1537,1537,1537,1537,1537,1537,1537,1537,1537,1537,1537,1537,1537,1537,1537,1537,1537,1537,1537,1537,1537,1537,1537,1537,1537,1537,1537,1537,1537,1537,1537,1537,1537,1537,1537,1537,
1537,1537,1537,1537,1537,1537,1537,1537,1537,1537,1537,1537,1537,1537,1537,1537,1537,1537,1537,1537,1537,1537,1537,1537,1537,1537,1537,1537,1537,1537,1537,1537,1537,1537,1537,1537,1537,1537,1537,1537,1537,1537,1537,1537,1537,1537,1537,1537,1537,1537,1537,1537,1537,1537,1537,1537,1537,1537,1537,1537,1537,1537,1537,1537,1537,1537,1537,1537,1537,1537,1537,1537,1537,1537,1537,1537,1537,1537,1537,1537,1537,1537,1537,1537,1537,1537,1537,1537,1537,1537,1537,1537,1537,1537,1537,1537,1537,1537,1537,1537,
1537,1537,1537,1537,1537,1537,1537,1537,1537,1537,1537,1537,1537,1537,1537,1537,1537,1537,1537,1537,1537,1537,1537,1537,1537,1537,1537,1537,1537,1537,1537,1537,1537,1537,1537,1537,1537,1537,1537,1537,1537,1537,1537,1537,1537,1537,1537,1537,1537,1537,1537,1537,1537,1537,1537,1537,1537,1537,1537,1537,1537,1537,1537,1537,1537,1537,1537,1537,1537,1537,1537,1537,1537,1537,1537,1537,1537,1537,1537,1537,1537,1537,1537,1537,1537,1537,1537,1537,1537,1537,1537,1537,1537,1537,1537,1537,1537,1537,1537,1537,
1537,1537,1537,1537,1537,1537,1537,1537,1537,1537,1537,1537,1537,1537,1537,1537,1537,1537,1537,1537,1537,1537,1537,1537,1537,1537,1537,1537,1537,1537,1537,1537,1537,1537,1537,1537,1537,1537,1537,1537,1537,1537,1537,1537,1537,1537,1537,1537,1537,1537,1537,1537,1537,1537,1537,1537,1537,1537,1537,1537,1537,1537,1537,1537,1537,1537,1537,1537,1537,1537,1537,1537,1537,1537,1537,1537,1537,1537,1537,1537,1537,1537,1537,1537,1537,1537,1537,1537,1537,1537,1537,1537,1537,1537,1537,1537,1537,1537,1537,1537,
1537,1537,1537,1537,1537,1537,1537,1537,1537,1537,1537,1537,1537,1537,1537,1537,1537,1537,1537,1537,1537,1537,1537,1537,1537,1537,1537,1537,1537,1537,1537,1537,1537,1537,1537,1537,1537,1537,1537,1537,1537,1537,1537,1537,1537,1537,1537,1537,1537,1537,1537,1537,1537,1537,1537,1537,1537,1537,1537,1537,1537,1537,1537,1537,1537,1537,1537,1537,1537,1537,1537,1537,1537,1537,1537,1537,1537,1537,1537,1537,1537,1537,1537,1537,1537,1537,1537,1537,1537,1537,1537,1537,1537,1537,1537,1537,1537,1537,1537,1537,
1537,1537,1537,1537,1537,1537,1537,1537,1537,1537,1537,1537,1537,1537,1537,1537,1537,1537,1537,1537,1537,1537,1537,1537,1537,1537,1537,1537,1537,1537,1537,1537,1537,1537,1537,1537,1537,1537,1537,1537,1537,1537,1537,1537,1537,1537,1537,1537,1537,1537,1537,1537,1537,1537,1537,1537,1537,1537,1537,1537,1537,1537,1537,1537,1537,1537,1537,1537,1537,1537,1537,1537,1537,1537,1537,1537,1537,1537,1537,1537,1537,1537,1537,1537,1537,1537,1537,1537,1537,1537,1537,1537,1537,1537,1537,1537,1537,1537,1537,1537,
1537,1537,1537,1537,1537,1537,1537,1537,1537,1537,1537,1537,1537,1537,1537,1537,1537,1537,1537,1537,1537,1537,1537,1537,1537,1537,1537,1537,1537,1537,1537,1537,1537,1537,1537,1537,1537,1537,1537,1537,1537,1537,1537,1537,1537,1537,1537,1537,1537,1537,1537,1537,1537,1537,1537,1537,1537,1537,1537,1537,1537,1537,1537,1537,1537,1537,1537,1537,1537,1537,1537,1537,1537,1537,1537,1537,1537,1537,1537,1537,1537,1537,1537,1537,1537,1537,1537,1537,1537,1537,1537,1537,1537,1537,1537,1537,1537,1537,1537,1537,
1537,1537,1537,1537,1537,1537,1537,1537,1537,1537,1537,1537,1537,1537,1537,1537,1537,1537,1537,1537,1537,1537,1537,1537,1537,1537,1537,1537,1537,1537,1537,1537,1537,1537,1537,1537,1537,1537,1537,1537,1537,1537,1537,1537,1537,1537,1537,1537,1537,1537,1537,1537,1537,1537,1537,1537,1537,1537,1537,1537,1537,1537,1537,1537,1537,1537,1537,1537,1537,1537,1537,1537,1537,1537,1537,1537,1537,1537,1537,1537,1537,1537,1537,1537,1537,1537,1537,1537,1537,1537,1537,1537,1537,1537,1537,1537,1537,1537,1537,1537,
1537,1537,1537,1537,1537,1537,1537,1537,1537,1537,1537,1537,1537,1537,1537,1537,1537,1537,1537,1537,1537,1537,1537,1537,1537,1537,1537,1537,1537,1537,1537,1537,1537,1537,1537,1537,1537,1537,1537,1537,1537,1537,1537,1537,1537,1537,1537,1537,1537,1537,1537,1537,1537,1537,1537,1537,1537,1537,1537,1537,1537,1537,1537,1537,1537,1537,1537,1537,1537,1537,1537,1537,1537,1537,1537,1537,1537,1537,1537,1537,1537,1537,1537,1537,1537,1537,1537,1537,1537,1537,1537,1537,1537,1537,1537,1537,1537,1537,1537,1537,
1537,1537,1537,1537,1537,1537,1537,1537,1537,1537,1537,1537,1537,1537,1537,1537,1537,1537,1537,1537,1537,1537,1537,1537,1537,1537,1537,1537,1537,1537,1537,1537,1537,1537,1537,1537,1537,1537,1537,1537,1537,1537,1537,1537,1537,1537,1537,1537,1537,1537,1537,1537,1537,1537,1537,1537,1537,1537,1537,1537,1537,1537,1537,1537,1537,1537,1537,1537,1537,1537,1537,1537,1537,1537,1537,1537,1537,1537,1537,1537,1537,1537,1537,1537,1537,1537,1537,1537,1537,1537,1537,1537,1537,1537,1537,1537,1537,1537,1537,1537,
1537,1537,1537,1537,1537,1537,1537,1537,1537,1537,1537,1537,1537,1537,1537,1537,1537,1537,1537,1537,1537,1537,1537,1537,1537,1537,1537,1537,1537,1537,1537,1537,1537,1537,1537,1537,1537,1537,1537,1537,1537,1537,1537,1537,1537,1537,1537,1537,1537,1537,1537,1537,1537,1537,1537,1537,1537,1537,1537,1537,1537,1537,1537,1537,1537,1537,1537,1537,1537,1537,1537,1537,1537,1537,1537,1537,1537,1537,1537,1537,1537,1537,1537,1537,1537,1537,1537,1537,1537,1537,1537,1537,1537,1537,1537,1537,1537,1537,1537,1537,
1537,1537,1537,1537,1537,1537,1537,1537,1537,1537,1537,1537,1537,1537,1537,1537,1537,1537,1537,1537,1537,1537,1537,1537,1537,1537,1537,1537,1537,1537,1537,1537,1537,1537,1537,1537,1537,1537,1537,1537,1537,1537,1537,1537,1537,1537,1537,1537,1537,1537,1537,1537,1537,1537,1537,1537,1537,1537,1537,1537,1537,1537,1537,1537,1537,1537,1537,1537,1537,1537,1537,1537,1537,1537,1537,1537,1537,1537,1537,1537,1537,1537,1537,1537,1537,1537,1537,1537,1537,1537,1537,1537,1537,1537,1537,1537,1537,1537,1537,1537,
1537,1537,1537,1537,1537,1537,1537,1537,1537,1537,1537,1537,1537,1537,1537,1537,1537,1537,1537,1537,1537,1537,1537,1537,1537,1537,1537,1537,1537,1537,1537,1537,1537,1537,1537,1537,1537,1537,1537,1537,1537,1537,1537,1537,1537,1537,1537,1537,1537,1537,1537,1537,1537,1537,1537,1537,1537,1537,1537,1537,1537,1537,1537,1537,1537,1537,1537,1537,1537,1537,1537,1537,1537,1537,1537,1537,1537,1537,1537,1537,1537,1537,1537,1537,1537,1537,1537,1537,1537,1537,1537,1537,1537,1537,1537,1537,1537,1537,1537,1537,
1537,1537,1537,1537,1537,1537,1537,1537,1537,1537,1537,1537,1537,1537,1537,1537,1537,1537,1537,1537,1537,1537,1537,1537,1537,1537,1537,1537,1537,1537,1537,1537,1537,1537,1537,1537,1537,1537,1537,1537,1537,1537,1537,1537,1537,1537,1537,1537,1537,1537,1537,1537,1537,1537,1537,1537,1537,1537,1537,1537,1537,1537,1537,1537,1537,1537,1537,1537,1537,1537,1537,1537,1537,1537,1537,1537,1537,1537,1537,1537,1537,1537,1537,1537,1537,1537,1537,1537,1537,1537,1537,1537,1537,1537,1537,1537,1537,1537,1537,1537
</data>
 </layer>
 <layer id="2" name="bg2" width="100" height="100">
  <data encoding="csv">
0,0,0,0,0,0,0,0,0,0,0,0,0,0,0,0,0,0,0,0,0,0,0,0,0,0,0,0,0,0,0,0,0,0,0,0,0,0,0,0,0,0,0,0,0,0,0,0,0,0,0,0,0,0,0,0,0,0,0,0,0,0,0,0,0,0,0,0,0,0,0,0,0,0,0,0,0,0,0,0,0,0,0,0,0,0,0,0,0,0,0,0,0,0,0,0,0,0,0,0,
0,0,0,0,0,0,0,0,0,0,0,0,0,0,0,0,0,0,0,0,0,0,0,0,0,0,0,0,0,0,0,0,0,0,0,0,0,0,0,0,0,0,0,0,0,0,0,0,0,0,0,0,0,0,0,0,0,0,0,0,0,0,0,0,0,0,0,0,0,0,0,0,0,0,0,0,0,0,0,0,0,0,0,0,0,0,0,0,0,0,0,0,0,0,0,0,0,0,0,0,
0,0,0,0,0,0,0,0,0,0,0,0,0,0,0,0,0,0,0,0,0,0,0,0,0,0,0,0,0,0,0,0,0,0,0,0,0,0,0,0,0,0,0,0,0,0,0,0,0,0,0,0,0,0,0,0,0,0,0,0,0,0,0,0,0,0,0,0,0,0,0,0,0,0,0,0,0,0,0,0,0,0,0,0,0,0,0,0,0,0,0,0,0,0,0,0,0,0,0,0,
0,0,0,0,0,0,0,0,0,0,0,0,0,0,0,0,0,0,0,0,0,0,0,0,0,0,0,0,0,0,0,0,0,0,0,0,0,0,0,0,0,0,0,0,0,0,0,0,0,0,0,0,0,0,0,0,0,0,0,0,0,0,0,0,0,0,0,0,0,0,0,0,0,0,0,0,0,0,0,0,0,0,0,0,0,0,0,0,0,0,0,0,0,0,0,0,0,0,0,0,
0,0,0,0,0,0,0,0,0,0,0,0,0,0,0,0,0,0,0,0,0,0,0,0,0,0,0,0,0,0,0,0,0,0,0,0,0,0,0,0,0,0,0,0,0,0,0,0,0,0,0,0,0,0,0,0,0,0,0,0,0,0,0,0,0,0,0,0,0,0,0,0,0,0,0,0,0,0,0,0,0,0,0,0,0,0,0,0,0,0,0,0,0,0,0,0,0,0,0,0,
0,0,0,0,0,0,0,0,0,0,0,0,0,0,0,0,0,0,0,0,0,0,0,0,0,0,0,0,0,0,0,0,0,0,0,0,0,0,0,0,0,0,0,0,0,0,0,0,0,0,0,0,0,0,0,0,0,0,0,0,0,0,0,0,0,0,0,0,0,0,0,0,0,0,0,0,0,0,0,0,0,0,0,0,0,0,0,0,0,0,0,0,0,0,0,0,0,0,0,0,
0,0,0,0,0,0,0,0,0,0,0,0,0,0,0,0,0,0,0,0,0,0,0,0,0,0,0,0,0,0,0,0,0,0,0,0,0,0,0,0,0,0,0,0,0,0,0,0,0,0,0,0,0,0,0,0,0,0,0,0,0,0,0,0,0,0,0,0,0,0,0,0,0,0,0,0,0,0,0,0,0,0,0,0,0,0,0,0,0,0,0,0,0,0,0,0,0,0,0,0,
0,0,0,0,0,0,0,0,0,0,0,0,0,0,0,0,0,0,0,0,0,0,0,0,0,0,0,0,0,0,0,0,0,0,0,0,0,0,0,0,0,0,0,0,0,0,0,0,0,0,0,0,0,0,0,0,0,0,0,0,0,0,0,0,0,0,0,0,0,0,0,0,0,0,0,0,0,0,0,0,0,0,0,0,0,0,0,0,0,0,0,0,0,0,0,0,0,0,0,0,
0,0,0,0,0,0,0,0,0,0,0,0,0,0,0,0,0,0,0,0,0,0,0,0,0,0,0,0,0,0,0,0,0,0,0,0,0,0,0,0,0,0,0,0,0,0,0,0,0,0,0,0,0,0,0,0,0,0,0,0,0,0,0,0,0,0,0,0,0,0,0,0,0,0,0,0,0,0,0,0,0,0,0,0,0,0,0,0,0,0,0,0,0,0,0,0,0,0,0,0,
0,0,0,0,0,0,0,0,0,0,0,0,0,0,0,0,0,0,0,0,0,0,0,0,0,0,0,0,0,0,0,0,0,0,0,0,0,0,0,0,0,0,0,0,0,0,0,0,0,0,0,0,0,0,0,0,0,0,0,0,0,0,0,0,0,0,0,0,0,0,0,0,0,0,0,0,0,0,0,0,0,0,0,0,0,0,0,0,0,0,0,0,0,0,0,0,0,0,0,0,
0,0,0,0,0,0,0,0,0,0,0,0,0,0,0,0,0,0,0,0,0,0,0,0,0,0,0,0,0,0,0,0,0,0,0,0,0,0,0,0,0,0,0,0,0,0,0,0,0,0,0,0,0,0,0,0,0,0,0,0,0,0,0,0,0,0,0,0,0,0,0,0,0,0,0,0,0,0,0,0,0,0,0,0,0,0,0,0,0,0,0,0,0,0,0,0,0,0,0,0,
0,0,0,0,0,0,0,0,0,0,0,0,0,0,0,0,0,0,0,0,0,0,0,0,0,0,0,0,0,0,0,0,0,0,0,0,0,0,0,0,0,0,0,0,0,0,0,0,0,0,0,0,0,0,0,0,0,0,0,0,0,0,0,0,0,0,0,0,0,0,0,0,0,0,0,0,0,0,0,0,0,0,0,0,0,0,0,0,0,0,0,0,0,0,0,0,0,0,0,0,
0,0,0,0,0,0,0,0,0,0,0,0,0,0,0,0,0,0,0,0,0,0,0,0,0,0,0,0,0,0,0,0,0,0,0,0,0,0,0,0,0,0,0,0,0,0,0,0,0,0,0,0,0,0,0,0,0,0,0,0,0,0,0,0,0,0,0,0,0,0,0,0,0,0,0,0,0,0,0,0,0,0,0,0,0,0,0,0,0,0,0,0,0,0,0,0,0,0,0,0,
0,0,0,0,0,0,0,0,0,0,0,0,0,0,0,0,0,0,0,0,0,0,0,0,0,0,0,0,0,0,0,0,0,0,0,0,0,0,0,0,0,0,0,0,0,0,0,0,0,0,0,0,0,0,0,0,0,0,0,0,0,0,0,0,0,0,0,0,0,0,0,0,0,0,0,0,0,0,0,0,0,0,0,0,0,0,0,0,0,0,0,0,0,0,0,0,0,0,0,0,
0,0,0,0,0,0,0,0,0,0,0,0,0,0,0,0,0,0,0,0,0,0,0,0,0,0,0,0,0,0,0,0,0,0,0,0,0,0,0,0,0,0,0,0,0,0,0,0,0,0,0,0,0,0,0,0,0,0,0,0,0,0,0,0,0,0,0,0,0,0,0,0,0,0,0,0,0,0,0,0,0,0,0,0,0,0,0,0,0,0,0,0,0,0,0,0,0,0,0,0,
0,0,0,0,0,0,0,0,0,0,0,0,0,0,0,0,0,0,0,0,0,0,0,0,0,0,0,0,0,0,0,0,0,0,0,0,0,0,0,0,0,0,0,0,0,0,0,0,0,0,0,0,0,0,0,0,0,0,0,0,0,0,0,0,0,0,0,0,0,0,0,0,0,0,0,0,0,0,0,0,0,0,0,0,0,0,0,0,0,0,0,0,0,0,0,0,0,0,0,0,
0,0,0,0,0,0,0,0,0,0,0,0,0,0,0,0,0,0,0,0,0,0,0,0,0,0,0,0,0,0,0,0,0,0,0,0,0,0,0,0,0,0,0,0,0,0,0,0,0,0,0,0,0,0,0,0,0,0,0,0,0,0,0,0,0,0,0,0,0,0,0,0,0,0,0,0,0,0,0,0,0,0,0,0,0,0,0,0,0,0,0,0,0,0,0,0,0,0,0,0,
0,0,0,0,0,0,0,0,0,0,0,0,0,0,0,0,0,0,0,0,0,0,0,0,0,0,0,0,0,0,0,0,0,0,0,0,0,0,0,0,0,0,0,0,0,0,0,0,0,0,0,0,0,0,0,0,0,0,0,0,0,0,0,0,0,0,0,0,0,0,0,0,0,0,0,0,0,0,0,0,0,0,0,0,0,0,0,0,0,0,0,0,0,0,0,0,0,0,0,0,
0,0,0,0,0,0,0,0,0,0,0,0,0,0,0,0,0,0,0,0,0,0,0,0,0,0,0,0,0,0,0,0,0,0,0,0,0,0,0,0,0,0,0,0,0,0,0,0,0,0,0,0,0,0,0,0,0,0,0,0,0,0,0,0,0,0,0,0,0,0,0,0,0,0,0,0,0,0,0,0,0,0,0,0,0,0,0,0,0,0,0,0,0,0,0,0,0,0,0,0,
0,0,0,0,0,0,0,0,0,0,0,0,0,0,0,0,0,0,0,0,0,0,0,0,0,0,0,0,0,0,0,0,0,0,0,0,0,0,0,0,0,0,0,0,0,0,0,0,0,0,0,0,0,0,0,0,0,0,0,0,0,0,0,0,0,0,0,0,0,0,0,0,0,0,0,0,0,0,0,0,0,0,0,0,0,0,0,0,0,0,0,0,0,0,0,0,0,0,0,0,
0,0,0,0,0,0,0,0,0,0,0,0,0,0,0,0,0,0,0,0,0,0,0,0,0,0,0,0,0,0,0,0,0,0,0,0,0,0,0,0,0,0,0,0,0,0,0,0,0,0,0,0,0,0,0,0,0,0,0,0,0,0,0,0,0,0,0,0,0,0,0,0,0,0,0,0,0,0,0,0,0,0,0,0,0,0,0,0,0,0,0,0,0,0,0,0,0,0,0,0,
0,0,0,0,0,0,0,0,0,0,0,0,0,0,0,0,0,0,0,0,0,0,0,0,0,0,0,0,0,0,0,0,0,0,0,0,0,0,0,0,0,0,0,0,0,0,0,0,0,0,0,0,0,0,0,0,0,0,0,0,0,0,0,0,0,0,0,0,0,0,0,0,0,0,0,0,0,0,0,0,0,0,0,0,0,0,0,0,0,0,0,0,0,0,0,0,0,0,0,0,
0,0,0,0,0,0,0,0,0,0,0,0,0,0,0,0,0,0,0,0,0,0,0,0,0,0,0,0,0,0,0,0,0,0,0,0,0,0,0,0,0,0,0,0,0,0,0,0,0,0,0,0,0,0,0,0,0,0,0,0,0,0,0,0,0,0,0,0,0,0,0,0,0,0,0,0,0,0,0,0,0,0,0,0,0,0,0,0,0,0,0,0,0,0,0,0,0,0,0,0,
0,0,0,0,0,0,0,0,0,0,0,0,0,0,0,0,0,0,0,0,0,0,0,0,0,0,0,0,0,0,0,0,0,0,0,0,0,0,0,0,0,0,0,0,0,0,0,0,0,0,0,0,0,0,0,0,0,0,0,0,0,0,0,0,0,0,0,0,0,0,0,0,0,0,0,0,0,0,0,0,0,0,0,0,0,0,0,0,0,0,0,0,0,0,0,0,0,0,0,0,
0,0,0,0,0,0,0,0,0,0,0,0,0,0,0,0,0,0,0,0,0,0,0,0,0,0,0,0,0,0,0,0,0,0,0,0,0,0,0,0,0,0,0,0,0,0,0,0,0,0,0,0,0,0,0,0,0,0,0,0,0,0,0,0,0,0,0,0,0,0,0,0,0,0,0,0,0,0,0,0,0,0,0,0,0,0,0,0,0,0,0,0,0,0,0,0,0,0,0,0,
0,0,0,0,0,0,0,0,0,0,0,0,0,0,0,0,0,0,0,0,0,0,0,0,0,0,0,0,0,0,0,0,0,0,0,0,0,0,0,0,0,0,0,0,0,0,0,0,0,0,0,0,0,0,0,0,0,0,0,0,0,0,0,0,0,0,0,0,0,0,0,0,0,0,0,0,0,0,0,0,0,0,0,0,0,0,0,0,0,0,0,0,0,0,0,0,0,0,0,0,
0,0,0,0,0,0,0,0,0,0,0,0,0,0,0,0,0,0,0,0,0,0,0,0,0,0,0,0,0,0,0,0,0,0,0,0,0,0,0,0,0,0,0,0,0,0,0,0,0,0,0,0,0,0,0,0,0,0,0,0,0,0,0,0,0,0,0,0,0,0,0,0,0,0,0,0,0,0,0,0,0,0,0,0,0,0,0,0,0,0,0,0,0,0,0,0,0,0,0,0,
0,0,0,0,0,0,0,0,0,0,0,0,0,0,0,0,0,0,0,0,0,0,0,0,0,0,0,0,0,0,0,0,0,0,0,0,0,0,0,0,0,0,0,0,0,0,0,0,0,0,0,0,0,0,0,0,0,0,0,0,0,0,0,0,0,0,0,0,0,0,0,0,0,0,0,0,0,0,0,0,0,0,0,0,0,0,0,0,0,0,0,0,0,0,0,0,0,0,0,0,
0,0,0,0,0,0,0,0,0,0,0,0,0,0,0,0,0,0,0,0,0,0,0,0,0,0,0,0,0,0,0,0,0,0,0,0,0,0,0,0,0,0,0,0,0,0,0,0,0,0,0,0,0,0,0,0,0,0,0,0,0,0,0,0,0,0,0,0,0,0,0,0,0,0,0,0,0,0,0,0,0,0,0,0,0,0,0,0,0,0,0,0,0,0,0,0,0,0,0,0,
0,0,0,0,0,0,0,0,0,0,0,0,0,0,0,0,0,0,0,0,0,0,0,0,0,0,0,0,0,0,0,0,0,0,0,0,0,0,0,0,0,0,0,0,0,0,0,0,0,0,0,0,0,0,0,0,0,0,0,0,0,0,0,0,0,0,0,0,0,0,0,0,0,0,0,0,0,0,0,0,0,0,0,0,0,0,0,0,0,0,0,0,0,0,0,0,0,0,0,0,
0,0,0,0,0,0,0,0,0,0,0,0,0,0,0,0,0,0,0,0,0,0,0,0,0,0,0,0,0,0,0,0,0,0,0,0,0,0,0,0,0,0,0,0,0,0,0,0,0,0,0,0,0,0,0,0,0,0,0,0,0,0,0,0,0,0,0,0,0,0,0,0,0,0,0,0,0,0,0,0,0,0,0,0,0,0,0,0,0,0,0,0,0,0,0,0,0,0,0,0,
0,0,0,0,0,0,0,0,0,0,0,0,0,0,0,0,0,0,0,0,0,0,0,0,0,0,0,0,0,0,0,0,0,0,0,0,0,0,0,0,0,0,0,0,0,0,0,0,0,0,0,0,0,0,0,0,0,0,0,0,0,0,0,0,0,0,0,0,0,0,0,0,0,0,0,0,0,0,0,0,0,0,0,0,0,0,0,0,0,0,0,0,0,0,0,0,0,0,0,0,
0,0,0,0,0,0,0,0,0,0,0,0,0,0,0,0,0,0,0,0,0,0,0,0,0,0,0,0,0,0,0,0,0,0,0,0,0,0,0,0,0,0,0,0,0,0,0,0,0,0,0,0,0,0,0,0,0,0,0,0,0,0,0,0,0,0,0,0,0,0,0,0,0,0,0,0,0,0,0,0,0,0,0,0,0,0,0,0,0,0,0,0,0,0,0,0,0,0,0,0,
0,0,0,0,0,0,0,0,0,0,0,0,0,0,0,0,0,0,0,0,0,0,0,0,0,0,0,0,0,0,0,0,0,0,0,0,0,0,0,0,0,0,0,0,0,0,0,0,0,0,0,0,0,0,0,0,0,0,0,0,0,0,0,0,0,0,0,0,0,0,0,0,0,0,0,0,0,0,0,0,0,0,0,0,0,0,0,0,0,0,0,0,0,0,0,0,0,0,0,0,
0,0,0,0,0,0,0,0,0,0,0,0,0,0,0,0,0,0,0,0,0,0,0,0,0,0,0,0,0,0,0,0,0,0,0,0,0,0,0,0,0,0,0,0,0,0,0,0,0,0,0,0,0,0,0,0,0,0,0,0,0,0,0,0,0,0,0,0,0,0,0,0,0,0,0,0,0,0,0,0,0,0,0,0,0,0,0,0,0,0,0,0,0,0,0,0,0,0,0,0,
0,0,0,0,0,0,0,0,0,0,0,0,0,0,0,0,0,0,0,0,0,0,0,0,0,0,0,0,0,0,0,0,0,0,0,0,0,0,0,0,0,0,0,0,0,0,0,0,0,0,0,0,0,0,0,0,0,0,0,0,0,0,0,0,0,0,0,0,0,0,0,0,0,0,0,0,0,0,0,0,0,0,0,0,0,0,0,0,0,0,0,0,0,0,0,0,0,0,0,0,
0,0,0,0,0,0,0,0,0,0,0,0,0,0,0,0,0,0,0,0,0,0,0,0,0,0,0,0,0,0,0,0,0,0,0,0,0,0,0,0,0,0,0,0,0,0,0,0,0,0,0,0,0,0,0,0,0,0,0,0,0,0,0,0,0,0,0,0,0,0,0,0,0,0,0,0,0,0,0,0,0,0,0,0,0,0,0,0,0,0,0,0,0,0,0,0,0,0,0,0,
0,0,0,0,0,0,0,0,0,0,0,0,0,0,0,0,0,0,0,0,0,0,0,0,0,0,0,0,0,0,0,0,0,0,0,0,0,0,0,0,0,0,0,0,0,0,0,0,0,0,0,0,0,0,0,0,0,0,0,0,0,0,0,0,0,0,0,0,0,0,0,0,0,0,0,0,0,0,0,0,0,0,0,0,0,0,0,0,0,0,0,0,0,0,0,0,0,0,0,0,
0,0,0,0,0,0,0,0,0,0,0,0,0,0,0,0,0,0,0,0,0,0,0,0,0,0,0,0,0,0,0,0,0,0,0,0,0,0,0,0,0,0,0,0,0,0,0,0,0,0,0,0,0,0,0,0,0,0,0,0,0,0,0,0,0,0,0,0,0,0,0,0,0,0,0,0,0,0,0,0,0,0,0,0,0,0,0,0,0,0,0,0,0,0,0,0,0,0,0,0,
0,0,0,0,0,0,0,0,0,0,0,0,0,0,0,0,0,0,0,0,0,0,0,0,0,0,0,0,0,0,0,0,0,0,0,0,0,0,0,0,0,0,0,0,0,0,0,0,0,0,0,0,0,0,0,0,0,0,0,0,0,0,0,0,0,0,0,0,0,0,0,0,0,0,0,0,0,0,0,0,0,0,0,0,0,0,0,0,0,0,0,0,0,0,0,0,0,0,0,0,
0,0,0,0,0,0,0,0,0,0,0,0,0,0,0,0,0,0,0,0,0,0,0,0,0,0,0,0,0,0,0,0,0,0,0,0,0,0,0,0,0,0,0,0,0,0,0,0,0,0,0,0,0,0,0,0,0,0,0,0,0,0,0,0,0,0,0,0,0,0,0,0,0,0,0,0,0,0,0,0,0,0,0,0,0,0,0,0,0,0,0,0,0,0,0,0,0,0,0,0,
0,0,0,0,0,0,0,0,0,0,0,0,0,0,0,0,0,0,0,0,0,0,0,0,0,0,0,0,0,0,0,0,0,0,0,0,0,0,0,0,0,0,0,0,0,0,0,0,0,0,0,0,0,0,0,0,0,0,0,0,0,0,0,0,0,0,0,0,0,0,0,0,0,0,0,0,0,0,0,0,0,0,0,0,0,0,0,0,0,0,0,0,0,0,0,0,0,0,0,0,
0,0,0,0,0,0,0,0,0,0,0,0,0,0,0,0,0,0,0,0,0,0,0,0,0,0,0,0,0,0,0,0,0,0,0,0,0,0,0,0,0,0,0,0,0,0,0,0,0,0,0,0,0,0,0,0,0,0,0,0,0,0,0,0,0,0,0,0,0,0,0,0,0,0,0,0,0,0,0,0,0,0,0,0,0,0,0,0,0,0,0,0,0,0,0,0,0,0,0,0,
0,0,0,0,0,0,0,0,0,0,0,0,0,0,0,0,0,0,0,0,0,0,0,0,0,0,0,0,0,0,0,0,0,0,0,0,0,0,0,0,0,0,0,0,0,0,0,0,0,0,0,0,0,0,0,0,0,0,0,0,0,0,0,0,0,0,0,0,0,0,0,0,0,0,0,0,0,0,0,0,0,0,0,0,0,0,0,0,0,0,0,0,0,0,0,0,0,0,0,0,
0,0,0,0,0,0,0,0,0,0,0,0,0,0,0,0,0,0,0,0,0,0,0,0,0,0,0,0,0,0,0,0,0,0,0,0,0,0,0,0,0,0,0,0,1577,1699,1699,1699,1699,1699,1699,1699,1699,1699,1699,1578,0,0,0,0,0,0,0,0,0,0,0,0,0,0,0,0,0,0,0,0,0,0,0,0,0,0,0,0,0,0,0,0,0,0,0,0,0,0,0,0,0,0,0,0,
0,0,0,0,0,0,0,0,0,0,0,0,0,0,0,0,0,0,0,0,0,0,0,0,0,0,0,0,0,0,0,0,0,0,0,0,0,0,0,0,0,0,0,0,1575,0,0,0,0,0,0,0,0,0,0,1570,0,0,0,0,0,0,0,0,0,0,0,0,0,0,0,0,0,0,0,0,0,0,0,0,0,0,0,0,0,0,0,0,0,0,0,0,0,0,0,0,0,0,0,0,
0,0,0,0,0,0,0,0,0,0,0,0,0,0,0,0,0,0,0,0,0,0,0,0,0,0,0,0,0,0,0,0,0,0,0,0,0,0,0,0,0,0,0,0,1575,0,0,0,0,0,0,0,0,0,0,1570,0,0,0,0,0,0,0,0,0,0,0,0,0,0,0,0,0,0,0,0,0,0,0,0,0,0,0,0,0,0,0,0,0,0,0,0,0,0,0,0,0,0,0,0,
0,0,0,0,0,0,0,0,0,0,0,0,0,0,0,0,0,0,0,0,0,0,0,0,0,0,0,0,0,0,0,0,0,0,0,0,0,0,0,0,0,0,0,0,1575,0,0,0,0,0,0,0,0,0,0,1570,0,0,0,0,0,0,0,0,0,0,0,0,0,0,0,0,0,0,0,0,0,0,0,0,0,0,0,0,0,0,0,0,0,0,0,0,0,0,0,0,0,0,0,0,
0,0,0,0,0,0,0,0,0,0,0,0,0,0,0,0,0,0,0,0,0,0,0,0,0,0,0,0,0,0,0,0,0,0,0,0,0,0,0,0,0,0,0,0,1575,0,0,0,0,0,0,0,0,0,0,1570,0,0,0,0,0,0,0,0,0,0,0,0,0,0,0,0,0,0,0,0,0,0,0,0,0,0,0,0,0,0,0,0,0,0,0,0,0,0,0,0,0,0,0,0,
0,0,0,0,0,0,0,0,0,0,0,0,0,0,0,0,0,0,0,0,0,0,0,0,0,0,0,0,0,0,0,0,0,0,0,0,0,0,0,0,0,0,0,0,1575,0,0,0,0,0,0,0,0,0,0,1570,0,0,0,0,0,0,0,0,0,0,0,0,0,0,0,0,0,0,0,0,0,0,0,0,0,0,0,0,0,0,0,0,0,0,0,0,0,0,0,0,0,0,0,0,
0,0,0,0,0,0,0,0,0,0,0,0,0,0,0,0,0,0,0,0,0,0,0,0,0,0,0,0,0,0,0,0,0,0,0,0,0,0,0,0,0,0,0,0,1575,0,0,0,0,0,0,0,0,0,0,1570,0,0,0,0,0,0,0,0,0,0,0,0,0,0,0,0,0,0,0,0,0,0,0,0,0,0,0,0,0,0,0,0,0,0,0,0,0,0,0,0,0,0,0,0,
0,0,0,0,0,0,0,0,0,0,0,0,0,0,0,0,0,0,0,0,0,0,0,0,0,0,0,0,0,0,0,0,0,0,0,0,0,0,0,0,0,0,0,0,1575,0,0,0,0,0,0,0,0,0,0,1570,0,0,0,0,0,0,0,0,0,0,0,0,0,0,0,0,0,0,0,0,0,0,0,0,0,0,0,0,0,0,0,0,0,0,0,0,0,0,0,0,0,0,0,0,
0,0,0,0,0,0,0,0,0,0,0,0,0,0,0,0,0,0,0,0,0,0,0,0,0,0,0,0,0,0,0,0,0,0,0,0,0,0,0,0,0,0,0,0,1575,0,0,0,0,0,0,0,0,0,0,1570,0,0,0,0,0,0,0,0,0,0,0,0,0,0,0,0,0,0,0,0,0,0,0,0,0,0,0,0,0,0,0,0,0,0,0,0,0,0,0,0,0,0,0,0,
0,0,0,0,0,0,0,0,0,0,0,0,0,0,0,0,0,0,0,0,0,0,0,0,0,0,0,0,0,0,0,0,0,0,0,0,0,0,0,0,0,0,0,0,1575,0,0,0,0,0,0,0,0,0,0,1570,0,0,0,0,0,0,0,0,0,0,0,0,0,0,0,0,0,0,0,0,0,0,0,0,0,0,0,0,0,0,0,0,0,0,0,0,0,0,0,0,0,0,0,0,
0,0,0,0,0,0,0,0,0,0,0,0,0,0,0,0,0,0,0,0,0,0,0,0,0,0,0,0,0,0,0,0,0,0,0,0,0,0,0,0,0,0,0,0,1575,0,0,0,0,0,0,0,0,0,0,1570,0,0,0,0,0,0,0,0,0,0,0,0,0,0,0,0,0,0,0,0,0,0,0,0,0,0,0,0,0,0,0,0,0,0,0,0,0,0,0,0,0,0,0,0,
0,0,0,0,0,0,0,0,0,0,0,0,0,0,0,0,0,0,0,0,0,0,0,0,0,0,0,0,0,0,0,0,0,0,0,0,0,0,0,0,0,0,0,0,1609,1539,1539,1539,1539,1539,1539,1539,1539,1539,1539,1610,0,0,0,0,0,0,0,0,0,0,0,0,0,0,0,0,0,0,0,0,0,0,0,0,0,0,0,0,0,0,0,0,0,0,0,0,0,0,0,0,0,0,0,0,
0,0,0,0,0,0,0,0,0,0,1551,1552,1552,1552,1552,2147485199,0,0,0,0,0,0,0,0,0,0,0,0,0,0,0,0,0,0,0,0,0,0,0,0,0,0,0,0,0,0,0,0,0,0,0,0,0,0,0,0,0,0,0,0,0,0,0,0,0,0,0,0,0,0,0,0,0,0,0,0,0,0,0,0,0,0,0,0,0,0,0,0,0,0,0,0,0,0,0,0,0,0,0,0,
0,0,0,0,0,0,0,0,0,0,1583,1584,1584,1584,1584,2147485231,0,0,0,0,0,0,0,0,0,0,0,0,0,0,0,0,0,0,0,0,0,0,0,0,0,0,0,0,0,0,0,0,0,0,0,0,0,0,0,0,0,0,0,0,0,0,0,0,0,0,0,0,0,0,0,0,0,0,0,0,0,0,0,0,0,0,0,0,0,0,0,0,0,0,0,0,0,0,0,0,0,0,0,0,
0,0,0,0,0,0,0,0,0,0,1583,1584,1584,1584,1584,2147485231,0,0,0,0,0,0,0,0,0,0,0,0,0,0,0,0,0,0,0,0,0,0,0,0,0,0,0,0,0,0,0,0,0,0,0,0,0,0,0,0,0,0,0,0,0,0,0,0,0,0,0,0,0,0,0,0,0,0,0,0,0,0,0,0,0,0,0,0,0,0,0,0,0,0,0,0,0,0,0,0,0,0,0,0,
0,0,0,0,0,0,0,0,0,0,1583,1584,1584,1584,1584,2147485231,0,0,0,0,0,0,0,0,0,0,0,0,0,0,0,0,0,0,0,0,0,0,0,0,0,0,0,0,0,0,0,0,0,0,0,0,0,0,0,0,0,0,0,0,0,0,0,0,0,0,0,0,0,0,0,0,0,0,0,0,0,0,0,0,0,0,0,0,0,0,0,0,0,0,0,0,0,0,0,0,0,0,0,0,
0,0,0,0,0,0,0,0,0,0,1583,1584,1584,1584,1584,2147485231,0,0,0,0,0,0,0,0,0,0,0,0,0,0,0,0,0,0,0,0,0,0,0,0,0,0,0,0,0,0,0,0,0,0,0,0,0,0,0,0,0,0,0,0,0,0,0,0,0,0,0,0,0,0,0,0,0,0,0,0,0,0,0,0,0,0,0,0,0,0,0,0,0,0,0,0,0,0,0,0,0,0,0,0,
0,0,0,0,0,0,0,0,0,0,1615,1616,1616,1616,1616,2147485263,0,0,0,0,0,0,0,0,0,0,0,0,0,0,0,0,0,0,0,0,0,0,0,0,0,0,0,0,0,0,0,0,0,0,0,0,0,0,0,0,0,0,0,0,0,0,0,0,0,0,0,0,0,0,0,0,0,0,0,0,0,0,0,0,0,0,0,0,0,0,0,0,0,0,0,0,0,0,0,0,0,0,0,0,
0,0,0,0,0,0,0,0,0,0,0,0,0,0,0,0,0,0,0,0,0,0,0,0,0,0,0,0,0,0,0,0,0,0,0,0,0,0,0,0,0,0,0,0,0,0,0,0,0,0,0,0,0,0,0,0,0,0,0,0,0,0,0,0,0,0,0,0,0,0,0,0,0,0,0,0,0,0,0,0,0,0,0,0,0,0,0,0,0,0,0,0,0,0,0,0,0,0,0,0,
0,0,0,0,0,0,0,0,0,0,0,0,0,0,0,0,0,0,0,0,0,0,0,0,0,0,0,0,0,0,0,0,0,0,0,0,0,0,0,0,0,0,0,0,0,0,0,0,0,0,0,0,0,0,0,0,0,0,0,0,0,0,0,0,0,0,0,0,0,0,0,0,0,0,0,0,0,0,0,0,0,0,0,0,0,0,0,0,0,0,0,0,0,0,0,0,0,0,0,0,
0,0,0,0,0,0,0,0,0,0,0,0,0,0,0,0,0,0,0,0,0,0,0,0,0,0,0,0,0,0,0,0,0,0,0,0,0,0,0,0,0,0,0,0,0,0,0,0,0,0,0,0,0,0,0,0,0,0,0,0,0,0,0,0,0,0,0,0,0,0,0,0,0,0,0,0,0,0,0,0,0,0,0,0,0,0,0,0,0,0,0,0,0,0,0,0,0,0,0,0,
0,0,0,0,0,0,0,0,0,0,0,0,0,0,0,0,0,0,0,0,0,0,0,0,0,0,0,0,0,0,0,0,0,0,0,0,0,0,0,0,0,0,0,0,0,0,0,0,0,0,0,0,0,0,0,0,0,0,0,0,0,0,0,0,0,0,0,0,0,0,0,0,0,0,0,0,0,0,0,0,0,0,0,0,0,0,0,0,0,0,0,0,0,0,0,0,0,0,0,0,
0,0,0,0,0,0,0,0,0,0,0,0,0,0,0,0,0,0,0,0,0,0,0,0,0,0,0,0,0,0,0,0,0,0,0,0,0,0,0,0,0,0,0,0,0,0,0,0,0,0,0,0,0,0,0,0,0,0,0,0,0,0,0,0,0,0,0,0,0,0,0,0,0,0,0,0,0,0,0,0,0,0,0,0,0,0,0,0,0,0,0,0,0,0,0,0,0,0,0,0,
0,0,0,0,0,0,0,0,0,0,0,0,0,0,0,0,0,0,0,0,0,0,0,0,0,0,0,0,0,0,0,0,0,0,0,0,0,0,0,0,0,0,0,0,0,0,0,0,0,0,0,0,0,0,0,0,0,0,0,0,0,0,0,0,0,0,0,0,0,0,0,0,0,0,0,0,0,0,0,0,0,0,0,0,0,0,0,0,0,0,0,0,0,0,0,0,0,0,0,0,
0,0,0,0,0,0,0,0,0,0,0,0,0,0,0,0,0,0,0,0,0,0,0,0,0,0,0,0,0,0,0,0,0,0,0,0,0,0,0,0,0,0,0,0,0,0,0,0,0,0,0,0,0,0,0,0,0,0,0,0,0,0,0,0,0,0,0,0,0,0,0,0,0,0,0,0,0,0,0,0,0,0,0,0,0,0,0,0,0,0,0,0,0,0,0,0,0,0,0,0,
0,0,0,0,0,0,0,0,0,0,0,0,0,0,0,0,0,0,0,0,0,0,0,0,0,0,0,0,0,0,0,0,0,0,0,0,0,0,0,0,0,0,0,0,0,0,0,0,0,0,0,0,0,0,0,0,0,0,0,0,0,0,0,0,0,0,0,0,0,0,0,0,0,0,0,0,0,0,0,0,0,0,0,0,0,0,0,0,0,0,0,0,0,0,0,0,0,0,0,0,
0,0,0,0,0,0,0,0,0,0,0,0,0,0,0,0,0,0,0,0,0,0,0,0,0,0,0,0,0,0,0,0,0,0,0,0,0,0,0,0,0,0,0,0,0,0,0,0,0,0,0,0,0,0,0,0,0,0,0,0,0,0,0,0,0,0,0,0,0,0,0,0,0,0,0,0,0,0,0,0,0,0,0,0,0,0,0,0,0,0,0,0,0,0,0,0,0,0,0,0,
0,0,0,0,0,0,0,0,0,0,0,0,0,0,0,0,0,0,0,0,0,0,0,0,0,0,0,0,0,0,0,0,0,0,0,0,0,0,0,0,0,0,0,0,0,0,0,0,0,0,0,0,0,0,0,0,0,0,0,0,0,0,0,0,0,0,0,0,0,0,0,0,0,0,0,0,0,0,0,0,0,0,0,0,0,0,0,0,0,0,0,0,0,0,0,0,0,0,0,0,
0,0,0,0,0,0,0,0,0,0,0,0,0,0,0,0,0,0,0,0,0,0,0,0,0,0,0,0,0,0,0,0,0,0,0,0,0,0,0,0,0,0,0,0,0,0,0,0,0,0,0,0,0,0,0,0,0,0,0,0,0,0,0,0,0,0,0,0,0,0,0,0,0,0,0,0,0,0,0,0,0,0,0,0,0,0,0,0,0,0,0,0,0,0,0,0,0,0,0,0,
0,0,0,0,0,0,0,0,0,0,0,0,0,0,0,0,0,0,0,0,0,0,0,0,0,0,0,0,0,0,0,0,0,0,0,0,0,0,0,0,0,0,0,0,0,0,0,0,0,0,0,0,0,0,0,0,0,0,0,0,0,0,0,0,0,0,0,0,0,0,0,0,0,0,0,0,0,0,0,0,0,0,0,0,0,0,0,0,0,0,0,0,0,0,0,0,0,0,0,0,
0,0,0,0,0,0,0,0,0,0,0,0,0,0,0,0,0,0,0,0,0,0,0,0,0,0,0,0,0,0,0,0,0,0,0,0,0,0,0,0,0,0,0,0,0,0,0,0,0,0,0,0,0,0,0,0,0,0,0,0,0,0,0,0,0,0,0,0,0,0,0,0,0,0,0,0,0,0,0,0,0,0,0,0,0,0,0,0,0,0,0,0,0,0,0,0,0,0,0,0,
0,0,0,0,0,0,0,0,0,0,0,0,0,0,0,0,0,0,0,0,0,0,0,0,0,0,0,0,0,0,0,0,0,0,0,0,0,0,0,0,0,0,0,0,0,0,0,0,0,0,0,0,0,0,0,0,0,0,0,0,0,0,0,0,0,0,0,0,0,0,0,0,0,0,0,0,0,0,0,0,0,0,0,0,0,0,0,0,0,0,0,0,0,0,0,0,0,0,0,0,
0,0,0,0,0,0,0,0,0,0,0,0,0,0,0,0,0,0,0,0,0,0,0,0,0,0,0,0,0,0,0,0,0,0,0,0,0,0,0,0,0,0,0,0,0,0,0,0,0,0,0,0,0,0,0,0,0,0,0,0,0,0,0,0,0,0,0,0,0,0,0,0,0,0,0,0,0,0,0,0,0,0,0,0,0,0,0,0,0,0,0,0,0,0,0,0,0,0,0,0,
0,0,0,0,0,0,0,0,0,0,0,0,0,0,0,0,0,0,0,0,0,0,0,0,0,0,0,0,0,0,0,0,0,0,0,0,0,0,0,0,0,0,0,0,0,0,0,0,0,0,0,0,0,0,0,0,0,0,0,0,0,0,0,0,0,0,0,0,0,0,0,0,0,0,0,0,0,0,0,0,0,0,0,0,0,0,0,0,0,0,0,0,0,0,0,0,0,0,0,0,
0,0,0,0,0,0,0,0,0,0,0,0,0,0,0,0,0,0,0,0,0,0,0,0,0,0,0,0,0,0,0,0,0,0,0,0,0,0,0,0,0,0,0,0,0,0,0,0,0,0,0,0,0,0,0,0,0,0,0,0,0,0,0,0,0,0,0,0,0,0,0,0,0,0,0,0,0,0,0,0,0,0,0,0,0,0,0,0,0,0,0,0,0,0,0,0,0,0,0,0,
0,0,0,0,0,0,0,0,0,0,0,0,0,0,0,0,0,0,0,0,0,0,0,0,0,0,0,0,0,0,0,0,0,0,0,0,0,0,0,0,0,0,0,0,0,0,0,0,0,0,0,0,0,0,0,0,0,0,0,0,0,0,0,0,0,0,0,0,0,0,0,0,0,0,0,0,0,0,0,0,0,0,0,0,0,0,0,0,0,0,0,0,0,0,0,0,0,0,0,0,
0,0,0,0,0,0,0,0,0,0,0,0,0,0,0,0,0,0,0,0,0,0,0,0,0,0,0,0,0,0,0,0,0,0,0,0,0,0,0,0,0,0,0,0,0,0,0,0,0,0,0,0,0,0,0,0,0,0,0,0,0,0,0,0,0,0,0,0,0,0,0,0,0,0,0,0,0,0,0,0,0,0,0,0,0,0,0,0,0,0,0,0,0,0,0,0,0,0,0,0,
0,0,0,0,0,0,0,0,0,0,0,0,0,0,0,0,0,0,0,0,0,0,0,0,0,0,0,0,0,0,0,0,0,0,0,0,0,0,0,0,0,0,0,0,0,0,0,0,0,0,0,0,0,0,0,0,0,0,0,0,0,0,0,0,0,0,0,0,0,0,0,0,0,0,0,0,0,0,0,0,0,0,0,0,0,0,0,0,0,0,0,0,0,0,0,0,0,0,0,0,
0,0,0,0,0,0,0,0,0,0,0,0,0,0,0,0,0,0,0,0,0,0,0,0,0,0,0,0,0,0,0,0,0,0,0,0,0,0,0,0,0,0,0,0,0,0,0,0,0,0,0,0,0,0,0,0,0,0,0,0,0,0,0,0,0,0,0,0,0,0,0,0,0,0,0,0,0,0,0,0,0,0,0,0,0,0,0,0,0,0,0,0,0,0,0,0,0,0,0,0,
0,0,0,0,0,0,0,0,0,0,0,0,0,0,0,0,0,0,0,0,0,0,0,0,0,0,0,0,0,0,0,0,0,0,0,0,0,0,0,0,0,0,0,0,0,0,0,0,0,0,0,0,0,0,0,0,0,0,0,0,0,0,0,0,0,0,0,0,0,0,0,0,0,0,0,0,0,0,0,0,0,0,0,0,0,0,0,0,0,0,0,0,0,0,0,0,0,0,0,0,
0,0,0,0,0,0,0,0,0,0,0,0,0,0,0,0,0,0,0,0,0,0,0,0,0,0,0,0,0,0,0,0,0,0,0,0,0,0,0,0,0,0,0,0,0,0,0,0,0,0,0,0,0,0,0,0,0,0,0,0,0,0,0,0,0,0,0,0,0,0,0,0,0,0,0,0,0,0,0,0,0,0,0,0,0,0,0,0,0,0,0,0,0,0,0,0,0,0,0,0,
0,0,0,0,0,0,0,0,0,0,0,0,0,0,0,0,0,0,0,0,0,0,0,0,0,0,0,0,0,0,0,0,0,0,0,0,0,0,0,0,0,0,0,0,0,0,0,0,0,0,0,0,0,0,0,0,0,0,0,0,0,0,0,0,0,0,0,0,0,0,0,0,0,0,0,0,0,0,0,0,0,0,0,0,0,0,0,0,0,0,0,0,0,0,0,0,0,0,0,0,
0,0,0,0,0,0,0,0,0,0,0,0,0,0,0,0,0,0,0,0,0,0,0,0,0,0,0,0,0,0,0,0,0,0,0,0,0,0,0,0,0,0,0,0,0,0,0,0,0,0,0,0,0,0,0,0,0,0,0,0,0,0,0,0,0,0,0,0,0,0,0,0,0,0,0,0,0,0,0,0,0,0,0,0,0,0,0,0,0,0,0,0,0,0,0,0,0,0,0,0,
0,0,0,0,0,0,0,0,0,0,0,0,0,0,0,0,0,0,0,0,0,0,0,0,0,0,0,0,0,0,0,0,0,0,0,0,0,0,0,0,0,0,0,0,0,0,0,0,0,0,0,0,0,0,0,0,0,0,0,0,0,0,0,0,0,0,0,0,0,0,0,0,0,0,0,0,0,0,0,0,0,0,0,0,0,0,0,0,0,0,0,0,0,0,0,0,0,0,0,0,
0,0,0,0,0,0,0,0,0,0,0,0,0,0,0,0,0,0,0,0,0,0,0,0,0,0,0,0,0,0,0,0,0,0,0,0,0,0,0,0,0,0,0,0,0,0,0,0,0,0,0,0,0,0,0,0,0,0,0,0,0,0,0,0,0,0,0,0,0,0,0,0,0,0,0,0,0,0,0,0,0,0,0,0,0,0,0,0,0,0,0,0,0,0,0,0,0,0,0,0,
0,0,0,0,0,0,0,0,0,0,0,0,0,0,0,0,0,0,0,0,0,0,0,0,0,0,0,0,0,0,0,0,0,0,0,0,0,0,0,0,0,0,0,0,0,0,0,0,0,0,0,0,0,0,0,0,0,0,0,0,0,0,0,0,0,0,0,0,0,0,0,0,0,0,0,0,0,0,0,0,0,0,0,0,0,0,0,0,0,0,0,0,0,0,0,0,0,0,0,0,
0,0,0,0,0,0,0,0,0,0,0,0,0,0,0,0,0,0,0,0,0,0,0,0,0,0,0,0,0,0,0,0,0,0,0,0,0,0,0,0,0,0,0,0,0,0,0,0,0,0,0,0,0,0,0,0,0,0,0,0,0,0,0,0,0,0,0,0,0,0,0,0,0,0,0,0,0,0,0,0,0,0,0,0,0,0,0,0,0,0,0,0,0,0,0,0,0,0,0,0,
0,0,0,0,0,0,0,0,0,0,0,0,0,0,0,0,0,0,0,0,0,0,0,0,0,0,0,0,0,0,0,0,0,0,0,0,0,0,0,0,0,0,0,0,0,0,0,0,0,0,0,0,0,0,0,0,0,0,0,0,0,0,0,0,0,0,0,0,0,0,0,0,0,0,0,0,0,0,0,0,0,0,0,0,0,0,0,0,0,0,0,0,0,0,0,0,0,0,0,0,
0,0,0,0,0,0,0,0,0,0,0,0,0,0,0,0,0,0,0,0,0,0,0,0,0,0,0,0,0,0,0,0,0,0,0,0,0,0,0,0,0,0,0,0,0,0,0,0,0,0,0,0,0,0,0,0,0,0,0,0,0,0,0,0,0,0,0,0,0,0,0,0,0,0,0,0,0,0,0,0,0,0,0,0,0,0,0,0,0,0,0,0,0,0,0,0,0,0,0,0,
0,0,0,0,0,0,0,0,0,0,0,0,0,0,0,0,0,0,0,0,0,0,0,0,0,0,0,0,0,0,0,0,0,0,0,0,0,0,0,0,0,0,0,0,0,0,0,0,0,0,0,0,0,0,0,0,0,0,0,0,0,0,0,0,0,0,0,0,0,0,0,0,0,0,0,0,0,0,0,0,0,0,0,0,0,0,0,0,0,0,0,0,0,0,0,0,0,0,0,0,
0,0,0,0,0,0,0,0,0,0,0,0,0,0,0,0,0,0,0,0,0,0,0,0,0,0,0,0,0,0,0,0,0,0,0,0,0,0,0,0,0,0,0,0,0,0,0,0,0,0,0,0,0,0,0,0,0,0,0,0,0,0,0,0,0,0,0,0,0,0,0,0,0,0,0,0,0,0,0,0,0,0,0,0,0,0,0,0,0,0,0,0,0,0,0,0,0,0,0,0,
0,0,0,0,0,0,0,0,0,0,0,0,0,0,0,0,0,0,0,0,0,0,0,0,0,0,0,0,0,0,0,0,0,0,0,0,0,0,0,0,0,0,0,0,0,0,0,0,0,0,0,0,0,0,0,0,0,0,0,0,0,0,0,0,0,0,0,0,0,0,0,0,0,0,0,0,0,0,0,0,0,0,0,0,0,0,0,0,0,0,0,0,0,0,0,0,0,0,0,0,
0,0,0,0,0,0,0,0,0,0,0,0,0,0,0,0,0,0,0,0,0,0,0,0,0,0,0,0,0,0,0,0,0,0,0,0,0,0,0,0,0,0,0,0,0,0,0,0,0,0,0,0,0,0,0,0,0,0,0,0,0,0,0,0,0,0,0,0,0,0,0,0,0,0,0,0,0,0,0,0,0,0,0,0,0,0,0,0,0,0,0,0,0,0,0,0,0,0,0,0,
0,0,0,0,0,0,0,0,0,0,0,0,0,0,0,0,0,0,0,0,0,0,0,0,0,0,0,0,0,0,0,0,0,0,0,0,0,0,0,0,0,0,0,0,0,0,0,0,0,0,0,0,0,0,0,0,0,0,0,0,0,0,0,0,0,0,0,0,0,0,0,0,0,0,0,0,0,0,0,0,0,0,0,0,0,0,0,0,0,0,0,0,0,0,0,0,0,0,0,0,
0,0,0,0,0,0,0,0,0,0,0,0,0,0,0,0,0,0,0,0,0,0,0,0,0,0,0,0,0,0,0,0,0,0,0,0,0,0,0,0,0,0,0,0,0,0,0,0,0,0,0,0,0,0,0,0,0,0,0,0,0,0,0,0,0,0,0,0,0,0,0,0,0,0,0,0,0,0,0,0,0,0,0,0,0,0,0,0,0,0,0,0,0,0,0,0,0,0,0,0,
0,0,0,0,0,0,0,0,0,0,0,0,0,0,0,0,0,0,0,0,0,0,0,0,0,0,0,0,0,0,0,0,0,0,0,0,0,0,0,0,0,0,0,0,0,0,0,0,0,0,0,0,0,0,0,0,0,0,0,0,0,0,0,0,0,0,0,0,0,0,0,0,0,0,0,0,0,0,0,0,0,0,0,0,0,0,0,0,0,0,0,0,0,0,0,0,0,0,0,0
</data>
 </layer>
 <layer id="7" name="no_move" width="100" height="100" visible="0">
  <data encoding="csv">
0,0,0,0,0,0,0,0,0,0,0,0,0,0,0,0,0,0,0,0,0,0,0,0,0,0,0,0,0,0,0,0,0,0,0,0,0,0,0,0,0,0,0,0,0,0,0,0,0,0,0,0,0,0,0,0,0,0,0,0,0,0,0,0,0,0,0,0,0,0,0,0,0,0,0,0,0,0,0,0,0,0,0,0,0,0,0,0,0,0,0,0,0,0,0,0,0,0,0,0,
0,0,0,0,0,0,0,0,0,0,0,0,0,0,0,0,0,0,0,0,0,0,0,0,0,0,0,0,0,0,0,0,0,0,0,0,0,0,0,0,0,0,0,0,0,0,0,0,0,0,0,0,0,0,0,0,0,0,0,0,0,0,0,0,0,0,0,0,0,0,0,0,0,0,0,0,0,0,0,0,0,0,0,0,0,0,0,0,0,0,0,0,0,0,0,0,0,0,0,0,
0,0,0,0,0,0,0,0,0,0,0,0,0,0,0,0,0,0,0,0,0,0,0,0,0,0,0,0,0,0,0,0,0,0,0,0,0,0,0,0,0,0,0,0,0,0,0,0,0,0,0,0,0,0,0,0,0,0,0,0,0,0,0,0,0,0,0,0,0,0,0,0,0,0,0,0,0,0,0,0,0,0,0,0,0,0,0,0,0,0,0,0,0,0,0,0,0,0,0,0,
0,0,0,0,0,0,0,0,0,0,0,0,0,0,0,0,0,0,0,0,0,0,0,0,0,0,0,0,0,0,0,0,0,0,0,0,0,0,0,0,0,0,0,0,0,0,0,0,0,0,0,0,0,0,0,0,0,0,0,0,0,0,0,0,0,0,0,0,0,0,0,0,0,0,0,0,0,0,0,0,0,0,0,0,0,0,0,0,0,0,0,0,0,0,0,0,0,0,0,0,
0,0,0,0,0,0,0,0,0,0,0,0,0,0,0,0,0,0,0,0,0,0,0,0,0,0,0,0,0,0,0,0,0,0,0,0,0,0,0,0,0,0,0,0,0,0,0,0,0,0,0,0,0,0,0,0,0,0,0,0,0,0,0,0,0,0,0,0,0,0,0,0,0,0,0,0,0,0,0,0,0,0,0,0,0,0,0,0,0,0,0,0,0,0,0,0,0,0,0,0,
0,0,0,0,0,0,0,0,0,0,0,0,0,0,0,0,0,0,0,0,0,0,0,0,0,0,0,0,0,0,0,0,0,0,0,0,0,0,0,0,0,0,0,0,0,0,0,0,0,0,0,0,0,0,0,0,0,0,0,0,0,0,0,0,0,0,0,0,0,0,0,0,0,0,0,0,0,0,0,0,0,0,0,0,0,0,0,0,0,0,0,0,0,0,0,0,0,0,0,0,
0,0,0,0,0,0,0,0,0,0,0,0,0,0,0,0,0,0,0,0,0,0,0,0,0,0,0,0,0,0,0,0,0,0,0,0,0,0,0,0,0,0,0,0,0,0,0,0,0,0,0,0,0,0,0,0,0,0,0,0,0,0,0,0,0,0,0,0,0,0,0,0,0,0,0,0,0,0,0,0,0,0,0,0,0,0,0,0,0,0,0,0,0,0,0,0,0,0,0,0,
0,0,0,0,0,0,0,0,0,0,0,0,0,0,0,0,0,0,0,0,0,0,0,0,0,0,0,0,0,0,0,0,0,0,0,0,0,0,0,0,0,0,0,0,0,0,0,0,0,0,0,0,0,0,0,0,0,0,0,0,0,0,0,0,0,0,0,0,0,0,0,0,0,0,0,0,0,0,0,0,0,0,0,0,0,0,0,0,0,0,0,0,0,0,0,0,0,0,0,0,
0,0,0,0,0,0,0,0,0,0,0,0,0,0,0,0,0,0,0,0,0,0,0,0,0,0,0,0,0,0,0,0,0,0,0,0,0,0,0,0,0,0,0,0,0,0,0,0,0,0,0,0,0,0,0,0,0,0,0,0,0,0,0,0,0,0,0,0,0,0,0,0,0,0,0,0,0,0,0,0,0,0,0,0,0,0,0,0,0,0,0,0,0,0,0,0,0,0,0,0,
0,0,0,0,0,0,0,0,0,0,0,0,0,0,0,0,0,0,0,0,0,0,0,0,0,0,0,0,0,0,0,0,0,0,0,0,0,0,0,0,0,0,0,0,0,0,0,0,0,0,0,0,0,0,0,0,0,0,0,0,0,0,0,0,0,0,0,0,0,0,0,0,0,0,0,0,0,0,0,0,0,0,0,0,0,0,0,0,0,0,0,0,0,0,0,0,0,0,0,0,
0,0,0,0,0,0,0,0,0,0,0,0,0,0,0,0,0,0,0,0,0,0,0,0,0,0,0,0,0,0,0,0,0,0,0,0,0,0,0,0,0,0,0,0,0,0,0,0,0,0,0,0,0,0,0,0,0,0,0,0,0,0,0,0,0,0,0,0,0,0,0,0,0,0,0,0,0,0,0,0,0,0,0,0,0,0,0,0,0,0,0,0,0,0,0,0,0,0,0,0,
0,0,0,0,0,0,0,0,0,0,0,0,0,0,0,0,0,0,0,0,0,0,0,0,0,0,0,0,0,0,0,0,0,0,0,0,0,0,0,0,0,0,0,0,0,0,0,0,0,0,0,0,0,0,0,0,0,0,0,0,0,0,0,0,0,0,0,0,0,0,0,0,0,0,0,0,0,0,0,0,0,0,0,0,0,0,0,0,0,0,0,0,0,0,0,0,0,0,0,0,
0,0,0,0,0,0,0,0,0,0,0,0,0,0,0,0,0,0,0,0,0,0,0,0,0,0,0,0,0,0,0,0,0,0,0,0,0,0,0,0,0,0,0,0,0,0,0,0,0,0,0,0,0,0,0,0,0,0,0,0,0,0,0,0,0,0,0,0,0,0,0,0,0,0,0,0,0,0,0,0,0,0,0,0,0,0,0,0,0,0,0,0,0,0,0,0,0,0,0,0,
0,0,0,0,0,0,0,0,0,0,0,0,0,0,0,0,0,0,0,0,0,0,0,0,0,0,0,0,0,0,0,0,0,0,0,0,0,0,0,0,0,0,0,0,0,0,0,0,0,0,0,0,0,0,0,0,0,0,0,0,0,0,0,0,0,0,0,0,0,0,0,0,0,0,0,0,0,0,0,0,0,0,0,0,0,0,0,0,0,0,0,0,0,0,0,0,0,0,0,0,
0,0,0,0,0,0,0,0,0,0,0,0,0,0,0,0,0,0,0,0,0,0,0,0,0,0,0,0,0,0,0,0,0,0,0,0,0,0,0,0,0,0,0,0,0,0,0,0,0,0,0,0,0,0,0,0,0,0,0,0,0,0,0,0,0,0,0,0,0,0,0,0,0,0,0,0,0,0,0,0,0,0,0,0,0,0,0,0,0,0,0,0,0,0,0,0,0,0,0,0,
0,0,0,0,0,0,0,0,0,0,0,0,0,0,0,0,0,0,0,0,0,0,0,0,0,0,0,0,0,0,0,0,0,0,0,0,0,0,0,0,0,0,0,0,0,0,0,0,0,0,0,0,0,0,0,0,0,0,0,0,0,0,0,0,0,0,0,0,0,0,0,0,0,0,0,0,0,0,0,0,0,0,0,0,0,0,0,0,0,0,0,0,0,0,0,0,0,0,0,0,
0,0,0,0,0,0,0,0,0,0,0,0,0,0,0,0,0,0,0,0,0,0,0,0,0,0,0,0,0,0,0,0,0,0,0,0,0,0,0,0,0,0,0,0,0,0,0,0,0,0,0,0,0,0,0,0,0,0,0,0,0,0,0,0,0,0,0,0,0,0,0,0,0,0,0,0,0,0,0,0,0,0,0,0,0,0,0,0,0,0,0,0,0,0,0,0,0,0,0,0,
0,0,0,0,0,0,0,0,0,0,0,0,0,0,0,0,0,0,0,0,0,0,0,0,0,0,0,0,0,0,0,0,0,0,0,0,0,0,0,0,0,0,0,0,0,0,0,0,0,0,0,0,0,0,0,0,0,0,0,0,0,0,0,0,0,0,0,0,0,0,0,0,0,0,0,0,0,0,0,0,0,0,0,0,0,0,0,0,0,0,0,0,0,0,0,0,0,0,0,0,
0,0,0,0,0,0,0,0,0,0,0,0,0,0,0,0,0,0,0,0,0,0,0,0,0,0,0,0,0,0,0,0,0,0,0,0,0,0,0,0,0,0,0,0,0,0,0,0,0,0,0,0,0,0,0,0,0,0,0,0,0,0,0,0,0,0,0,0,0,0,0,0,0,0,0,0,0,0,0,0,0,0,0,0,0,0,0,0,0,0,0,0,0,0,0,0,0,0,0,0,
0,0,0,0,0,0,0,0,0,0,0,0,0,0,0,0,0,0,0,0,0,0,0,0,0,0,0,0,0,0,0,0,0,0,0,0,0,0,0,0,0,0,0,0,0,0,0,0,0,0,0,0,0,0,0,0,0,0,0,0,0,0,0,0,0,0,0,0,0,0,0,0,0,0,0,0,0,0,0,0,0,0,0,0,0,0,0,0,0,0,0,0,0,0,0,0,0,0,0,0,
0,0,0,0,0,0,0,0,0,0,0,0,0,0,0,0,0,0,0,0,0,0,0,0,0,0,0,0,0,0,0,0,0,0,0,0,0,0,0,0,0,0,0,0,0,0,0,0,0,0,0,0,0,0,0,0,0,0,0,0,0,0,0,0,0,0,0,0,0,0,0,0,0,0,0,0,0,0,0,0,0,0,0,0,0,0,0,0,0,0,0,0,0,0,0,0,0,0,0,0,
0,0,0,0,0,0,0,0,0,0,0,0,0,0,0,0,0,0,0,0,0,0,0,0,0,0,0,0,0,0,0,0,0,0,0,0,0,0,0,0,0,0,0,0,0,0,0,0,0,0,0,0,0,0,0,0,0,0,0,0,0,0,0,0,0,0,0,0,0,0,0,0,0,0,0,0,0,0,0,0,0,0,0,0,0,0,0,0,0,0,0,0,0,0,0,0,0,0,0,0,
0,0,0,0,0,0,0,0,0,0,0,0,0,0,0,0,0,0,0,0,0,0,0,0,0,0,0,0,0,0,0,0,0,0,0,0,0,0,0,0,0,0,0,0,0,0,0,0,0,0,0,0,0,0,0,0,0,0,0,0,0,0,0,0,0,0,0,0,0,0,0,0,0,0,0,0,0,0,0,0,0,0,0,0,0,0,0,0,0,0,0,0,0,0,0,0,0,0,0,0,
0,0,0,0,0,0,0,0,0,0,0,0,0,0,0,0,0,0,0,0,0,0,0,0,0,0,0,0,0,0,0,0,0,0,0,0,0,0,0,0,0,0,0,0,0,0,0,0,0,0,0,0,0,0,0,0,0,0,0,0,0,0,0,0,0,0,0,0,0,0,0,0,0,0,0,0,0,0,0,0,0,0,0,0,0,0,0,0,0,0,0,0,0,0,0,0,0,0,0,0,
0,0,0,0,0,0,0,0,0,0,0,0,0,0,0,0,0,0,0,0,0,0,0,0,0,0,0,0,0,0,0,0,0,0,0,0,0,0,0,0,0,0,0,0,0,0,0,0,0,0,0,0,0,0,0,0,0,0,0,0,0,0,0,0,0,0,0,0,0,0,0,0,0,0,0,0,0,0,0,0,0,0,0,0,0,0,0,0,0,0,0,0,0,0,0,0,0,0,0,0,
0,0,0,0,0,0,0,0,0,0,0,0,0,0,0,0,0,0,0,0,0,0,0,0,0,0,0,0,0,0,0,0,0,0,0,0,0,0,0,0,0,0,0,0,0,0,0,0,0,0,0,0,0,0,0,0,0,0,0,0,0,0,0,0,0,0,0,0,0,0,0,0,0,0,0,0,0,0,0,0,0,0,0,0,0,0,0,0,0,0,0,0,0,0,0,0,0,0,0,0,
0,0,0,0,0,0,0,0,0,0,0,0,0,0,0,0,0,0,0,0,0,0,0,0,0,0,0,0,0,0,0,0,0,0,0,0,0,0,0,0,0,0,0,0,0,0,0,0,0,0,0,0,0,0,0,0,0,0,0,0,0,0,0,0,0,0,0,0,0,0,0,0,0,0,0,0,0,0,0,0,0,0,0,0,0,0,0,0,0,0,0,0,0,0,0,0,0,0,0,0,
0,0,0,0,0,0,0,0,0,0,0,0,0,0,0,0,0,0,0,0,0,0,0,0,0,0,0,0,0,0,0,0,0,0,0,0,0,0,0,0,0,0,0,0,0,0,0,0,0,0,0,0,0,0,0,0,0,0,0,0,0,0,0,0,0,0,0,0,0,0,0,0,0,0,0,0,0,0,0,0,0,0,0,0,0,0,0,0,0,0,0,0,0,0,0,0,0,0,0,0,
0,0,0,0,0,0,0,0,0,0,0,0,0,0,0,0,0,0,0,0,0,0,0,0,0,0,0,0,0,0,0,0,0,0,0,0,0,0,0,0,0,0,0,0,0,0,0,0,0,0,0,0,0,0,0,0,0,0,0,0,0,0,0,0,0,0,0,0,0,0,0,0,0,0,0,0,0,0,0,0,0,0,0,0,0,0,0,0,0,0,0,0,0,0,0,0,0,0,0,0,
0,0,0,0,0,0,0,0,0,0,0,0,0,0,0,0,0,0,0,0,0,0,0,0,0,0,0,0,0,0,0,0,0,0,0,0,0,0,0,0,0,0,0,0,0,0,0,0,0,0,0,0,0,0,0,0,0,0,0,0,0,0,0,0,0,0,0,0,0,0,0,0,0,0,0,0,0,0,0,0,0,0,0,0,0,0,0,0,0,0,0,0,0,0,0,0,0,0,0,0,
0,0,0,0,0,0,0,0,0,0,0,0,0,0,0,0,0,0,0,0,0,0,0,0,0,0,0,0,0,0,0,0,0,0,0,0,0,0,0,0,0,0,0,0,0,0,0,0,0,0,0,0,0,0,0,0,0,0,0,0,0,0,0,0,0,0,0,0,0,0,0,0,0,0,0,0,0,0,0,0,0,0,0,0,0,0,0,0,0,0,0,0,0,0,0,0,0,0,0,0,
0,0,0,0,0,0,0,0,0,0,0,0,0,0,0,0,0,0,0,0,0,0,0,0,0,0,0,0,0,0,0,0,0,0,0,0,0,0,0,0,0,0,0,0,0,0,0,0,0,0,0,0,0,0,0,0,0,0,0,0,0,0,0,0,0,0,0,0,0,0,0,0,0,0,0,0,0,0,0,0,0,0,0,0,0,0,0,0,0,0,0,0,0,0,0,0,0,0,0,0,
0,0,0,0,0,0,0,0,0,0,0,0,0,0,0,0,0,0,0,0,0,0,0,0,0,0,0,0,0,0,0,0,0,0,0,0,0,0,0,0,0,0,0,0,0,0,0,0,0,0,0,0,0,0,0,0,0,0,0,0,0,0,0,0,0,0,0,0,0,0,0,0,0,0,0,0,0,0,0,0,0,0,0,0,0,0,0,0,0,0,0,0,0,0,0,0,0,0,0,0,
0,0,0,0,0,0,0,0,0,0,0,0,0,0,0,0,0,0,0,0,0,0,0,0,0,0,0,0,0,0,0,0,0,0,0,0,0,0,0,0,0,0,0,0,0,0,0,0,0,0,0,0,0,0,0,0,0,0,0,0,0,0,0,0,0,0,0,0,0,0,0,0,0,0,0,0,0,0,0,0,0,0,0,0,0,0,0,0,0,0,0,0,0,0,0,0,0,0,0,0,
0,0,0,0,0,0,0,0,0,0,0,0,0,0,0,0,0,0,0,0,0,0,0,0,0,0,0,0,0,0,0,0,0,0,0,0,0,0,0,0,0,0,0,0,0,0,0,0,0,0,0,0,0,0,0,0,0,0,0,0,0,0,0,0,0,0,0,0,0,0,0,0,0,0,0,0,0,0,0,0,0,0,0,0,0,0,0,0,0,0,0,0,0,0,0,0,0,0,0,0,
0,0,0,0,0,0,0,0,0,0,0,0,0,0,0,0,0,0,0,0,0,0,0,0,0,0,0,0,0,0,0,0,0,0,0,0,0,0,0,0,0,0,0,0,0,0,0,0,0,0,0,0,0,0,0,0,0,0,0,0,0,0,0,0,0,0,0,0,0,0,0,0,0,0,0,0,0,0,0,0,0,0,0,0,0,0,0,0,0,0,0,0,0,0,0,0,0,0,0,0,
0,0,0,0,0,0,0,0,0,0,0,0,0,0,0,0,0,0,0,0,0,0,0,0,0,0,0,0,0,0,0,0,0,0,0,0,0,0,0,0,0,0,0,0,0,0,0,0,0,0,0,0,0,0,0,0,0,0,0,0,0,0,0,0,0,0,0,0,0,0,0,0,0,0,0,0,0,0,0,0,0,0,0,0,0,0,0,0,0,0,0,0,0,0,0,0,0,0,0,0,
0,0,0,0,0,0,0,0,0,0,0,0,0,0,0,0,0,0,0,0,0,0,0,0,0,0,0,0,0,0,0,0,0,0,0,0,0,0,0,0,0,0,0,0,0,0,0,0,0,0,0,0,0,0,0,0,0,0,0,0,0,0,0,0,0,0,0,0,0,0,0,0,0,0,0,0,0,0,0,0,0,0,0,0,0,0,0,0,0,0,0,0,0,0,0,0,0,0,0,0,
0,0,0,0,0,0,0,0,0,0,0,0,0,0,0,0,0,0,0,0,0,0,0,0,0,0,0,0,0,0,0,0,0,0,0,0,0,0,0,0,0,0,0,0,0,0,0,0,0,0,0,0,0,0,0,0,0,0,0,0,0,0,0,0,0,0,0,0,0,0,0,0,0,0,0,0,0,0,0,0,0,0,0,0,0,0,0,0,0,0,0,0,0,0,0,0,0,0,0,0,
0,0,0,0,0,0,0,0,0,0,0,0,0,0,0,0,0,0,0,0,0,0,0,0,0,0,0,0,0,0,0,0,0,0,0,0,0,0,0,0,0,0,0,0,0,0,0,0,0,0,0,0,0,0,0,0,0,0,0,0,0,0,0,0,0,0,0,0,0,0,0,0,0,0,0,0,0,0,0,0,0,0,0,0,0,0,0,0,0,0,0,0,0,0,0,0,0,0,0,0,
0,0,0,0,0,0,0,0,0,0,0,0,0,0,0,0,0,0,0,0,0,0,0,0,0,0,0,0,0,0,0,0,0,0,0,0,0,0,0,0,0,0,0,0,0,0,0,0,0,0,0,0,0,0,0,0,0,0,0,0,0,0,0,0,0,0,0,0,0,0,0,0,0,0,0,0,0,0,0,0,0,0,0,0,0,0,0,0,0,0,0,0,0,0,0,0,0,0,0,0,
0,0,0,0,0,0,0,0,0,0,0,0,0,0,0,0,0,0,0,0,0,0,0,0,0,0,0,0,0,0,0,0,0,0,0,0,0,0,0,0,0,0,0,0,0,0,0,0,0,0,0,0,0,0,0,0,0,0,0,0,0,0,0,0,0,0,0,0,0,0,0,0,0,0,0,0,0,0,0,0,0,0,0,0,0,0,0,0,0,0,0,0,0,0,0,0,0,0,0,0,
0,0,0,0,0,0,0,0,0,0,0,0,0,0,0,0,0,0,0,0,0,0,0,0,0,0,0,0,0,0,0,0,0,0,0,0,0,0,0,0,0,0,0,0,0,0,0,0,0,0,0,0,0,0,0,0,0,0,0,0,0,0,0,0,0,0,0,0,0,0,0,0,0,0,0,0,0,0,0,0,0,0,0,0,0,0,0,0,0,0,0,0,0,0,0,0,0,0,0,0,
0,0,0,0,0,0,0,0,0,0,0,0,0,0,0,0,0,0,0,0,0,0,0,0,0,0,0,0,0,0,0,0,0,0,0,0,0,0,0,0,0,0,0,0,0,0,0,0,0,0,0,0,0,0,0,0,0,0,0,0,0,0,0,0,0,0,0,0,0,0,0,0,0,0,0,0,0,0,0,0,0,0,0,0,0,0,0,0,0,0,0,0,0,0,0,0,0,0,0,0,
0,0,0,0,0,0,0,0,0,0,0,0,0,0,0,0,0,0,0,0,0,0,0,0,0,0,0,0,0,0,0,0,0,0,0,0,0,0,0,0,0,0,0,0,0,0,0,0,0,0,0,0,0,0,0,0,0,0,0,0,0,0,0,0,0,0,0,0,0,0,0,0,0,0,0,0,0,0,0,0,0,0,0,0,0,0,0,0,0,0,0,0,0,0,0,0,0,0,0,0,
0,0,0,0,0,0,0,0,0,0,0,0,0,0,0,0,0,0,0,0,0,0,0,0,0,0,0,0,0,0,0,0,0,0,0,0,0,0,0,0,0,0,0,0,0,0,0,0,0,0,0,0,0,0,0,0,0,0,0,0,0,0,0,0,0,0,0,0,0,0,0,0,0,0,0,0,0,0,0,0,0,0,0,0,0,0,0,0,0,0,0,0,0,0,0,0,0,0,0,0,
0,0,0,0,0,0,0,0,0,0,0,0,0,0,0,0,0,0,0,0,0,0,0,0,0,0,0,0,0,0,0,0,0,0,0,0,0,0,0,0,0,0,0,0,0,0,0,0,0,0,0,0,0,0,0,0,0,0,0,0,0,0,0,0,0,0,0,0,0,0,0,0,0,0,0,0,0,0,0,0,0,0,0,0,0,0,0,0,0,0,0,0,0,0,0,0,0,0,0,0,
0,0,0,0,0,0,0,0,0,0,0,0,0,0,0,0,0,0,0,0,0,0,0,0,0,0,0,0,0,0,0,0,0,0,0,0,0,0,0,0,0,0,0,0,0,0,0,0,0,0,0,0,0,0,0,0,0,0,0,0,0,0,0,0,0,0,0,0,0,0,0,0,0,0,0,0,0,0,0,0,0,0,0,0,0,0,0,0,0,0,0,0,0,0,0,0,0,0,0,0,
0,0,0,0,0,0,0,0,0,0,0,0,0,0,0,0,0,0,0,0,0,0,0,0,0,0,0,0,0,0,0,0,0,0,0,0,0,0,0,0,0,0,0,0,0,0,0,0,0,0,0,0,0,0,0,0,0,0,0,0,0,0,0,0,0,0,0,0,0,0,0,0,0,0,0,0,0,0,0,0,0,0,0,0,0,0,0,0,0,0,0,0,0,0,0,0,0,0,0,0,
0,0,0,0,0,0,0,0,0,0,0,0,0,0,0,0,0,0,0,0,0,0,0,0,0,0,0,0,0,0,0,0,0,0,0,0,0,0,0,0,0,0,0,0,0,0,0,0,0,0,0,0,0,0,0,0,0,0,0,0,0,0,0,0,0,0,0,0,0,0,0,0,0,0,0,0,0,0,0,0,0,0,0,0,0,0,0,0,0,0,0,0,0,0,0,0,0,0,0,0,
0,0,0,0,0,0,0,0,0,0,0,0,0,0,0,0,0,0,0,0,0,0,0,0,0,0,0,0,0,0,0,0,0,0,0,0,0,0,0,0,0,0,0,0,0,0,0,0,0,0,0,0,0,0,0,0,0,0,0,0,0,0,0,0,0,0,0,0,0,0,0,0,0,0,0,0,0,0,0,0,0,0,0,0,0,0,0,0,0,0,0,0,0,0,0,0,0,0,0,0,
0,0,0,0,0,0,0,0,0,0,0,0,0,0,0,0,0,0,0,0,0,0,0,0,0,0,0,0,0,0,0,0,0,0,0,0,0,0,0,0,0,0,0,0,0,0,0,0,0,0,0,0,0,0,0,0,0,0,0,0,0,0,0,0,0,0,0,0,0,0,0,0,0,0,0,0,0,0,0,0,0,0,0,0,0,0,0,0,0,0,0,0,0,0,0,0,0,0,0,0,
0,0,0,0,0,0,0,0,0,0,0,0,0,0,0,0,0,0,0,0,0,0,0,0,0,0,0,0,0,0,0,0,0,0,0,0,0,0,0,0,0,0,0,0,0,0,0,0,0,0,0,0,0,0,0,0,0,0,0,0,0,0,0,0,0,0,0,0,0,0,0,0,0,0,0,0,0,0,0,0,0,0,0,0,0,0,0,0,0,0,0,0,0,0,0,0,0,0,0,0,
0,0,0,0,0,0,0,0,0,0,0,0,0,0,0,0,0,0,0,0,0,0,0,0,0,0,0,0,0,0,0,0,0,0,0,0,0,0,0,0,0,0,0,0,0,0,0,0,0,0,0,0,0,0,0,0,0,0,0,0,0,0,0,0,0,0,0,0,0,0,0,0,0,0,0,0,0,0,0,0,0,0,0,0,0,0,0,0,0,0,0,0,0,0,0,0,0,0,0,0,
0,0,0,0,0,0,0,0,0,0,0,0,0,0,0,0,0,0,0,0,0,0,0,0,0,0,0,0,0,0,0,0,0,0,0,0,0,0,0,0,0,0,0,0,0,0,0,0,0,0,0,0,0,0,0,0,0,0,0,0,0,0,0,0,0,0,0,0,0,0,0,0,0,0,0,0,0,0,0,0,0,0,0,0,0,0,0,0,0,0,0,0,0,0,0,0,0,0,0,0,
0,0,0,0,0,0,0,0,0,0,0,0,0,0,0,0,0,0,0,0,0,0,0,0,0,0,0,0,0,0,0,0,0,0,0,0,0,0,0,0,0,0,0,0,0,0,0,0,0,0,0,0,0,0,0,0,0,0,0,0,0,0,0,0,0,0,0,0,0,0,0,0,0,0,0,0,0,0,0,0,0,0,0,0,0,0,0,0,0,0,0,0,0,0,0,0,0,0,0,0,
0,0,0,0,0,0,0,0,0,0,1633,1633,1633,1633,1633,1633,0,0,0,0,0,0,0,0,0,0,0,0,0,0,0,0,0,0,0,0,0,0,0,0,0,0,0,0,0,0,0,0,0,0,0,0,0,0,0,0,0,0,0,0,0,0,0,0,0,0,0,0,0,0,0,0,0,0,0,0,0,0,0,0,0,0,0,0,0,0,0,0,0,0,0,0,0,0,0,0,0,0,0,0,
0,0,0,0,0,0,0,0,0,0,1633,1633,1633,1633,1633,1633,0,0,0,0,0,0,0,0,0,0,0,0,0,0,0,0,0,0,0,0,0,0,0,0,0,0,0,0,0,0,0,0,0,0,0,0,0,0,0,0,0,0,0,0,0,0,0,0,0,0,0,0,0,0,0,0,0,0,0,0,0,0,0,0,0,0,0,0,0,0,0,0,0,0,0,0,0,0,0,0,0,0,0,0,
0,0,0,0,0,0,0,0,0,0,1633,1633,1633,1633,1633,1633,0,0,0,0,0,0,0,0,0,0,0,0,0,0,0,0,0,0,0,0,0,0,0,0,0,0,0,0,0,0,0,0,0,0,0,0,0,0,0,0,0,0,0,0,0,0,0,0,0,0,0,0,0,0,0,0,0,0,0,0,0,0,0,0,0,0,0,0,0,0,0,0,0,0,0,0,0,0,0,0,0,0,0,0,
0,0,0,0,0,0,0,0,0,0,1633,1633,1633,1633,1633,1633,0,0,0,0,0,0,0,0,0,0,0,0,0,0,0,0,0,0,0,0,0,0,0,0,0,0,0,0,0,0,0,0,0,0,0,0,0,0,0,0,0,0,0,0,0,0,0,0,0,0,0,0,0,0,0,0,0,0,0,0,0,0,0,0,0,0,0,0,0,0,0,0,0,0,0,0,0,0,0,0,0,0,0,0,
0,0,0,0,0,0,0,0,0,0,1633,1633,1633,1633,1633,1633,0,0,0,0,0,0,0,0,0,0,0,0,0,0,0,0,0,0,0,0,0,0,0,0,0,0,0,0,0,0,0,0,0,0,0,0,0,0,0,0,0,0,0,0,0,0,0,0,0,0,0,0,0,0,0,0,0,0,0,0,0,0,0,0,0,0,0,0,0,0,0,0,0,0,0,0,0,0,0,0,0,0,0,0,
0,0,0,0,0,0,0,0,0,0,1633,1633,1633,1633,1633,1633,0,0,0,0,0,0,0,0,0,0,0,0,0,0,0,0,0,0,0,0,0,0,0,0,0,0,0,0,0,0,0,0,0,0,0,0,0,0,0,0,0,0,0,0,0,0,0,0,0,0,0,0,0,0,0,0,0,0,0,0,0,0,0,0,0,0,0,0,0,0,0,0,0,0,0,0,0,0,0,0,0,0,0,0,
0,0,0,0,0,0,0,0,0,0,0,0,0,0,0,0,0,0,0,0,0,0,0,0,0,0,0,0,0,0,0,0,0,0,0,0,0,0,0,0,0,0,0,0,0,0,0,0,0,0,0,0,0,0,0,0,0,0,0,0,0,0,0,0,0,0,0,0,0,0,0,0,0,0,0,0,0,0,0,0,0,0,0,0,0,0,0,0,0,0,0,0,0,0,0,0,0,0,0,0,
0,0,0,0,0,0,0,0,0,0,0,0,0,0,0,0,0,0,0,0,0,0,0,0,0,0,0,0,0,0,0,0,0,0,0,0,0,0,0,0,0,0,0,0,0,0,0,0,0,0,0,0,0,0,0,0,0,0,0,0,0,0,0,0,0,0,0,0,0,0,0,0,0,0,0,0,0,0,0,0,0,0,0,0,0,0,0,0,0,0,0,0,0,0,0,0,0,0,0,0,
0,0,0,0,0,0,0,0,0,0,0,0,0,0,0,0,0,0,0,0,0,0,0,0,0,0,0,0,0,0,0,0,0,0,0,0,0,0,0,0,0,0,0,0,0,0,0,0,0,0,0,0,0,0,0,0,0,0,0,0,0,0,0,0,0,0,0,0,0,0,0,0,0,0,0,0,0,0,0,0,0,0,0,0,0,0,0,0,0,0,0,0,0,0,0,0,0,0,0,0,
0,0,0,0,0,0,0,0,0,0,0,0,0,0,0,0,0,0,0,0,0,0,0,0,0,0,0,0,0,0,0,0,0,0,0,0,0,0,0,0,0,0,0,0,0,0,0,0,0,0,0,0,0,0,0,0,0,0,0,0,0,0,0,0,0,0,0,0,0,0,0,0,0,0,0,0,0,0,0,0,0,0,0,0,0,0,0,0,0,0,0,0,0,0,0,0,0,0,0,0,
0,0,0,0,0,0,0,0,0,0,0,0,0,0,0,0,0,0,0,0,0,0,0,0,0,0,0,0,0,0,0,0,0,0,0,0,0,0,0,0,0,0,0,0,0,0,0,0,0,0,0,0,0,0,0,0,0,0,0,0,0,0,0,0,0,0,0,0,0,0,0,0,0,0,0,0,0,0,0,0,0,0,0,0,0,0,0,0,0,0,0,0,0,0,0,0,0,0,0,0,
0,0,0,0,0,0,0,0,0,0,0,0,0,0,0,0,0,0,0,0,0,0,0,0,0,0,0,0,0,0,0,0,0,0,0,0,0,0,0,0,0,0,0,0,0,0,0,0,0,0,0,0,0,0,0,0,0,0,0,0,0,0,0,0,0,0,0,0,0,0,0,0,0,0,0,0,0,0,0,0,0,0,0,0,0,0,0,0,0,0,0,0,0,0,0,0,0,0,0,0,
0,0,0,0,0,0,0,0,0,0,0,0,0,0,0,0,0,0,0,0,0,0,0,0,0,0,0,0,0,0,0,0,0,0,0,0,0,0,0,0,0,0,0,0,0,0,0,0,0,0,0,0,0,0,0,0,0,0,0,0,0,0,0,0,0,0,0,0,0,0,0,0,0,0,0,0,0,0,0,0,0,0,0,0,0,0,0,0,0,0,0,0,0,0,0,0,0,0,0,0,
0,0,0,0,0,0,0,0,0,0,0,0,0,0,0,0,0,0,0,0,0,0,0,0,0,0,0,0,0,0,0,0,0,0,0,0,0,0,0,0,0,0,0,0,0,0,0,0,0,0,0,0,0,0,0,0,0,0,0,0,0,0,0,0,0,0,0,0,0,0,0,0,0,0,0,0,0,0,0,0,0,0,0,0,0,0,0,0,0,0,0,0,0,0,0,0,0,0,0,0,
0,0,0,0,0,0,0,0,0,0,0,0,0,0,0,0,0,0,0,0,0,0,0,0,0,0,0,0,0,0,0,0,0,0,0,0,0,0,0,0,0,0,0,0,0,0,0,0,0,0,0,0,0,0,0,0,0,0,0,0,0,0,0,0,0,0,0,0,0,0,0,0,0,0,0,0,0,0,0,0,0,0,0,0,0,0,0,0,0,0,0,0,0,0,0,0,0,0,0,0,
0,0,0,0,0,0,0,0,0,0,0,0,0,0,0,0,0,0,0,0,0,0,0,0,0,0,0,0,0,0,0,0,0,0,0,0,0,0,0,0,0,0,0,0,0,0,0,0,0,0,0,0,0,0,0,0,0,0,0,0,0,0,0,0,0,0,0,0,0,0,0,0,0,0,0,0,0,0,0,0,0,0,0,0,0,0,0,0,0,0,0,0,0,0,0,0,0,0,0,0,
0,0,0,0,0,0,0,0,0,0,0,0,0,0,0,0,0,0,0,0,0,0,0,0,0,0,0,0,0,0,0,0,0,0,0,0,0,0,0,0,0,0,0,0,0,0,0,0,0,0,0,0,0,0,0,0,0,0,0,0,0,0,0,0,0,0,0,0,0,0,0,0,0,0,0,0,0,0,0,0,0,0,0,0,0,0,0,0,0,0,0,0,0,0,0,0,0,0,0,0,
0,0,0,0,0,0,0,0,0,0,0,0,0,0,0,0,0,0,0,0,0,0,0,0,0,0,0,0,0,0,0,0,0,0,0,0,0,0,0,0,0,0,0,0,0,0,0,0,0,0,0,0,0,0,0,0,0,0,0,0,0,0,0,0,0,0,0,0,0,0,0,0,0,0,0,0,0,0,0,0,0,0,0,0,0,0,0,0,0,0,0,0,0,0,0,0,0,0,0,0,
0,0,0,0,0,0,0,0,0,0,0,0,0,0,0,0,0,0,0,0,0,0,0,0,0,0,0,0,0,0,0,0,0,0,0,0,0,0,0,0,0,0,0,0,0,0,0,0,0,0,0,0,0,0,0,0,0,0,0,0,0,0,0,0,0,0,0,0,0,0,0,0,0,0,0,0,0,0,0,0,0,0,0,0,0,0,0,0,0,0,0,0,0,0,0,0,0,0,0,0,
0,0,0,0,0,0,0,0,0,0,0,0,0,0,0,0,0,0,0,0,0,0,0,0,0,0,0,0,0,0,0,0,0,0,0,0,0,0,0,0,0,0,0,0,0,0,0,0,0,0,0,0,0,0,0,0,0,0,0,0,0,0,0,0,0,0,0,0,0,0,0,0,0,0,0,0,0,0,0,0,0,0,0,0,0,0,0,0,0,0,0,0,0,0,0,0,0,0,0,0,
0,0,0,0,0,0,0,0,0,0,0,0,0,0,0,0,0,0,0,0,0,0,0,0,0,0,0,0,0,0,0,0,0,0,0,0,0,0,0,0,0,0,0,0,0,0,0,0,0,0,0,0,0,0,0,0,0,0,0,0,0,0,0,0,0,0,0,0,0,0,0,0,0,0,0,0,0,0,0,0,0,0,0,0,0,0,0,0,0,0,0,0,0,0,0,0,0,0,0,0,
0,0,0,0,0,0,0,0,0,0,0,0,0,0,0,0,0,0,0,0,0,0,0,0,0,0,0,0,0,0,0,0,0,0,0,0,0,0,0,0,0,0,0,0,0,0,0,0,0,0,0,0,0,0,0,0,0,0,0,0,0,0,0,0,0,0,0,0,0,0,0,0,0,0,0,0,0,0,0,0,0,0,0,0,0,0,0,0,0,0,0,0,0,0,0,0,0,0,0,0,
0,0,0,0,0,0,0,0,0,0,0,0,0,0,0,0,0,0,0,0,0,0,0,0,0,0,0,0,0,0,0,0,0,0,0,0,0,0,0,0,0,0,0,0,0,0,0,0,0,0,0,0,0,0,0,0,0,0,0,0,0,0,0,0,0,0,0,0,0,0,0,0,0,0,0,0,0,0,0,0,0,0,0,0,0,0,0,0,0,0,0,0,0,0,0,0,0,0,0,0,
0,0,0,0,0,0,0,0,0,0,0,0,0,0,0,0,0,0,0,0,0,0,0,0,0,0,0,0,0,0,0,0,0,0,0,0,0,0,0,0,0,0,0,0,0,0,0,0,0,0,0,0,0,0,0,0,0,0,0,0,0,0,0,0,0,0,0,0,0,0,0,0,0,0,0,0,0,0,0,0,0,0,0,0,0,0,0,0,0,0,0,0,0,0,0,0,0,0,0,0,
0,0,0,0,0,0,0,0,0,0,0,0,0,0,0,0,0,0,0,0,0,0,0,0,0,0,0,0,0,0,0,0,0,0,0,0,0,0,0,0,0,0,0,0,0,0,0,0,0,0,0,0,0,0,0,0,0,0,0,0,0,0,0,0,0,0,0,0,0,0,0,0,0,0,0,0,0,0,0,0,0,0,0,0,0,0,0,0,0,0,0,0,0,0,0,0,0,0,0,0,
0,0,0,0,0,0,0,0,0,0,0,0,0,0,0,0,0,0,0,0,0,0,0,0,0,0,0,0,0,0,0,0,0,0,0,0,0,0,0,0,0,0,0,0,0,0,0,0,0,0,0,0,0,0,0,0,0,0,0,0,0,0,0,0,0,0,0,0,0,0,0,0,0,0,0,0,0,0,0,0,0,0,0,0,0,0,0,0,0,0,0,0,0,0,0,0,0,0,0,0,
0,0,0,0,0,0,0,0,0,0,0,0,0,0,0,0,0,0,0,0,0,0,0,0,0,0,0,0,0,0,0,0,0,0,0,0,0,0,0,0,0,0,0,0,0,0,0,0,0,0,0,0,0,0,0,0,0,0,0,0,0,0,0,0,0,0,0,0,0,0,0,0,0,0,0,0,0,0,0,0,0,0,0,0,0,0,0,0,0,0,0,0,0,0,0,0,0,0,0,0,
0,0,0,0,0,0,0,0,0,0,0,0,0,0,0,0,0,0,0,0,0,0,0,0,0,0,0,0,0,0,0,0,0,0,0,0,0,0,0,0,0,0,0,0,0,0,0,0,0,0,0,0,0,0,0,0,0,0,0,0,0,0,0,0,0,0,0,0,0,0,0,0,0,0,0,0,0,0,0,0,0,0,0,0,0,0,0,0,0,0,0,0,0,0,0,0,0,0,0,0,
0,0,0,0,0,0,0,0,0,0,0,0,0,0,0,0,0,0,0,0,0,0,0,0,0,0,0,0,0,0,0,0,0,0,0,0,0,0,0,0,0,0,0,0,0,0,0,0,0,0,0,0,0,0,0,0,0,0,0,0,0,0,0,0,0,0,0,0,0,0,0,0,0,0,0,0,0,0,0,0,0,0,0,0,0,0,0,0,0,0,0,0,0,0,0,0,0,0,0,0,
0,0,0,0,0,0,0,0,0,0,0,0,0,0,0,0,0,0,0,0,0,0,0,0,0,0,0,0,0,0,0,0,0,0,0,0,0,0,0,0,0,0,0,0,0,0,0,0,0,0,0,0,0,0,0,0,0,0,0,0,0,0,0,0,0,0,0,0,0,0,0,0,0,0,0,0,0,0,0,0,0,0,0,0,0,0,0,0,0,0,0,0,0,0,0,0,0,0,0,0,
0,0,0,0,0,0,0,0,0,0,0,0,0,0,0,0,0,0,0,0,0,0,0,0,0,0,0,0,0,0,0,0,0,0,0,0,0,0,0,0,0,0,0,0,0,0,0,0,0,0,0,0,0,0,0,0,0,0,0,0,0,0,0,0,0,0,0,0,0,0,0,0,0,0,0,0,0,0,0,0,0,0,0,0,0,0,0,0,0,0,0,0,0,0,0,0,0,0,0,0,
0,0,0,0,0,0,0,0,0,0,0,0,0,0,0,0,0,0,0,0,0,0,0,0,0,0,0,0,0,0,0,0,0,0,0,0,0,0,0,0,0,0,0,0,0,0,0,0,0,0,0,0,0,0,0,0,0,0,0,0,0,0,0,0,0,0,0,0,0,0,0,0,0,0,0,0,0,0,0,0,0,0,0,0,0,0,0,0,0,0,0,0,0,0,0,0,0,0,0,0,
0,0,0,0,0,0,0,0,0,0,0,0,0,0,0,0,0,0,0,0,0,0,0,0,0,0,0,0,0,0,0,0,0,0,0,0,0,0,0,0,0,0,0,0,0,0,0,0,0,0,0,0,0,0,0,0,0,0,0,0,0,0,0,0,0,0,0,0,0,0,0,0,0,0,0,0,0,0,0,0,0,0,0,0,0,0,0,0,0,0,0,0,0,0,0,0,0,0,0,0,
0,0,0,0,0,0,0,0,0,0,0,0,0,0,0,0,0,0,0,0,0,0,0,0,0,0,0,0,0,0,0,0,0,0,0,0,0,0,0,0,0,0,0,0,0,0,0,0,0,0,0,0,0,0,0,0,0,0,0,0,0,0,0,0,0,0,0,0,0,0,0,0,0,0,0,0,0,0,0,0,0,0,0,0,0,0,0,0,0,0,0,0,0,0,0,0,0,0,0,0,
0,0,0,0,0,0,0,0,0,0,0,0,0,0,0,0,0,0,0,0,0,0,0,0,0,0,0,0,0,0,0,0,0,0,0,0,0,0,0,0,0,0,0,0,0,0,0,0,0,0,0,0,0,0,0,0,0,0,0,0,0,0,0,0,0,0,0,0,0,0,0,0,0,0,0,0,0,0,0,0,0,0,0,0,0,0,0,0,0,0,0,0,0,0,0,0,0,0,0,0,
0,0,0,0,0,0,0,0,0,0,0,0,0,0,0,0,0,0,0,0,0,0,0,0,0,0,0,0,0,0,0,0,0,0,0,0,0,0,0,0,0,0,0,0,0,0,0,0,0,0,0,0,0,0,0,0,0,0,0,0,0,0,0,0,0,0,0,0,0,0,0,0,0,0,0,0,0,0,0,0,0,0,0,0,0,0,0,0,0,0,0,0,0,0,0,0,0,0,0,0,
0,0,0,0,0,0,0,0,0,0,0,0,0,0,0,0,0,0,0,0,0,0,0,0,0,0,0,0,0,0,0,0,0,0,0,0,0,0,0,0,0,0,0,0,0,0,0,0,0,0,0,0,0,0,0,0,0,0,0,0,0,0,0,0,0,0,0,0,0,0,0,0,0,0,0,0,0,0,0,0,0,0,0,0,0,0,0,0,0,0,0,0,0,0,0,0,0,0,0,0,
0,0,0,0,0,0,0,0,0,0,0,0,0,0,0,0,0,0,0,0,0,0,0,0,0,0,0,0,0,0,0,0,0,0,0,0,0,0,0,0,0,0,0,0,0,0,0,0,0,0,0,0,0,0,0,0,0,0,0,0,0,0,0,0,0,0,0,0,0,0,0,0,0,0,0,0,0,0,0,0,0,0,0,0,0,0,0,0,0,0,0,0,0,0,0,0,0,0,0,0,
0,0,0,0,0,0,0,0,0,0,0,0,0,0,0,0,0,0,0,0,0,0,0,0,0,0,0,0,0,0,0,0,0,0,0,0,0,0,0,0,0,0,0,0,0,0,0,0,0,0,0,0,0,0,0,0,0,0,0,0,0,0,0,0,0,0,0,0,0,0,0,0,0,0,0,0,0,0,0,0,0,0,0,0,0,0,0,0,0,0,0,0,0,0,0,0,0,0,0,0,
0,0,0,0,0,0,0,0,0,0,0,0,0,0,0,0,0,0,0,0,0,0,0,0,0,0,0,0,0,0,0,0,0,0,0,0,0,0,0,0,0,0,0,0,0,0,0,0,0,0,0,0,0,0,0,0,0,0,0,0,0,0,0,0,0,0,0,0,0,0,0,0,0,0,0,0,0,0,0,0,0,0,0,0,0,0,0,0,0,0,0,0,0,0,0,0,0,0,0,0,
0,0,0,0,0,0,0,0,0,0,0,0,0,0,0,0,0,0,0,0,0,0,0,0,0,0,0,0,0,0,0,0,0,0,0,0,0,0,0,0,0,0,0,0,0,0,0,0,0,0,0,0,0,0,0,0,0,0,0,0,0,0,0,0,0,0,0,0,0,0,0,0,0,0,0,0,0,0,0,0,0,0,0,0,0,0,0,0,0,0,0,0,0,0,0,0,0,0,0,0,
0,0,0,0,0,0,0,0,0,0,0,0,0,0,0,0,0,0,0,0,0,0,0,0,0,0,0,0,0,0,0,0,0,0,0,0,0,0,0,0,0,0,0,0,0,0,0,0,0,0,0,0,0,0,0,0,0,0,0,0,0,0,0,0,0,0,0,0,0,0,0,0,0,0,0,0,0,0,0,0,0,0,0,0,0,0,0,0,0,0,0,0,0,0,0,0,0,0,0,0,
0,0,0,0,0,0,0,0,0,0,0,0,0,0,0,0,0,0,0,0,0,0,0,0,0,0,0,0,0,0,0,0,0,0,0,0,0,0,0,0,0,0,0,0,0,0,0,0,0,0,0,0,0,0,0,0,0,0,0,0,0,0,0,0,0,0,0,0,0,0,0,0,0,0,0,0,0,0,0,0,0,0,0,0,0,0,0,0,0,0,0,0,0,0,0,0,0,0,0,0,
0,0,0,0,0,0,0,0,0,0,0,0,0,0,0,0,0,0,0,0,0,0,0,0,0,0,0,0,0,0,0,0,0,0,0,0,0,0,0,0,0,0,0,0,0,0,0,0,0,0,0,0,0,0,0,0,0,0,0,0,0,0,0,0,0,0,0,0,0,0,0,0,0,0,0,0,0,0,0,0,0,0,0,0,0,0,0,0,0,0,0,0,0,0,0,0,0,0,0,0
</data>
 </layer>
 <layer id="8" name="no_build" width="100" height="100" visible="0">
  <data encoding="csv">
0,0,0,0,0,0,0,0,0,0,0,0,0,0,0,0,0,0,0,0,0,0,0,0,0,0,0,0,0,0,0,0,0,0,0,0,0,0,0,0,0,0,0,0,0,0,0,0,0,0,0,0,0,0,0,0,0,0,0,0,0,0,0,0,0,0,0,0,0,0,0,0,0,0,0,0,0,0,0,0,0,0,0,0,0,0,0,0,0,0,0,0,0,0,0,0,0,0,0,0,
0,0,0,0,0,0,0,0,0,0,0,0,0,0,0,0,0,0,0,0,0,0,0,0,0,0,0,0,0,0,0,0,0,0,0,0,0,0,0,0,0,0,0,0,0,0,0,0,0,0,0,0,0,0,0,0,0,0,0,0,0,0,0,0,0,0,0,0,0,0,0,0,0,0,0,0,0,0,0,0,0,0,0,0,0,0,0,0,0,0,0,0,0,0,0,0,0,0,0,0,
0,0,0,0,0,0,0,0,0,0,0,0,0,0,0,0,0,0,0,0,0,0,0,0,0,0,0,0,0,0,0,0,0,0,0,0,0,0,0,0,0,0,0,0,0,0,0,0,0,0,0,0,0,0,0,0,0,0,0,0,0,0,0,0,0,0,0,0,0,0,0,0,0,0,0,0,0,0,0,0,0,0,0,0,0,0,0,0,0,0,0,0,0,0,0,0,0,0,0,0,
0,0,0,0,0,0,0,0,0,0,0,0,0,0,0,0,0,0,0,0,0,0,0,0,0,0,0,0,0,0,0,0,0,0,0,0,0,0,0,0,0,0,0,0,0,0,0,0,0,0,0,0,0,0,0,0,0,0,0,0,0,0,0,0,0,0,0,0,0,0,0,0,0,0,0,0,0,0,0,0,0,0,0,0,0,0,0,0,0,0,0,0,0,0,0,0,0,0,0,0,
0,0,0,0,0,0,0,0,0,0,0,0,0,0,0,0,0,0,0,0,0,0,0,0,0,0,0,0,0,0,0,0,0,0,0,0,0,0,0,0,0,0,0,0,0,0,0,0,0,0,0,0,0,0,0,0,0,0,0,0,0,0,0,0,0,0,0,0,0,0,0,0,0,0,0,0,0,0,0,0,0,0,0,0,0,0,0,0,0,0,0,0,0,0,0,0,0,0,0,0,
0,0,0,0,0,0,0,0,0,0,0,0,0,0,0,0,0,0,0,0,0,0,0,0,0,0,0,0,0,0,0,0,0,0,0,0,0,0,0,0,0,0,0,0,0,0,0,0,0,0,0,0,0,0,0,0,0,0,0,0,0,0,0,0,0,0,0,0,0,0,0,0,0,0,0,0,0,0,0,0,0,0,0,0,0,0,0,0,0,0,0,0,0,0,0,0,0,0,0,0,
0,0,0,0,0,0,0,0,0,0,0,0,0,0,0,0,0,0,0,0,0,0,0,0,0,0,0,0,0,0,0,0,0,0,0,0,0,0,0,0,0,0,0,0,0,0,0,0,0,0,0,0,0,0,0,0,0,0,0,0,0,0,0,0,0,0,0,0,0,0,0,0,0,0,0,0,0,0,0,0,0,0,0,0,0,0,0,0,0,0,0,0,0,0,0,0,0,0,0,0,
0,0,0,0,0,0,0,0,0,0,0,0,0,0,0,0,0,0,0,0,0,0,0,0,0,0,0,0,0,0,0,0,0,0,0,0,0,0,0,0,0,0,0,0,0,0,0,0,0,0,0,0,0,0,0,0,0,0,0,0,0,0,0,0,0,0,0,0,0,0,0,0,0,0,0,0,0,0,0,0,0,0,0,0,0,0,0,0,0,0,0,0,0,0,0,0,0,0,0,0,
0,0,0,0,0,0,0,0,0,0,0,0,0,0,0,0,0,0,0,0,0,0,0,0,0,0,0,0,0,0,0,0,0,0,0,0,0,0,0,0,0,0,0,0,0,0,0,0,0,0,0,0,0,0,0,0,0,0,0,0,0,0,0,0,0,0,0,0,0,0,0,0,0,0,0,0,0,0,0,0,0,0,0,0,0,0,0,0,0,0,0,0,0,0,0,0,0,0,0,0,
0,0,0,0,0,0,0,0,0,0,0,0,0,0,0,0,0,0,0,0,0,0,0,0,0,0,0,0,0,0,0,0,0,0,0,0,0,0,0,0,0,0,0,0,0,0,0,0,0,0,0,0,0,0,0,0,0,0,0,0,0,0,0,0,0,0,0,0,0,0,0,0,0,0,0,0,0,0,0,0,0,0,0,0,0,0,0,0,0,0,0,0,0,0,0,0,0,0,0,0,
0,0,0,0,0,0,0,0,0,0,0,0,0,0,0,0,0,0,0,0,0,0,0,0,0,0,0,0,0,0,0,0,0,0,0,0,0,0,0,0,0,0,0,0,0,0,0,0,0,0,0,0,0,0,0,0,0,0,0,0,0,0,0,0,0,0,0,0,0,0,0,0,0,0,0,0,0,0,0,0,0,0,0,0,0,0,0,0,0,0,0,0,0,0,0,0,0,0,0,0,
0,0,0,0,0,0,0,0,0,0,0,0,0,0,0,0,0,0,0,0,0,0,0,0,0,0,0,0,0,0,0,0,0,0,0,0,0,0,0,0,0,0,0,0,0,0,0,0,0,0,0,0,0,0,0,0,0,0,0,0,0,0,0,0,0,0,0,0,0,0,0,0,0,0,0,0,0,0,0,0,0,0,0,0,0,0,0,0,0,0,0,0,0,0,0,0,0,0,0,0,
0,0,0,0,0,0,0,0,0,0,0,0,0,0,0,0,0,0,0,0,0,0,0,0,0,0,0,0,0,0,0,0,0,0,0,0,0,0,0,0,0,0,0,0,0,0,0,0,0,0,0,0,0,0,0,0,0,0,0,0,0,0,0,0,0,0,0,0,0,0,0,0,0,0,0,0,0,0,0,0,0,0,0,0,0,0,0,0,0,0,0,0,0,0,0,0,0,0,0,0,
0,0,0,0,0,0,0,0,0,0,0,0,0,0,0,0,0,0,0,0,0,0,0,0,0,0,0,0,0,0,0,0,0,0,0,0,0,0,0,0,0,0,0,0,0,0,0,0,0,0,0,0,0,0,0,0,0,0,0,0,0,0,0,0,0,0,0,0,0,0,0,0,0,0,0,0,0,0,0,0,0,0,0,0,0,0,0,0,0,0,0,0,0,0,0,0,0,0,0,0,
0,0,0,0,0,0,0,0,0,0,0,0,0,0,0,0,0,0,0,0,0,0,0,0,0,0,0,0,0,0,0,0,0,0,0,0,0,0,0,0,0,0,0,0,0,0,0,0,0,0,0,0,0,0,0,0,0,0,0,0,0,0,0,0,0,0,0,0,0,0,0,0,0,0,0,0,0,0,0,0,0,0,0,0,0,0,0,0,0,0,0,0,0,0,0,0,0,0,0,0,
0,0,0,0,0,0,0,0,0,0,0,0,0,0,0,0,0,0,0,0,0,0,0,0,0,0,0,0,0,0,0,0,0,0,0,0,0,0,0,0,0,0,0,0,0,0,0,0,0,0,0,0,0,0,0,0,0,0,0,0,0,0,0,0,0,0,0,0,0,0,0,0,0,0,0,0,0,0,0,0,0,0,0,0,0,0,0,0,0,0,0,0,0,0,0,0,0,0,0,0,
0,0,0,0,0,0,0,0,0,0,0,0,0,0,0,0,0,0,0,0,0,0,0,0,0,0,0,0,0,0,0,0,0,0,0,0,0,0,0,0,0,0,0,0,0,0,0,0,0,0,0,0,0,0,0,0,0,0,0,0,0,0,0,0,0,0,0,0,0,0,0,0,0,0,0,0,0,0,0,0,0,0,0,0,0,0,0,0,0,0,0,0,0,0,0,0,0,0,0,0,
0,0,0,0,0,0,0,0,0,0,0,0,0,0,0,0,0,0,0,0,0,0,0,0,0,0,0,0,0,0,0,0,0,0,0,0,0,0,0,0,0,0,0,0,0,0,0,0,0,0,0,0,0,0,0,0,0,0,0,0,0,0,0,0,0,0,0,0,0,0,0,0,0,0,0,0,0,0,0,0,0,0,0,0,0,0,0,0,0,0,0,0,0,0,0,0,0,0,0,0,
0,0,0,0,0,0,0,0,0,0,0,0,0,0,0,0,0,0,0,0,0,0,0,0,0,0,0,0,0,0,0,0,0,0,0,0,0,0,0,0,0,0,0,0,0,0,0,0,0,0,0,0,0,0,0,0,0,0,0,0,0,0,0,0,0,0,0,0,0,0,0,0,0,0,0,0,0,0,0,0,0,0,0,0,0,0,0,0,0,0,0,0,0,0,0,0,0,0,0,0,
0,0,0,0,0,0,0,0,0,0,0,0,0,0,0,0,0,0,0,0,0,0,0,0,0,0,0,0,0,0,0,0,0,0,0,0,0,0,0,0,0,0,0,0,0,0,0,0,0,0,0,0,0,0,0,0,0,0,0,0,0,0,0,0,0,0,0,0,0,0,0,0,0,0,0,0,0,0,0,0,0,0,0,0,0,0,0,0,0,0,0,0,0,0,0,0,0,0,0,0,
0,0,0,0,0,0,0,0,0,0,0,0,0,0,0,0,0,0,0,0,0,0,0,0,0,0,0,0,0,0,0,0,0,0,0,0,0,0,0,0,0,0,0,0,0,0,0,0,0,0,0,0,0,0,0,0,0,0,0,0,0,0,0,0,0,0,0,0,0,0,0,0,0,0,0,0,0,0,0,0,0,0,0,0,0,0,0,0,0,0,0,0,0,0,0,0,0,0,0,0,
0,0,0,0,0,0,0,0,0,0,0,0,0,0,0,0,0,0,0,0,0,0,0,0,0,0,0,0,0,0,0,0,0,0,0,0,0,0,0,0,0,0,0,0,0,0,0,0,0,0,0,0,0,0,0,0,0,0,0,0,0,0,0,0,0,0,0,0,0,0,0,0,0,0,0,0,0,0,0,0,0,0,0,0,0,0,0,0,0,0,0,0,0,0,0,0,0,0,0,0,
0,0,0,0,0,0,0,0,0,0,0,0,0,0,0,0,0,0,0,0,0,0,0,0,0,0,0,0,0,0,0,0,0,0,0,0,0,0,0,0,0,0,0,0,0,0,0,0,0,0,0,0,0,0,0,0,0,0,0,0,0,0,0,0,0,0,0,0,0,0,0,0,0,0,0,0,0,0,0,0,0,0,0,0,0,0,0,0,0,0,0,0,0,0,0,0,0,0,0,0,
0,0,0,0,0,0,0,0,0,0,0,0,0,0,0,0,0,0,0,0,0,0,0,0,0,0,0,0,0,0,0,0,0,0,0,0,0,0,0,0,0,0,0,0,0,0,0,0,0,0,0,0,0,0,0,0,0,0,0,0,0,0,0,0,0,0,0,0,0,0,0,0,0,0,0,0,0,0,0,0,0,0,0,0,0,0,0,0,0,0,0,0,0,0,0,0,0,0,0,0,
0,0,0,0,0,0,0,0,0,0,0,0,0,0,0,0,0,0,0,0,0,0,0,0,0,0,0,0,0,0,0,0,0,0,0,0,0,0,0,0,0,0,0,0,0,0,0,0,0,0,0,0,0,0,0,0,0,0,0,0,0,0,0,0,0,0,0,0,0,0,0,0,0,0,0,0,0,0,0,0,0,0,0,0,0,0,0,0,0,0,0,0,0,0,0,0,0,0,0,0,
0,0,0,0,0,0,0,0,0,0,0,0,0,0,0,0,0,0,0,0,0,0,0,0,0,0,0,0,0,0,0,0,0,0,0,0,0,0,0,0,0,0,0,0,0,0,0,0,0,0,0,0,0,0,0,0,0,0,0,0,0,0,0,0,0,0,0,0,0,0,0,0,0,0,0,0,0,0,0,0,0,0,0,0,0,0,0,0,0,0,0,0,0,0,0,0,0,0,0,0,
0,0,0,0,0,0,0,0,0,0,0,0,0,0,0,0,0,0,0,0,0,0,0,0,0,0,0,0,0,0,0,0,0,0,0,0,0,0,0,0,0,0,0,0,0,0,0,0,0,0,0,0,0,0,0,0,0,0,0,0,0,0,0,0,0,0,0,0,0,0,0,0,0,0,0,0,0,0,0,0,0,0,0,0,0,0,0,0,0,0,0,0,0,0,0,0,0,0,0,0,
0,0,0,0,0,0,0,0,0,0,0,0,0,0,0,0,0,0,0,0,0,0,0,0,0,0,0,0,0,0,0,0,0,0,0,0,0,0,0,0,0,0,0,0,0,0,0,0,0,0,0,0,0,0,0,0,0,0,0,0,0,0,0,0,0,0,0,0,0,0,0,0,0,0,0,0,0,0,0,0,0,0,0,0,0,0,0,0,0,0,0,0,0,0,0,0,0,0,0,0,
0,0,0,0,0,0,0,0,0,0,0,0,0,0,0,0,0,0,0,0,0,0,0,0,0,0,0,0,0,0,0,0,0,0,0,0,0,0,0,0,0,0,0,0,0,0,0,0,0,0,0,0,0,0,0,0,0,0,0,0,0,0,0,0,0,0,0,0,0,0,0,0,0,0,0,0,0,0,0,0,0,0,0,0,0,0,0,0,0,0,0,0,0,0,0,0,0,0,0,0,
0,0,0,0,0,0,0,0,0,0,0,0,0,0,0,0,0,0,0,0,0,0,0,0,0,0,0,0,0,0,0,0,0,0,0,0,0,0,0,0,0,0,0,0,0,0,0,0,0,0,0,0,0,0,0,0,0,0,0,0,0,0,0,0,0,0,0,0,0,0,0,0,0,0,0,0,0,0,0,0,0,0,0,0,0,0,0,0,0,0,0,0,0,0,0,0,0,0,0,0,
0,0,0,0,0,0,0,0,0,0,0,0,0,0,0,0,0,0,0,0,0,0,0,0,0,0,0,0,0,0,0,0,0,0,0,0,0,0,0,0,0,0,0,0,0,0,0,0,0,0,0,0,0,0,0,0,0,0,0,0,0,0,0,0,0,0,0,0,0,0,0,0,0,0,0,0,0,0,0,0,0,0,0,0,0,0,0,0,0,0,0,0,0,0,0,0,0,0,0,0,
0,0,0,0,0,0,0,0,0,0,0,0,0,0,0,0,0,0,0,0,0,0,0,0,0,0,0,0,0,0,0,0,0,0,0,0,0,0,0,0,0,0,0,0,0,0,0,0,0,0,0,0,0,0,0,0,0,0,0,0,0,0,0,0,0,0,0,0,0,0,0,0,0,0,0,0,0,0,0,0,0,0,0,0,0,0,0,0,0,0,0,0,0,0,0,0,0,0,0,0,
0,0,0,0,0,0,0,0,0,0,0,0,0,0,0,0,0,0,0,0,0,0,0,0,0,0,0,0,0,0,0,0,0,0,0,0,0,0,0,0,0,0,0,0,0,0,0,0,0,0,0,0,0,0,0,0,0,0,0,0,0,0,0,0,0,0,0,0,0,0,0,0,0,0,0,0,0,0,0,0,0,0,0,0,0,0,0,0,0,0,0,0,0,0,0,0,0,0,0,0,
0,0,0,0,0,0,0,0,0,0,0,0,0,0,0,0,0,0,0,0,0,0,0,0,0,0,0,0,0,0,0,0,0,0,0,0,0,0,0,0,0,0,0,0,0,0,0,0,0,0,0,0,0,0,0,0,0,0,0,0,0,0,0,0,0,0,0,0,0,0,0,0,0,0,0,0,0,0,0,0,0,0,0,0,0,0,0,0,0,0,0,0,0,0,0,0,0,0,0,0,
0,0,0,0,0,0,0,0,0,0,0,0,0,0,0,0,0,0,0,0,0,0,0,0,0,0,0,0,0,0,0,0,0,0,0,0,0,0,0,0,0,0,0,0,0,0,0,0,0,0,0,0,0,0,0,0,0,0,0,0,0,0,0,0,0,0,0,0,0,0,0,0,0,0,0,0,0,0,0,0,0,0,0,0,0,0,0,0,0,0,0,0,0,0,0,0,0,0,0,0,
0,0,0,0,0,0,0,0,0,0,0,0,0,0,0,0,0,0,0,0,0,0,0,0,0,0,0,0,0,0,0,0,0,0,0,0,0,0,0,0,0,0,0,0,0,0,0,0,0,0,0,0,0,0,0,0,0,0,0,0,0,0,0,0,0,0,0,0,0,0,0,0,0,0,0,0,0,0,0,0,0,0,0,0,0,0,0,0,0,0,0,0,0,0,0,0,0,0,0,0,
0,0,0,0,0,0,0,0,0,0,0,0,0,0,0,0,0,0,0,0,0,0,0,0,0,0,0,0,0,0,0,0,0,0,0,0,0,0,0,0,0,0,0,0,0,0,0,0,0,0,0,0,0,0,0,0,0,0,0,0,0,0,0,0,0,0,0,0,0,0,0,0,0,0,0,0,0,0,0,0,0,0,0,0,0,0,0,0,0,0,0,0,0,0,0,0,0,0,0,0,
0,0,0,0,0,0,0,0,0,0,0,0,0,0,0,0,0,0,0,0,0,0,0,0,0,0,0,0,0,0,0,0,0,0,0,0,0,0,0,0,0,0,0,0,0,0,0,0,0,0,0,0,0,0,0,0,0,0,0,0,0,0,0,0,0,0,0,0,0,0,0,0,0,0,0,0,0,0,0,0,0,0,0,0,0,0,0,0,0,0,0,0,0,0,0,0,0,0,0,0,
0,0,0,0,0,0,0,0,0,0,0,0,0,0,0,0,0,0,0,0,0,0,0,0,0,0,0,0,0,0,0,0,0,0,0,0,0,0,0,0,0,0,0,0,0,0,0,0,0,0,0,0,0,0,0,0,0,0,0,0,0,0,0,0,0,0,0,0,0,0,0,0,0,0,0,0,0,0,0,0,0,0,0,0,0,0,0,0,0,0,0,0,0,0,0,0,0,0,0,0,
0,0,0,0,0,0,0,0,0,0,0,0,0,0,0,0,0,0,0,0,0,0,0,0,0,0,0,0,0,0,0,0,0,0,0,0,0,0,0,0,0,0,0,0,0,0,0,0,0,0,0,0,0,0,0,0,0,0,0,0,0,0,0,0,0,0,0,0,0,0,0,0,0,0,0,0,0,0,0,0,0,0,0,0,0,0,0,0,0,0,0,0,0,0,0,0,0,0,0,0,
0,0,0,0,0,0,0,0,0,0,0,0,0,0,0,0,0,0,0,0,0,0,0,0,0,0,0,0,0,0,0,0,0,0,0,0,0,0,0,0,0,0,0,0,0,0,0,0,0,0,0,0,0,0,0,0,0,0,0,0,0,0,0,0,0,0,0,0,0,0,0,0,0,0,0,0,0,0,0,0,0,0,0,0,0,0,0,0,0,0,0,0,0,0,0,0,0,0,0,0,
0,0,0,0,0,0,0,0,0,0,0,0,0,0,0,0,0,0,0,0,0,0,0,0,0,0,0,0,0,0,0,0,0,0,0,0,0,0,0,0,0,0,0,0,0,0,0,0,0,0,0,0,0,0,0,0,0,0,0,0,0,0,0,0,0,0,0,0,0,0,0,0,0,0,0,0,0,0,0,0,0,0,0,0,0,0,0,0,0,0,0,0,0,0,0,0,0,0,0,0,
0,0,0,0,0,0,0,0,0,0,0,0,0,0,0,0,0,0,0,0,0,0,0,0,0,0,0,0,0,0,0,0,0,0,0,0,0,0,0,0,0,0,0,0,0,0,0,0,0,0,0,0,0,0,0,0,0,0,0,0,0,0,0,0,0,0,0,0,0,0,0,0,0,0,0,0,0,0,0,0,0,0,0,0,0,0,0,0,0,0,0,0,0,0,0,0,0,0,0,0,
0,0,0,0,0,0,0,0,0,0,0,0,0,0,0,0,0,0,0,0,0,0,0,0,0,0,0,0,0,0,0,0,0,0,0,0,0,0,0,0,0,0,0,0,0,0,0,0,0,0,0,0,0,0,0,0,0,0,0,0,0,0,0,0,0,0,0,0,0,0,0,0,0,0,0,0,0,0,0,0,0,0,0,0,0,0,0,0,0,0,0,0,0,0,0,0,0,0,0,0,
0,0,0,0,0,0,0,0,0,0,0,0,0,0,0,0,0,0,0,0,0,0,0,0,0,0,0,0,0,0,0,0,0,0,0,0,0,0,0,0,0,0,0,0,1633,1633,1633,1633,1633,1633,1633,1633,1633,1633,1633,1633,0,0,0,0,0,0,0,0,0,0,0,0,0,0,0,0,0,0,0,0,0,0,0,0,0,0,0,0,0,0,0,0,0,0,0,0,0,0,0,0,0,0,0,0,
0,0,0,0,0,0,0,0,0,0,0,0,0,0,0,0,0,0,0,0,0,0,0,0,0,0,0,0,0,0,0,0,0,0,0,0,0,0,0,0,0,0,0,0,1633,1633,1633,1633,1633,1633,1633,1633,1633,1633,1633,1633,0,0,0,0,0,0,0,0,0,0,0,0,0,0,0,0,0,0,0,0,0,0,0,0,0,0,0,0,0,0,0,0,0,0,0,0,0,0,0,0,0,0,0,0,
0,0,0,0,0,0,0,0,0,0,0,0,0,0,0,0,0,0,0,0,0,0,0,0,0,0,0,0,0,0,0,0,0,0,0,0,0,0,0,0,0,0,0,0,1633,1633,1633,1633,1633,1633,1633,1633,1633,1633,1633,1633,0,0,0,0,0,0,0,0,0,0,0,0,0,0,0,0,0,0,0,0,0,0,0,0,0,0,0,0,0,0,0,0,0,0,0,0,0,0,0,0,0,0,0,0,
0,0,0,0,0,0,0,0,0,0,0,0,0,0,0,0,0,0,0,0,0,0,0,0,0,0,0,0,0,0,0,0,0,0,0,0,0,0,0,0,0,0,0,0,1633,1633,1633,1633,1633,1633,1633,1633,1633,1633,1633,1633,0,0,0,0,0,0,0,0,0,0,0,0,0,0,0,0,0,0,0,0,0,0,0,0,0,0,0,0,0,0,0,0,0,0,0,0,0,0,0,0,0,0,0,0,
0,0,0,0,0,0,0,0,0,0,0,0,0,0,0,0,0,0,0,0,0,0,0,0,0,0,0,0,0,0,0,0,0,0,0,0,0,0,0,0,0,0,0,0,1633,1633,1633,1633,1633,1633,1633,1633,1633,1633,1633,1633,0,0,0,0,0,0,0,0,0,0,0,0,0,0,0,0,0,0,0,0,0,0,0,0,0,0,0,0,0,0,0,0,0,0,0,0,0,0,0,0,0,0,0,0,
0,0,0,0,0,0,0,0,0,0,0,0,0,0,0,0,0,0,0,0,0,0,0,0,0,0,0,0,0,0,0,0,0,0,0,0,0,0,0,0,0,0,0,0,1633,1633,1633,1633,1633,1633,1633,1633,1633,1633,1633,1633,0,0,0,0,0,0,0,0,0,0,0,0,0,0,0,0,0,0,0,0,0,0,0,0,0,0,0,0,0,0,0,0,0,0,0,0,0,0,0,0,0,0,0,0,
0,0,0,0,0,0,0,0,0,0,0,0,0,0,0,0,0,0,0,0,0,0,0,0,0,0,0,0,0,0,0,0,0,0,0,0,0,0,0,0,0,0,0,0,1633,1633,1633,1633,1633,1633,1633,1633,1633,1633,1633,1633,0,0,0,0,0,0,0,0,0,0,0,0,0,0,0,0,0,0,0,0,0,0,0,0,0,0,0,0,0,0,0,0,0,0,0,0,0,0,0,0,0,0,0,0,
0,0,0,0,0,0,0,0,0,0,0,0,0,0,0,0,0,0,0,0,0,0,0,0,0,0,0,0,0,0,0,0,0,0,0,0,0,0,0,0,0,0,0,0,1633,1633,1633,1633,1633,1633,1633,1633,1633,1633,1633,1633,0,0,0,0,0,0,0,0,0,0,0,0,0,0,0,0,0,0,0,0,0,0,0,0,0,0,0,0,0,0,0,0,0,0,0,0,0,0,0,0,0,0,0,0,
0,0,0,0,0,0,0,0,0,0,0,0,0,0,0,0,0,0,0,0,0,0,0,0,0,0,0,0,0,0,0,0,0,0,0,0,0,0,0,0,0,0,0,0,1633,1633,1633,1633,1633,1633,1633,1633,1633,1633,1633,1633,0,0,0,0,0,0,0,0,0,0,0,0,0,0,0,0,0,0,0,0,0,0,0,0,0,0,0,0,0,0,0,0,0,0,0,0,0,0,0,0,0,0,0,0,
0,0,0,0,0,0,0,0,0,0,0,0,0,0,0,0,0,0,0,0,0,0,0,0,0,0,0,0,0,0,0,0,0,0,0,0,0,0,0,0,0,0,0,0,1633,1633,1633,1633,1633,1633,1633,1633,1633,1633,1633,1633,0,0,0,0,0,0,0,0,0,0,0,0,0,0,0,0,0,0,0,0,0,0,0,0,0,0,0,0,0,0,0,0,0,0,0,0,0,0,0,0,0,0,0,0,
0,0,0,0,0,0,0,0,0,0,0,0,0,0,0,0,0,0,0,0,0,0,0,0,0,0,0,0,0,0,0,0,0,0,0,0,0,0,0,0,0,0,0,0,1633,1633,1633,1633,1633,1633,1633,1633,1633,1633,1633,1633,0,0,0,0,0,0,0,0,0,0,0,0,0,0,0,0,0,0,0,0,0,0,0,0,0,0,0,0,0,0,0,0,0,0,0,0,0,0,0,0,0,0,0,0,
0,0,0,0,0,0,0,0,0,0,0,0,0,0,0,0,0,0,0,0,0,0,0,0,0,0,0,0,0,0,0,0,0,0,0,0,0,0,0,0,0,0,0,0,1633,1633,1633,1633,1633,1633,1633,1633,1633,1633,1633,1633,0,0,0,0,0,0,0,0,0,0,0,0,0,0,0,0,0,0,0,0,0,0,0,0,0,0,0,0,0,0,0,0,0,0,0,0,0,0,0,0,0,0,0,0,
0,0,0,0,0,0,0,0,0,0,0,0,0,0,0,0,0,0,0,0,0,0,0,0,0,0,0,0,0,0,0,0,0,0,0,0,0,0,0,0,0,0,0,0,0,0,0,0,0,0,0,0,0,0,0,0,0,0,0,0,0,0,0,0,0,0,0,0,0,0,0,0,0,0,0,0,0,0,0,0,0,0,0,0,0,0,0,0,0,0,0,0,0,0,0,0,0,0,0,0,
0,0,0,0,0,0,0,0,0,0,0,0,0,0,0,0,0,0,0,0,0,0,0,0,0,0,0,0,0,0,0,0,0,0,0,0,0,0,0,0,0,0,0,0,0,0,0,0,0,0,0,0,0,0,0,0,0,0,0,0,0,0,0,0,0,0,0,0,0,0,0,0,0,0,0,0,0,0,0,0,0,0,0,0,0,0,0,0,0,0,0,0,0,0,0,0,0,0,0,0,
0,0,0,0,0,0,0,0,0,0,0,0,0,0,0,0,0,0,0,0,0,0,0,0,0,0,0,0,0,0,0,0,0,0,0,0,0,0,0,0,0,0,0,0,0,0,0,0,0,0,0,0,0,0,0,0,0,0,0,0,0,0,0,0,0,0,0,0,0,0,0,0,0,0,0,0,0,0,0,0,0,0,0,0,0,0,0,0,0,0,0,0,0,0,0,0,0,0,0,0,
0,0,0,0,0,0,0,0,0,0,0,0,0,0,0,0,0,0,0,0,0,0,0,0,0,0,0,0,0,0,0,0,0,0,0,0,0,0,0,0,0,0,0,0,0,0,0,0,0,0,0,0,0,0,0,0,0,0,0,0,0,0,0,0,0,0,0,0,0,0,0,0,0,0,0,0,0,0,0,0,0,0,0,0,0,0,0,0,0,0,0,0,0,0,0,0,0,0,0,0,
0,0,0,0,0,0,0,0,0,0,0,0,0,0,0,0,0,0,0,0,0,0,0,0,0,0,0,0,0,0,0,0,0,0,0,0,0,0,0,0,0,0,0,0,0,0,0,0,0,0,0,0,0,0,0,0,0,0,0,0,0,0,0,0,0,0,0,0,0,0,0,0,0,0,0,0,0,0,0,0,0,0,0,0,0,0,0,0,0,0,0,0,0,0,0,0,0,0,0,0,
0,0,0,0,0,0,0,0,0,0,0,0,0,0,0,0,0,0,0,0,0,0,0,0,0,0,0,0,0,0,0,0,0,0,0,0,0,0,0,0,0,0,0,0,0,0,0,0,0,0,0,0,0,0,0,0,0,0,0,0,0,0,0,0,0,0,0,0,0,0,0,0,0,0,0,0,0,0,0,0,0,0,0,0,0,0,0,0,0,0,0,0,0,0,0,0,0,0,0,0,
0,0,0,0,0,0,0,0,0,0,0,0,0,0,0,0,0,0,0,0,0,0,0,0,0,0,0,0,0,0,0,0,0,0,0,0,0,0,0,0,0,0,0,0,0,0,0,0,0,0,0,0,0,0,0,0,0,0,0,0,0,0,0,0,0,0,0,0,0,0,0,0,0,0,0,0,0,0,0,0,0,0,0,0,0,0,0,0,0,0,0,0,0,0,0,0,0,0,0,0,
0,0,0,0,0,0,0,0,0,0,0,0,0,0,0,0,0,0,0,0,0,0,0,0,0,0,0,0,0,0,0,0,0,0,0,0,0,0,0,0,0,0,0,0,0,0,0,0,0,0,0,0,0,0,0,0,0,0,0,0,0,0,0,0,0,0,0,0,0,0,0,0,0,0,0,0,0,0,0,0,0,0,0,0,0,0,0,0,0,0,0,0,0,0,0,0,0,0,0,0,
0,0,0,0,0,0,0,0,0,0,0,0,0,0,0,0,0,0,0,0,0,0,0,0,0,0,0,0,0,0,0,0,0,0,0,0,0,0,0,0,0,0,0,0,0,0,0,0,0,0,0,0,0,0,0,0,0,0,0,0,0,0,0,0,0,0,0,0,0,0,0,0,0,0,0,0,0,0,0,0,0,0,0,0,0,0,0,0,0,0,0,0,0,0,0,0,0,0,0,0,
0,0,0,0,0,0,0,0,0,0,0,0,0,0,0,0,0,0,0,0,0,0,0,0,0,0,0,0,0,0,0,0,0,0,0,0,0,0,0,0,0,0,0,0,0,0,0,0,0,0,0,0,0,0,0,0,0,0,0,0,0,0,0,0,0,0,0,0,0,0,0,0,0,0,0,0,0,0,0,0,0,0,0,0,0,0,0,0,0,0,0,0,0,0,0,0,0,0,0,0,
0,0,0,0,0,0,0,0,0,0,0,0,0,0,0,0,0,0,0,0,0,0,0,0,0,0,0,0,0,0,0,0,0,0,0,0,0,0,0,0,0,0,0,0,0,0,0,0,0,0,0,0,0,0,0,0,0,0,0,0,0,0,0,0,0,0,0,0,0,0,0,0,0,0,0,0,0,0,0,0,0,0,0,0,0,0,0,0,0,0,0,0,0,0,0,0,0,0,0,0,
0,0,0,0,0,0,0,0,0,0,0,0,0,0,0,0,0,0,0,0,0,0,0,0,0,0,0,0,0,0,0,0,0,0,0,0,0,0,0,0,0,0,0,0,0,0,0,0,0,0,0,0,0,0,0,0,0,0,0,0,0,0,0,0,0,0,0,0,0,0,0,0,0,0,0,0,0,0,0,0,0,0,0,0,0,0,0,0,0,0,0,0,0,0,0,0,0,0,0,0,
0,0,0,0,0,0,0,0,0,0,0,0,0,0,0,0,0,0,0,0,0,0,0,0,0,0,0,0,0,0,0,0,0,0,0,0,0,0,0,0,0,0,0,0,0,0,0,0,0,0,0,0,0,0,0,0,0,0,0,0,0,0,0,0,0,0,0,0,0,0,0,0,0,0,0,0,0,0,0,0,0,0,0,0,0,0,0,0,0,0,0,0,0,0,0,0,0,0,0,0,
0,0,0,0,0,0,0,0,0,0,0,0,0,0,0,0,0,0,0,0,0,0,0,0,0,0,0,0,0,0,0,0,0,0,0,0,0,0,0,0,0,0,0,0,0,0,0,0,0,0,0,0,0,0,0,0,0,0,0,0,0,0,0,0,0,0,0,0,0,0,0,0,0,0,0,0,0,0,0,0,0,0,0,0,0,0,0,0,0,0,0,0,0,0,0,0,0,0,0,0,
0,0,0,0,0,0,0,0,0,0,0,0,0,0,0,0,0,0,0,0,0,0,0,0,0,0,0,0,0,0,0,0,0,0,0,0,0,0,0,0,0,0,0,0,0,0,0,0,0,0,0,0,0,0,0,0,0,0,0,0,0,0,0,0,0,0,0,0,0,0,0,0,0,0,0,0,0,0,0,0,0,0,0,0,0,0,0,0,0,0,0,0,0,0,0,0,0,0,0,0,
0,0,0,0,0,0,0,0,0,0,0,0,0,0,0,0,0,0,0,0,0,0,0,0,0,0,0,0,0,0,0,0,0,0,0,0,0,0,0,0,0,0,0,0,0,0,0,0,0,0,0,0,0,0,0,0,0,0,0,0,0,0,0,0,0,0,0,0,0,0,0,0,0,0,0,0,0,0,0,0,0,0,0,0,0,0,0,0,0,0,0,0,0,0,0,0,0,0,0,0,
0,0,0,0,0,0,0,0,0,0,0,0,0,0,0,0,0,0,0,0,0,0,0,0,0,0,0,0,0,0,0,0,0,0,0,0,0,0,0,0,0,0,0,0,0,0,0,0,0,0,0,0,0,0,0,0,0,0,0,0,0,0,0,0,0,0,0,0,0,0,0,0,0,0,0,0,0,0,0,0,0,0,0,0,0,0,0,0,0,0,0,0,0,0,0,0,0,0,0,0,
0,0,0,0,0,0,0,0,0,0,0,0,0,0,0,0,0,0,0,0,0,0,0,0,0,0,0,0,0,0,0,0,0,0,0,0,0,0,0,0,0,0,0,0,0,0,0,0,0,0,0,0,0,0,0,0,0,0,0,0,0,0,0,0,0,0,0,0,0,0,0,0,0,0,0,0,0,0,0,0,0,0,0,0,0,0,0,0,0,0,0,0,0,0,0,0,0,0,0,0,
0,0,0,0,0,0,0,0,0,0,0,0,0,0,0,0,0,0,0,0,0,0,0,0,0,0,0,0,0,0,0,0,0,0,0,0,0,0,0,0,0,0,0,0,0,0,0,0,0,0,0,0,0,0,0,0,0,0,0,0,0,0,0,0,0,0,0,0,0,0,0,0,0,0,0,0,0,0,0,0,0,0,0,0,0,0,0,0,0,0,0,0,0,0,0,0,0,0,0,0,
0,0,0,0,0,0,0,0,0,0,0,0,0,0,0,0,0,0,0,0,0,0,0,0,0,0,0,0,0,0,0,0,0,0,0,0,0,0,0,0,0,0,0,0,0,0,0,0,0,0,0,0,0,0,0,0,0,0,0,0,0,0,0,0,0,0,0,0,0,0,0,0,0,0,0,0,0,0,0,0,0,0,0,0,0,0,0,0,0,0,0,0,0,0,0,0,0,0,0,0,
0,0,0,0,0,0,0,0,0,0,0,0,0,0,0,0,0,0,0,0,0,0,0,0,0,0,0,0,0,0,0,0,0,0,0,0,0,0,0,0,0,0,0,0,0,0,0,0,0,0,0,0,0,0,0,0,0,0,0,0,0,0,0,0,0,0,0,0,0,0,0,0,0,0,0,0,0,0,0,0,0,0,0,0,0,0,0,0,0,0,0,0,0,0,0,0,0,0,0,0,
0,0,0,0,0,0,0,0,0,0,0,0,0,0,0,0,0,0,0,0,0,0,0,0,0,0,0,0,0,0,0,0,0,0,0,0,0,0,0,0,0,0,0,0,0,0,0,0,0,0,0,0,0,0,0,0,0,0,0,0,0,0,0,0,0,0,0,0,0,0,0,0,0,0,0,0,0,0,0,0,0,0,0,0,0,0,0,0,0,0,0,0,0,0,0,0,0,0,0,0,
0,0,0,0,0,0,0,0,0,0,0,0,0,0,0,0,0,0,0,0,0,0,0,0,0,0,0,0,0,0,0,0,0,0,0,0,0,0,0,0,0,0,0,0,0,0,0,0,0,0,0,0,0,0,0,0,0,0,0,0,0,0,0,0,0,0,0,0,0,0,0,0,0,0,0,0,0,0,0,0,0,0,0,0,0,0,0,0,0,0,0,0,0,0,0,0,0,0,0,0,
0,0,0,0,0,0,0,0,0,0,0,0,0,0,0,0,0,0,0,0,0,0,0,0,0,0,0,0,0,0,0,0,0,0,0,0,0,0,0,0,0,0,0,0,0,0,0,0,0,0,0,0,0,0,0,0,0,0,0,0,0,0,0,0,0,0,0,0,0,0,0,0,0,0,0,0,0,0,0,0,0,0,0,0,0,0,0,0,0,0,0,0,0,0,0,0,0,0,0,0,
0,0,0,0,0,0,0,0,0,0,0,0,0,0,0,0,0,0,0,0,0,0,0,0,0,0,0,0,0,0,0,0,0,0,0,0,0,0,0,0,0,0,0,0,0,0,0,0,0,0,0,0,0,0,0,0,0,0,0,0,0,0,0,0,0,0,0,0,0,0,0,0,0,0,0,0,0,0,0,0,0,0,0,0,0,0,0,0,0,0,0,0,0,0,0,0,0,0,0,0,
0,0,0,0,0,0,0,0,0,0,0,0,0,0,0,0,0,0,0,0,0,0,0,0,0,0,0,0,0,0,0,0,0,0,0,0,0,0,0,0,0,0,0,0,0,0,0,0,0,0,0,0,0,0,0,0,0,0,0,0,0,0,0,0,0,0,0,0,0,0,0,0,0,0,0,0,0,0,0,0,0,0,0,0,0,0,0,0,0,0,0,0,0,0,0,0,0,0,0,0,
0,0,0,0,0,0,0,0,0,0,0,0,0,0,0,0,0,0,0,0,0,0,0,0,0,0,0,0,0,0,0,0,0,0,0,0,0,0,0,0,0,0,0,0,0,0,0,0,0,0,0,0,0,0,0,0,0,0,0,0,0,0,0,0,0,0,0,0,0,0,0,0,0,0,0,0,0,0,0,0,0,0,0,0,0,0,0,0,0,0,0,0,0,0,0,0,0,0,0,0,
0,0,0,0,0,0,0,0,0,0,0,0,0,0,0,0,0,0,0,0,0,0,0,0,0,0,0,0,0,0,0,0,0,0,0,0,0,0,0,0,0,0,0,0,0,0,0,0,0,0,0,0,0,0,0,0,0,0,0,0,0,0,0,0,0,0,0,0,0,0,0,0,0,0,0,0,0,0,0,0,0,0,0,0,0,0,0,0,0,0,0,0,0,0,0,0,0,0,0,0,
0,0,0,0,0,0,0,0,0,0,0,0,0,0,0,0,0,0,0,0,0,0,0,0,0,0,0,0,0,0,0,0,0,0,0,0,0,0,0,0,0,0,0,0,0,0,0,0,0,0,0,0,0,0,0,0,0,0,0,0,0,0,0,0,0,0,0,0,0,0,0,0,0,0,0,0,0,0,0,0,0,0,0,0,0,0,0,0,0,0,0,0,0,0,0,0,0,0,0,0,
0,0,0,0,0,0,0,0,0,0,0,0,0,0,0,0,0,0,0,0,0,0,0,0,0,0,0,0,0,0,0,0,0,0,0,0,0,0,0,0,0,0,0,0,0,0,0,0,0,0,0,0,0,0,0,0,0,0,0,0,0,0,0,0,0,0,0,0,0,0,0,0,0,0,0,0,0,0,0,0,0,0,0,0,0,0,0,0,0,0,0,0,0,0,0,0,0,0,0,0,
0,0,0,0,0,0,0,0,0,0,0,0,0,0,0,0,0,0,0,0,0,0,0,0,0,0,0,0,0,0,0,0,0,0,0,0,0,0,0,0,0,0,0,0,0,0,0,0,0,0,0,0,0,0,0,0,0,0,0,0,0,0,0,0,0,0,0,0,0,0,0,0,0,0,0,0,0,0,0,0,0,0,0,0,0,0,0,0,0,0,0,0,0,0,0,0,0,0,0,0,
0,0,0,0,0,0,0,0,0,0,0,0,0,0,0,0,0,0,0,0,0,0,0,0,0,0,0,0,0,0,0,0,0,0,0,0,0,0,0,0,0,0,0,0,0,0,0,0,0,0,0,0,0,0,0,0,0,0,0,0,0,0,0,0,0,0,0,0,0,0,0,0,0,0,0,0,0,0,0,0,0,0,0,0,0,0,0,0,0,0,0,0,0,0,0,0,0,0,0,0,
0,0,0,0,0,0,0,0,0,0,0,0,0,0,0,0,0,0,0,0,0,0,0,0,0,0,0,0,0,0,0,0,0,0,0,0,0,0,0,0,0,0,0,0,0,0,0,0,0,0,0,0,0,0,0,0,0,0,0,0,0,0,0,0,0,0,0,0,0,0,0,0,0,0,0,0,0,0,0,0,0,0,0,0,0,0,0,0,0,0,0,0,0,0,0,0,0,0,0,0,
0,0,0,0,0,0,0,0,0,0,0,0,0,0,0,0,0,0,0,0,0,0,0,0,0,0,0,0,0,0,0,0,0,0,0,0,0,0,0,0,0,0,0,0,0,0,0,0,0,0,0,0,0,0,0,0,0,0,0,0,0,0,0,0,0,0,0,0,0,0,0,0,0,0,0,0,0,0,0,0,0,0,0,0,0,0,0,0,0,0,0,0,0,0,0,0,0,0,0,0,
0,0,0,0,0,0,0,0,0,0,0,0,0,0,0,0,0,0,0,0,0,0,0,0,0,0,0,0,0,0,0,0,0,0,0,0,0,0,0,0,0,0,0,0,0,0,0,0,0,0,0,0,0,0,0,0,0,0,0,0,0,0,0,0,0,0,0,0,0,0,0,0,0,0,0,0,0,0,0,0,0,0,0,0,0,0,0,0,0,0,0,0,0,0,0,0,0,0,0,0,
0,0,0,0,0,0,0,0,0,0,0,0,0,0,0,0,0,0,0,0,0,0,0,0,0,0,0,0,0,0,0,0,0,0,0,0,0,0,0,0,0,0,0,0,0,0,0,0,0,0,0,0,0,0,0,0,0,0,0,0,0,0,0,0,0,0,0,0,0,0,0,0,0,0,0,0,0,0,0,0,0,0,0,0,0,0,0,0,0,0,0,0,0,0,0,0,0,0,0,0,
0,0,0,0,0,0,0,0,0,0,0,0,0,0,0,0,0,0,0,0,0,0,0,0,0,0,0,0,0,0,0,0,0,0,0,0,0,0,0,0,0,0,0,0,0,0,0,0,0,0,0,0,0,0,0,0,0,0,0,0,0,0,0,0,0,0,0,0,0,0,0,0,0,0,0,0,0,0,0,0,0,0,0,0,0,0,0,0,0,0,0,0,0,0,0,0,0,0,0,0,
0,0,0,0,0,0,0,0,0,0,0,0,0,0,0,0,0,0,0,0,0,0,0,0,0,0,0,0,0,0,0,0,0,0,0,0,0,0,0,0,0,0,0,0,0,0,0,0,0,0,0,0,0,0,0,0,0,0,0,0,0,0,0,0,0,0,0,0,0,0,0,0,0,0,0,0,0,0,0,0,0,0,0,0,0,0,0,0,0,0,0,0,0,0,0,0,0,0,0,0,
0,0,0,0,0,0,0,0,0,0,0,0,0,0,0,0,0,0,0,0,0,0,0,0,0,0,0,0,0,0,0,0,0,0,0,0,0,0,0,0,0,0,0,0,0,0,0,0,0,0,0,0,0,0,0,0,0,0,0,0,0,0,0,0,0,0,0,0,0,0,0,0,0,0,0,0,0,0,0,0,0,0,0,0,0,0,0,0,0,0,0,0,0,0,0,0,0,0,0,0,
0,0,0,0,0,0,0,0,0,0,0,0,0,0,0,0,0,0,0,0,0,0,0,0,0,0,0,0,0,0,0,0,0,0,0,0,0,0,0,0,0,0,0,0,0,0,0,0,0,0,0,0,0,0,0,0,0,0,0,0,0,0,0,0,0,0,0,0,0,0,0,0,0,0,0,0,0,0,0,0,0,0,0,0,0,0,0,0,0,0,0,0,0,0,0,0,0,0,0,0,
0,0,0,0,0,0,0,0,0,0,0,0,0,0,0,0,0,0,0,0,0,0,0,0,0,0,0,0,0,0,0,0,0,0,0,0,0,0,0,0,0,0,0,0,0,0,0,0,0,0,0,0,0,0,0,0,0,0,0,0,0,0,0,0,0,0,0,0,0,0,0,0,0,0,0,0,0,0,0,0,0,0,0,0,0,0,0,0,0,0,0,0,0,0,0,0,0,0,0,0,
0,0,0,0,0,0,0,0,0,0,0,0,0,0,0,0,0,0,0,0,0,0,0,0,0,0,0,0,0,0,0,0,0,0,0,0,0,0,0,0,0,0,0,0,0,0,0,0,0,0,0,0,0,0,0,0,0,0,0,0,0,0,0,0,0,0,0,0,0,0,0,0,0,0,0,0,0,0,0,0,0,0,0,0,0,0,0,0,0,0,0,0,0,0,0,0,0,0,0,0,
0,0,0,0,0,0,0,0,0,0,0,0,0,0,0,0,0,0,0,0,0,0,0,0,0,0,0,0,0,0,0,0,0,0,0,0,0,0,0,0,0,0,0,0,0,0,0,0,0,0,0,0,0,0,0,0,0,0,0,0,0,0,0,0,0,0,0,0,0,0,0,0,0,0,0,0,0,0,0,0,0,0,0,0,0,0,0,0,0,0,0,0,0,0,0,0,0,0,0,0,
0,0,0,0,0,0,0,0,0,0,0,0,0,0,0,0,0,0,0,0,0,0,0,0,0,0,0,0,0,0,0,0,0,0,0,0,0,0,0,0,0,0,0,0,0,0,0,0,0,0,0,0,0,0,0,0,0,0,0,0,0,0,0,0,0,0,0,0,0,0,0,0,0,0,0,0,0,0,0,0,0,0,0,0,0,0,0,0,0,0,0,0,0,0,0,0,0,0,0,0
</data>
 </layer>
 <objectgroup id="4" name="birth_area">
  <object id="1" x="2887.88" y="2875.76" width="642.424" height="642.424"/>
 </objectgroup>
 <objectgroup id="5" name="shop">
  <object id="4" x="3197.33" y="3196">
  <properties>
    <property name="buildingid" type="int" value="401"/>
    <property name="shopid" type="int" value="1001"/>
    <property name="shoprange" type="int" value="5"/>
  </properties>
   <point/>
  </object>
 </objectgroup>
 <objectgroup id="6" name="monster">
  <object id="5" x="108" y="68">
   <properties>
    <property name="monsterid" type="int" value="2001"/>
   </properties>
   <point/>
  </object>
  <object id="6" x="6116" y="116">
   <properties>
    <property name="monsterid" type="int" value="2001"/>
   </properties>
   <point/>
  </object>
  <object id="7" x="6176" y="6216">
   <properties>
    <property name="monsterid" type="int" value="2001"/>
   </properties>
   <point/>
  </object>
  <object id="8" x="224" y="6272">
   <properties>
    <property name="monsterid" type="int" value="2001"/>
   </properties>
   <point/>
  </object>
 </objectgroup>
</map>
